apps/web/public/luts/brooklyn.cube
#Created by: Adobe Photoshop Export Color Lookup Plugin
#Copyright: (C) Copyright 2018 https://www.presetpro.com and Tim Martin
TITLE "Presetpro - Brooklyn"
#LUT size
LUT_3D_SIZE 32
#data domain
DOMAIN_MIN 0.0 0.0 0.0
DOMAIN_MAX 1.0 1.0 1.0
#LUT data points
0.082367 0.101959 0.117645
0.090210 0.101959 0.121582
0.090454 0.102203 0.122314
0.090210 0.101959 0.129425
0.097015 0.098541 0.128387
0.103210 0.105255 0.124847
0.119171 0.099548 0.123077
0.142944 0.104126 0.125488
0.164825 0.101959 0.122589
0.201752 0.094116 0.128265
0.245514 0.092865 0.125488
0.287903 0.078430 0.126892
0.323700 0.071472 0.120667
0.370636 0.055542 0.131042
0.410980 0.037842 0.123718
0.456543 0.017853 0.125488
0.496399 0.001892 0.123474
0.538422 0.002167 0.123718
0.569916 0.003937 0.127136
0.617462 0.000000 0.123077
0.659729 0.002533 0.130554
0.699554 0.000000 0.140045
0.740540 0.003937 0.131683
0.773438 0.002899 0.148895
0.811279 0.003052 0.143341
0.850342 0.000763 0.155334
0.890320 0.000000 0.159515
0.923462 0.000000 0.168121
0.959259 0.028351 0.180023
0.991638 0.092102 0.191650
0.996216 0.140411 0.207977
1.000000 0.188232 0.227448
0.086151 0.105743 0.129272
0.089935 0.101959 0.121704
0.090210 0.102203 0.121704
0.093872 0.105621 0.125244
0.091339 0.102081 0.121582
0.107147 0.102600 0.125488
0.115997 0.105743 0.125854
0.143829 0.105011 0.126373
0.172791 0.105011 0.118774
0.208588 0.097900 0.118774
0.245514 0.093109 0.122955
0.289307 0.088684 0.125488
0.325470 0.077179 0.111572
0.373047 0.065155 0.119293
0.414398 0.053772 0.121704
0.454254 0.033661 0.125366
0.500092 0.005951 0.123474
0.538025 0.000000 0.123322
0.574585 0.001648 0.119537
0.623535 0.001526 0.131683
0.660095 0.001526 0.129547
0.699432 0.002533 0.134613
0.742065 0.002777 0.141296
0.773438 0.002899 0.140167
0.811279 0.003052 0.145355
0.851105 0.001526 0.156097
0.890320 0.000000 0.160797
0.916779 0.000122 0.161407
0.958649 0.055420 0.180389
0.987213 0.112213 0.202667
0.999756 0.152557 0.204041
1.000000 0.192413 0.230988
0.082611 0.102203 0.125244
0.086151 0.105743 0.129028
0.086517 0.105621 0.121582
0.094635 0.105896 0.125488
0.102203 0.106140 0.125488
0.107788 0.103210 0.122314
0.128021 0.105896 0.129150
0.146240 0.108917 0.121063
0.171021 0.105621 0.117157
0.212646 0.102203 0.121826
0.247803 0.095642 0.122833
0.296631 0.094391 0.121826
0.329651 0.085022 0.123962
0.374054 0.077057 0.119934
0.411743 0.063904 0.118408
0.458313 0.051605 0.125244
0.497925 0.020721 0.119690
0.536255 0.002533 0.127136
0.578247 0.000000 0.127380
0.622284 0.002167 0.119812
0.657440 0.001648 0.125000
0.701965 0.000000 0.136505
0.743073 0.006195 0.137512
0.778748 0.000244 0.142822
0.812164 0.003052 0.144226
0.852386 0.000763 0.156097
0.887054 0.003296 0.160034
0.927124 0.022766 0.171539
0.955353 0.077667 0.179382
0.983795 0.128906 0.191895
0.999878 0.164825 0.203278
1.000000 0.204681 0.223267
0.085510 0.106262 0.121582
0.090210 0.109802 0.125488
0.086914 0.106262 0.121704
0.095245 0.109802 0.121948
0.107025 0.110565 0.125488
0.112335 0.110321 0.118286
0.131317 0.110931 0.125854
0.151154 0.113220 0.125122
0.181885 0.113861 0.119415
0.220245 0.113739 0.124359
0.254120 0.107910 0.121582
0.296143 0.107391 0.120544
0.329529 0.100830 0.115631
0.377228 0.088928 0.121063
0.418457 0.081726 0.122589
0.462860 0.067932 0.128662
0.499451 0.050476 0.115875
0.539551 0.030334 0.121582
0.580414 0.006805 0.120056
0.625824 0.000000 0.129547
0.663635 0.000000 0.130554
0.700836 0.003540 0.130310
0.739410 0.002777 0.131073
0.779510 0.004303 0.139404
0.812164 0.003937 0.138885
0.854279 0.001526 0.150299
0.887665 0.016571 0.157867
0.920441 0.066406 0.165070
0.959259 0.112213 0.176483
0.987732 0.152435 0.199127
0.996582 0.188110 0.207092
0.992920 0.220367 0.216827
0.085266 0.114227 0.135223
0.086273 0.118652 0.129425
0.089691 0.111816 0.122589
0.097778 0.114868 0.118164
0.107910 0.122070 0.126495
0.124603 0.122070 0.121704
0.147369 0.122070 0.128143
0.162689 0.122955 0.125366
0.196198 0.122589 0.123077
0.227448 0.120941 0.122711
0.260468 0.122070 0.118896
0.301941 0.115234 0.122070
0.339905 0.114227 0.123474
0.385315 0.106384 0.122192
0.418945 0.099060 0.120544
0.463745 0.087799 0.120941
0.508179 0.077911 0.119690
0.551453 0.062622 0.118896
0.584320 0.047180 0.116364
0.627228 0.030090 0.130676
0.668457 0.017334 0.130157
0.703491 0.004791 0.132965
0.743347 0.004669 0.133972
0.776337 0.004028 0.135223
0.816589 0.011139 0.147644
0.855804 0.043396 0.151672
0.890442 0.080597 0.158508
0.927887 0.110321 0.165222
0.953186 0.141693 0.179504
0.983795 0.176727 0.195068
0.996582 0.208740 0.200897
0.993164 0.237823 0.223541
0.079834 0.131317 0.128784
0.081726 0.130676 0.128784
0.087158 0.133698 0.132690
0.096252 0.130432 0.126892
0.110046 0.127625 0.121826
0.126740 0.134583 0.121582
0.166840 0.135864 0.121063
0.190125 0.136108 0.119812
0.211761 0.140167 0.128387
0.237183 0.135345 0.117523
0.271729 0.135864 0.122955
0.311310 0.133850 0.118164
0.343689 0.133698 0.115875
0.388214 0.128021 0.122589
0.425171 0.120667 0.117004
0.468170 0.117767 0.114990
0.510071 0.110291 0.122955
0.549561 0.098419 0.121185
0.590149 0.089417 0.118256
0.630371 0.081329 0.126892
0.664276 0.072998 0.122192
0.703491 0.068573 0.130798
0.740051 0.065399 0.134857
0.782562 0.068817 0.142456
0.819366 0.081085 0.139038
0.860870 0.098785 0.145111
0.891602 0.123474 0.154968
0.927399 0.143829 0.170898
0.958649 0.173798 0.175720
0.986847 0.201782 0.190643
0.999359 0.232758 0.199860
0.996063 0.265259 0.213654
0.062866 0.152039 0.123840
0.071747 0.152191 0.126373
0.079590 0.152313 0.125244
0.096130 0.148895 0.127899
0.107635 0.152557 0.126007
0.137268 0.152802 0.119537
0.155975 0.163055 0.117645
0.205811 0.164581 0.114349
0.237946 0.170410 0.116882
0.261353 0.163818 0.113342
0.284485 0.163574 0.112213
0.315094 0.158508 0.111572
0.353424 0.157623 0.117645
0.401886 0.152039 0.120697
0.434143 0.149536 0.115875
0.478912 0.138000 0.113861
0.512848 0.137512 0.116364
0.551697 0.128510 0.112091
0.596588 0.123840 0.115234
0.632538 0.116608 0.121704
0.674255 0.116119 0.122955
0.711334 0.116241 0.119812
0.744110 0.118256 0.123230
0.781403 0.122589 0.130035
0.821503 0.131317 0.135498
0.859711 0.144958 0.147491
0.889069 0.165833 0.153961
0.922089 0.183929 0.162689
0.956116 0.203796 0.177368
0.991394 0.232117 0.192413
0.996948 0.256683 0.206207
0.996826 0.289307 0.214050
0.023041 0.178741 0.131561
0.042023 0.181763 0.130798
0.056671 0.181152 0.129425
0.082245 0.184296 0.129791
0.105133 0.180511 0.128906
0.124084 0.190002 0.124603
0.156738 0.191650 0.119812
0.203522 0.192657 0.114624
0.253754 0.206451 0.113861
0.282593 0.196564 0.107788
0.309662 0.194427 0.109314
0.344330 0.185577 0.107544
0.374298 0.184814 0.108673
0.404297 0.176971 0.104736
0.437561 0.176086 0.108032
0.477783 0.170258 0.105621
0.521851 0.167969 0.110962
0.560181 0.161285 0.108429
0.598236 0.160400 0.111572
0.636444 0.158875 0.115875
0.674255 0.155975 0.107025
0.714355 0.156464 0.120300
0.753082 0.160156 0.131317
0.787231 0.163055 0.119537
0.824799 0.172150 0.132050
0.861603 0.190247 0.141296
0.894012 0.203156 0.151428
0.921814 0.222504 0.161438
0.955719 0.242493 0.176208
0.987213 0.261841 0.179382
1.000000 0.285645 0.202667
1.000000 0.314209 0.218323
0.003021 0.219727 0.133331
0.000000 0.220612 0.127136
0.015808 0.216827 0.125000
0.056305 0.216827 0.129791
0.087280 0.215302 0.123596
0.123718 0.217438 0.120941
0.152557 0.223907 0.115875
0.198730 0.226440 0.110809
0.243256 0.232513 0.103851
0.297028 0.240356 0.095001
0.338501 0.239838 0.094116
0.369995 0.226166 0.096283
0.397339 0.222626 0.098938
0.431732 0.213898 0.090454
0.455658 0.208588 0.099792
0.488037 0.200104 0.102966
0.527924 0.197205 0.100067
0.568268 0.191254 0.106628
0.603302 0.196198 0.100677
0.639984 0.195190 0.108276
0.675415 0.196198 0.108917
0.715881 0.197845 0.112457
0.749268 0.197205 0.116150
0.790131 0.206940 0.120667
0.824036 0.213013 0.126495
0.861481 0.227051 0.132324
0.896149 0.239075 0.150024
0.928406 0.257416 0.146118
0.960663 0.277039 0.169250
0.985840 0.294739 0.178864
1.000000 0.314606 0.197723
1.000000 0.340271 0.215698
0.000000 0.257812 0.133331
0.000000 0.256653 0.126617
0.002258 0.256653 0.127777
0.023285 0.253113 0.133698
0.064636 0.253876 0.137115
0.108032 0.252625 0.135498
0.149017 0.258698 0.125122
0.186584 0.264496 0.118011
0.238190 0.265656 0.116516
0.283600 0.268433 0.094116
0.350891 0.282837 0.086151
0.394409 0.278564 0.080597
0.423645 0.269684 0.085266
0.450836 0.253235 0.083862
0.480438 0.249207 0.084015
0.510773 0.243774 0.089447
0.534210 0.237823 0.082733
0.572693 0.229095 0.096161
0.609131 0.231995 0.098541
0.646057 0.231476 0.098541
0.683502 0.230347 0.100555
0.720306 0.234528 0.104614
0.759033 0.237579 0.116516
0.790649 0.244904 0.116516
0.829742 0.254639 0.124359
0.862885 0.267670 0.134613
0.895508 0.278412 0.144470
0.929657 0.293213 0.151306
0.953308 0.311951 0.156097
0.989502 0.326752 0.183289
0.999878 0.344330 0.195831
0.997223 0.373688 0.217346
0.002533 0.292603 0.144958
0.001129 0.296387 0.147491
0.001251 0.295990 0.147369
0.003540 0.293457 0.141937
0.051758 0.292603 0.138519
0.092590 0.295258 0.135864
0.134979 0.295258 0.133850
0.181396 0.297760 0.129791
0.228577 0.305359 0.122070
0.278412 0.301697 0.106018
0.338257 0.309540 0.085022
0.398468 0.317780 0.070709
0.446167 0.319794 0.056305
0.474365 0.309143 0.058319
0.504486 0.298676 0.067810
0.534821 0.288666 0.068054
0.561676 0.280060 0.068817
0.591919 0.271576 0.076813
0.617218 0.268677 0.088043
0.648224 0.269043 0.093750
0.684509 0.266418 0.098175
0.725616 0.266541 0.103363
0.762939 0.275757 0.104889
0.798859 0.285004 0.106506
0.828735 0.294739 0.117645
0.866180 0.302826 0.123352
0.898804 0.316895 0.137512
0.935730 0.330048 0.146851
0.959259 0.348633 0.154968
0.990906 0.360260 0.180267
1.000000 0.378601 0.191895
0.998749 0.401123 0.215698
0.001404 0.333832 0.155731
0.003937 0.336365 0.153198
0.000244 0.334961 0.152954
0.001404 0.333832 0.152954
0.019104 0.336365 0.153442
0.095764 0.328125 0.156616
0.135742 0.333710 0.143829
0.180878 0.333313 0.135620
0.221985 0.341278 0.127502
0.272095 0.341675 0.117279
0.326508 0.346863 0.096893
0.382019 0.355957 0.080963
0.453613 0.360138 0.045532
0.500671 0.369507 0.028748
0.532440 0.357361 0.038971
0.562286 0.340668 0.036194
0.586853 0.331940 0.040985
0.614563 0.325226 0.044281
0.639862 0.316345 0.053894
0.668060 0.309937 0.062866
0.689941 0.303589 0.080719
0.731201 0.310181 0.083496
0.764587 0.314484 0.091614
0.798370 0.323700 0.101074
0.834290 0.331543 0.106018
0.868195 0.340912 0.122955
0.900574 0.352692 0.127747
0.929779 0.366730 0.146759
0.958893 0.381256 0.153961
0.992279 0.392151 0.165863
1.000000 0.410492 0.186340
0.996063 0.433014 0.203918
0.000000 0.376190 0.174072
0.003937 0.373810 0.175568
0.000244 0.372772 0.166595
0.000000 0.373810 0.163818
0.004028 0.376709 0.165710
0.080200 0.371399 0.173431
0.133972 0.374542 0.170013
0.178497 0.368988 0.162048
0.224152 0.378601 0.156860
0.271088 0.379761 0.141174
0.322571 0.386566 0.127136
0.372528 0.393280 0.097260
0.431732 0.394928 0.076019
0.491821 0.409454 0.023529
0.552673 0.416687 0.002167
0.588593 0.398071 0.000000
0.610016 0.389343 0.013550
0.639343 0.377075 0.012024
0.664001 0.371521 0.015961
0.692596 0.359619 0.015320
0.714996 0.353668 0.043671
0.740662 0.348114 0.064026
0.770782 0.356964 0.082855
0.801910 0.360504 0.086670
0.835663 0.368988 0.095001
0.872375 0.379364 0.100586
0.899811 0.390625 0.121185
0.931305 0.404541 0.132843
0.959656 0.418579 0.141937
0.989624 0.429077 0.171661
0.998474 0.444885 0.180634
0.995178 0.462463 0.203918
0.006836 0.415405 0.187592
0.000000 0.418457 0.186096
0.000000 0.417694 0.183044
0.001251 0.415680 0.182648
0.003662 0.420624 0.176971
0.070953 0.414795 0.177460
0.137115 0.415161 0.176727
0.180145 0.413025 0.174194
0.224274 0.416046 0.168610
0.271851 0.417175 0.159515
0.321930 0.425171 0.145233
0.368378 0.429199 0.121185
0.420715 0.438690 0.099792
0.480438 0.447418 0.058197
0.539001 0.453491 0.005432
0.606689 0.471191 0.002014
0.634918 0.448425 0.002289
0.662872 0.438568 0.002289
0.686279 0.428802 0.007843
0.710175 0.419220 0.001648
0.735718 0.412872 0.000885
0.759003 0.406311 0.009888
0.778473 0.405273 0.028900
0.805450 0.403290 0.062012
0.838837 0.407318 0.079590
0.873016 0.419098 0.091492
0.902344 0.431122 0.108551
0.929169 0.440857 0.125244
0.962036 0.451355 0.146240
0.985199 0.462860 0.155212
0.999756 0.478546 0.183929
1.000000 0.492188 0.208496
0.000000 0.463745 0.201782
0.000122 0.454376 0.196320
0.000000 0.457916 0.198090
0.000366 0.458038 0.197479
0.000000 0.458557 0.192535
0.055145 0.456635 0.195190
0.136353 0.451599 0.198090
0.180511 0.459808 0.186951
0.221497 0.456909 0.186707
0.268921 0.458160 0.177856
0.319519 0.464996 0.166229
0.364807 0.469818 0.148621
0.416443 0.475372 0.123322
0.474609 0.481323 0.102966
0.530396 0.487274 0.049591
0.588593 0.495605 0.000122
0.653015 0.515961 0.003937
0.682343 0.505707 0.002167
0.710052 0.490173 0.003784
0.734100 0.481689 0.000000
0.753845 0.472961 0.000763
0.782806 0.466888 0.000000
0.802917 0.462982 0.001770
0.825165 0.456512 0.009888
0.848816 0.449829 0.046570
0.876038 0.457306 0.074646
0.903351 0.467407 0.097168
0.931824 0.475006 0.107910
0.961426 0.486877 0.134369
0.983429 0.498901 0.158264
0.998230 0.514984 0.173065
0.997833 0.522552 0.202545
0.000000 0.503601 0.217590
0.000000 0.503326 0.219360
0.000000 0.503326 0.213531
0.000000 0.499664 0.211487
0.003784 0.498901 0.211639
0.041473 0.502960 0.210876
0.134338 0.497650 0.214783
0.179626 0.496887 0.203796
0.229584 0.497772 0.205811
0.274384 0.498901 0.197968
0.319916 0.504852 0.190125
0.359253 0.507507 0.174957
0.413910 0.514984 0.157349
0.460815 0.518890 0.125366
0.516479 0.524689 0.100952
0.570251 0.532928 0.042999
0.634064 0.545105 0.004181
0.693115 0.565948 0.000000
0.724365 0.559479 0.000397
0.752197 0.540253 0.001892
0.772308 0.531647 0.001892
0.796082 0.524963 0.000000
0.819244 0.519379 0.003937
0.839233 0.514191 0.003052
0.865906 0.504608 0.000000
0.881989 0.502319 0.022675
0.903870 0.504974 0.070496
0.935608 0.514862 0.099060
0.960419 0.523560 0.129028
0.981537 0.534210 0.152191
0.996063 0.544586 0.174072
0.998108 0.554688 0.199738
0.003937 0.541565 0.227722
0.000122 0.541565 0.225830
0.000244 0.543579 0.231628
0.005432 0.543091 0.233032
0.003418 0.541565 0.229980
0.036285 0.544861 0.225555
0.122437 0.537659 0.222290
0.183929 0.542450 0.223785
0.232513 0.540558 0.218719
0.274628 0.541443 0.217987
0.321930 0.541931 0.210632
0.367584 0.544861 0.193054
0.410980 0.553345 0.173584
0.458405 0.560425 0.153717
0.514587 0.568634 0.135986
0.558502 0.574829 0.102509
0.617859 0.576874 0.033386
0.672119 0.591034 0.000000
0.734985 0.613953 0.004303
0.775604 0.603943 0.005066
0.789520 0.590149 0.001892
0.811890 0.578278 0.001892
0.833923 0.575348 0.006073
0.854919 0.567139 0.000000
0.877686 0.564087 0.002014
0.895905 0.555756 0.003937
0.911835 0.556641 0.010742
0.941681 0.552826 0.078033
0.961151 0.558777 0.120422
0.989105 0.564728 0.138763
0.997986 0.580414 0.172180
0.998108 0.592438 0.198120
0.004303 0.589020 0.243530
0.003784 0.583435 0.241364
0.000244 0.587494 0.241608
0.003540 0.587250 0.243134
0.003296 0.578766 0.250732
0.021973 0.584198 0.237213
0.119385 0.582306 0.237457
0.183655 0.583710 0.237457
0.234283 0.582550 0.236053
0.278168 0.581543 0.237457
0.322205 0.580688 0.226959
0.365967 0.584717 0.217834
0.411896 0.591400 0.202545
0.459442 0.596710 0.194824
0.506866 0.598999 0.160187
0.556732 0.612671 0.138947
0.609741 0.620514 0.102203
0.653900 0.628601 0.023132
0.711578 0.636322 0.000000
0.778259 0.654144 0.003937
0.801910 0.653534 0.000000
0.829742 0.638092 0.000000
0.845795 0.625824 0.000000
0.870361 0.621155 0.000000
0.888824 0.614197 0.003052
0.911835 0.610016 0.001526
0.925751 0.606354 0.004303
0.948273 0.597748 0.008087
0.966858 0.601166 0.081085
0.983551 0.598755 0.133209
0.997711 0.608612 0.164337
0.997833 0.622528 0.196075
0.000000 0.627716 0.257172
0.003784 0.629120 0.265411
0.003937 0.627075 0.263397
0.005432 0.628601 0.264893
0.001648 0.625824 0.263397
0.016693 0.628082 0.255554
0.113586 0.627075 0.256317
0.184662 0.624817 0.253387
0.238708 0.622528 0.256165
0.279694 0.624298 0.248840
0.327881 0.622528 0.247833
0.368622 0.624542 0.233643
0.416931 0.625458 0.230255
0.459198 0.631653 0.213684
0.508118 0.641754 0.193176
0.550385 0.646454 0.168793
0.603943 0.655914 0.142944
0.649872 0.664398 0.097931
0.695404 0.670868 0.034302
0.742706 0.678192 0.000000
0.803680 0.697021 0.004547
0.836060 0.693390 0.000000
0.858337 0.679199 0.002289
0.879974 0.670593 0.000000
0.896912 0.666290 0.001648
0.919830 0.657562 0.006836
0.938904 0.653534 0.000000
0.957642 0.648987 0.004547
0.974060 0.648102 0.022369
0.993683 0.643677 0.105865
0.998352 0.648712 0.172302
1.000000 0.652252 0.200653
0.003937 0.669342 0.280212
0.005432 0.670868 0.281738
0.003021 0.670868 0.281738
0.003540 0.670471 0.276550
0.003418 0.665405 0.286530
0.021606 0.670868 0.267303
0.120819 0.670105 0.277954
0.186829 0.670868 0.273895
0.245270 0.665527 0.272980
0.286530 0.668213 0.272736
0.342041 0.666931 0.269836
0.379486 0.664032 0.259216
0.415405 0.666046 0.253387
0.460815 0.672363 0.236298
0.510406 0.677795 0.229218
0.551025 0.682617 0.201782
0.598389 0.689697 0.181030
0.647339 0.698059 0.150909
0.689819 0.702240 0.113861
0.731812 0.711578 0.042511
0.779144 0.714508 0.001526
0.834656 0.736633 0.002533
0.869202 0.736755 0.002411
0.886169 0.721832 0.000000
0.901703 0.714874 0.001770
0.928802 0.702972 0.004822
0.945618 0.699829 0.007233
0.959381 0.692871 0.000000
0.976990 0.689697 0.000000
0.994049 0.684143 0.059448
0.999878 0.686554 0.133087
1.000000 0.682617 0.194305
0.000000 0.713470 0.301971
0.007843 0.710693 0.304504
0.003937 0.711853 0.300323
0.000000 0.712097 0.297791
0.004059 0.710205 0.307159
0.058197 0.708160 0.297028
0.146484 0.706146 0.297028
0.198090 0.709808 0.295258
0.254761 0.706787 0.295258
0.298401 0.706787 0.283508
0.343445 0.704132 0.283386
0.388489 0.702850 0.283508
0.426178 0.703888 0.280579
0.464996 0.708435 0.270752
0.511566 0.712463 0.256958
0.551392 0.716644 0.242279
0.593811 0.725250 0.215942
0.639984 0.730957 0.196594
0.682251 0.731964 0.172424
0.725891 0.744232 0.118530
0.769531 0.747375 0.060852
0.812164 0.757874 0.000122
0.862640 0.771179 0.003418
0.896393 0.766235 0.000763
0.911072 0.756866 0.000885
0.937500 0.750671 0.002533
0.954956 0.743347 0.000000
0.969269 0.735626 0.002533
0.984558 0.731323 0.000366
0.998352 0.728912 0.008484
0.997467 0.722595 0.110931
0.997467 0.726379 0.184570
0.001251 0.745239 0.325500
0.002533 0.746643 0.326752
0.002533 0.745605 0.324493
0.001251 0.750549 0.325623
0.023285 0.752716 0.321320
0.113861 0.743958 0.328278
0.170776 0.742706 0.323090
0.224304 0.746124 0.321838
0.273254 0.746368 0.320435
0.310547 0.745239 0.312714
0.356720 0.745361 0.319183
0.396332 0.741425 0.311066
0.437195 0.741180 0.312469
0.469940 0.743195 0.302338
0.512939 0.745361 0.288086
0.554565 0.752441 0.278687
0.597748 0.753845 0.260223
0.635559 0.762573 0.235687
0.675415 0.766235 0.217590
0.713867 0.775085 0.186462
0.758881 0.777740 0.157257
0.802795 0.783173 0.086548
0.841492 0.786224 0.015564
0.885010 0.793793 0.003937
0.912842 0.798492 0.000000
0.938904 0.791290 0.000000
0.954346 0.781921 0.004547
0.971802 0.775330 0.000000
0.984833 0.770538 0.002655
0.999481 0.760925 0.001770
0.997742 0.757111 0.065765
0.998749 0.759521 0.163300
0.001129 0.785950 0.361816
0.002258 0.783691 0.352325
0.006195 0.780273 0.346130
0.060486 0.783325 0.354218
0.121704 0.783691 0.358521
0.164459 0.781921 0.354584
0.211639 0.781799 0.352325
0.259216 0.782562 0.347382
0.298309 0.782562 0.344360
0.332825 0.780914 0.342194
0.373932 0.777374 0.348389
0.411377 0.774689 0.347260
0.449951 0.774841 0.333984
0.486633 0.775848 0.336639
0.518524 0.778748 0.328033
0.557343 0.780670 0.314362
0.594086 0.789642 0.294617
0.631653 0.788757 0.285889
0.677551 0.792175 0.263641
0.713226 0.801392 0.238220
0.753845 0.805573 0.217834
0.790771 0.804565 0.181549
0.829102 0.813934 0.134369
0.859314 0.815308 0.052643
0.905121 0.823425 0.000244
0.939667 0.829620 0.000366
0.962433 0.823029 0.001770
0.972168 0.811127 0.000000
0.987854 0.802795 0.002777
0.997223 0.793182 0.000885
0.998993 0.794434 0.019714
1.000000 0.784821 0.156342
0.082642 0.816589 0.385193
0.103882 0.813660 0.386353
0.131958 0.815308 0.384460
0.165100 0.811646 0.386597
0.189514 0.816071 0.385712
0.229736 0.809998 0.387115
0.254395 0.813416 0.380280
0.299438 0.812653 0.385223
0.330292 0.811646 0.380157
0.360291 0.812653 0.375214
0.399353 0.809998 0.378632
0.427582 0.814178 0.371918
0.468292 0.808105 0.370514
0.500946 0.804810 0.369781
0.532318 0.805573 0.364868
0.563416 0.814545 0.363586
0.599274 0.817719 0.348785
0.633301 0.819733 0.326874
0.670868 0.819855 0.316498
0.710571 0.825439 0.289185
0.744843 0.832275 0.266937
0.785858 0.829346 0.245026
0.819122 0.837952 0.206573
0.854797 0.840118 0.165466
0.888672 0.843262 0.106415
0.928406 0.851105 0.011658
0.963440 0.851868 0.000366
0.977875 0.847443 0.005829
0.986206 0.838470 0.000000
1.000000 0.827576 0.002899
0.998108 0.824432 0.003784
1.000000 0.816589 0.137482
0.214203 0.840485 0.419098
0.219879 0.844421 0.423920
0.230896 0.840729 0.423279
0.252899 0.840485 0.428589
0.264526 0.843903 0.425568
0.287170 0.845917 0.422791
0.309814 0.843536 0.419861
0.341553 0.840485 0.418213
0.366364 0.842651 0.416199
0.401154 0.842377 0.419098
0.425049 0.841370 0.420013
0.456421 0.839600 0.413422
0.489044 0.842010 0.409515
0.517639 0.837433 0.408752
0.545593 0.836578 0.407349
0.580383 0.838593 0.395844
0.606232 0.841492 0.389618
0.642151 0.842255 0.375977
0.677063 0.843536 0.364716
0.707672 0.848328 0.343475
0.743469 0.852264 0.330048
0.780151 0.855804 0.301727
0.815704 0.853394 0.281738
0.846954 0.859955 0.256805
0.874512 0.859222 0.207733
0.912476 0.859467 0.161682
0.942841 0.869324 0.070221
0.972412 0.872742 0.000000
0.994812 0.867950 0.000000
1.000000 0.855804 0.005432
0.996948 0.851379 0.000000
1.000000 0.843536 0.112946
0.296783 0.868317 0.462128
0.306915 0.869080 0.465271
0.310822 0.869080 0.459198
0.323364 0.868317 0.463257
0.337402 0.867554 0.463379
0.350555 0.868439 0.458954
0.372681 0.866669 0.457306
0.391663 0.869202 0.463013
0.410004 0.868317 0.457184
0.436798 0.867554 0.458954
0.464020 0.861237 0.460205
0.491333 0.861237 0.456055
0.514343 0.865906 0.449463
0.544830 0.864380 0.452759
0.568481 0.861877 0.445160
0.598206 0.861603 0.444641
0.622162 0.866425 0.439728
0.651245 0.867310 0.428833
0.680603 0.867554 0.419098
0.712341 0.869080 0.400879
0.743347 0.872375 0.381775
0.775604 0.878326 0.361542
0.807587 0.876160 0.336487
0.836945 0.879059 0.323090
0.868073 0.880066 0.293121
0.898926 0.884003 0.249603
0.932312 0.884125 0.200653
0.961304 0.889191 0.154724
0.987854 0.892212 0.057343
1.000000 0.886902 0.000519
0.996216 0.879944 0.000000
0.999237 0.865143 0.110565
0.383942 0.888947 0.512604
0.378876 0.892090 0.506653
0.391022 0.891724 0.509064
0.394684 0.891327 0.502472
0.400391 0.888428 0.502716
0.423157 0.889557 0.509949
0.427826 0.889435 0.506653
0.452240 0.888947 0.514740
0.465515 0.886017 0.505646
0.482605 0.889435 0.504883
0.505249 0.886261 0.501465
0.522583 0.889679 0.502716
0.550171 0.887421 0.508423
0.574310 0.884369 0.499176
0.598846 0.886780 0.500336
0.622009 0.883881 0.498169
0.645294 0.884369 0.491608
0.673401 0.885010 0.486420
0.692474 0.886658 0.469818
0.716400 0.890717 0.455933
0.745605 0.892853 0.448975
0.775970 0.892853 0.421631
0.803802 0.893494 0.407349
0.831879 0.892853 0.386200
0.857697 0.896790 0.363831
0.891846 0.900574 0.336639
0.922974 0.897400 0.293610
0.948517 0.901337 0.253906
0.979889 0.905518 0.194824
0.999115 0.908051 0.131470
0.999481 0.900696 0.086151
1.000000 0.895508 0.117004
0.450348 0.908783 0.562195
0.458710 0.909302 0.561676
0.459198 0.909546 0.561432
0.467194 0.912201 0.557617
0.481232 0.901947 0.553314
0.476654 0.909943 0.552063
0.495270 0.910950 0.557251
0.511444 0.904877 0.558624
0.520050 0.905884 0.553833
0.535370 0.907654 0.553192
0.552948 0.904877 0.558502
0.570404 0.907410 0.556732
0.590637 0.903870 0.553314
0.603424 0.908295 0.551544
0.623901 0.905365 0.548248
