apps/web/public/luts/brooklyn.cube
#Created by: Adobe Photoshop Export Color Lookup Plugin
#Copyright: (C) Copyright 2018 https://www.presetpro.com and Tim Martin
TITLE "Presetpro - Brooklyn"
#LUT size
LUT_3D_SIZE 5
#data domain
#LUT data points
DOMAIN_MIN 0.000000 0.000000 0.000000
DOMAIN_MAX 0.903226 0.903226 0.903226
0.082367 0.101959 0.117645
0.142944 0.104126 0.125488
0.410980 0.037842 0.123718
0.699554 0.000000 0.140045
0.959259 0.028351 0.180023
0.023041 0.178741 0.131561
0.203522 0.192657 0.114624
0.437561 0.176086 0.108032
0.714355 0.156464 0.120300
0.955719 0.242493 0.176208
0.000000 0.463745 0.201782
0.180511 0.459808 0.186951
0.530396 0.487274 0.049591
0.782806 0.466888 0.000000
0.961426 0.486877 0.134369
0.001251 0.745239 0.325500
0.224304 0.746124 0.321838
0.512939 0.745361 0.288086
0.802795 0.783173 0.086548
0.984833 0.770538 0.002655
0.522461 0.928284 0.616211
0.558502 0.925110 0.609497
0.656555 0.921173 0.605194
0.790649 0.924744 0.558899
0.948639 0.932190 0.400879
0.083252 0.101959 0.192657
0.169128 0.098938 0.164307
0.441101 0.036163 0.170410
0.710449 0.033661 0.148499
0.959259 0.149658 0.179901
0.018738 0.198730 0.226166
0.227936 0.208344 0.224030
0.465515 0.201385 0.200500
0.722229 0.205322 0.166840
0.961304 0.279053 0.169006
0.105499 0.464630 0.317261
0.246674 0.469421 0.295898
0.539642 0.492950 0.234894
0.771393 0.462463 0.191772
0.960907 0.498657 0.138763
0.254272 0.748413 0.445038
0.272095 0.750031 0.397095
0.527374 0.745728 0.380005
0.802277 0.778870 0.274628
0.983948 0.767517 0.171783
0.571533 0.927399 0.666168
0.581665 0.920319 0.649200
0.669067 0.925232 0.643005
0.793671 0.924744 0.610382
0.950409 0.929047 0.483246
0.115479 0.109802 0.430603
0.298157 0.120300 0.425903
0.502563 0.168243 0.391388
0.775848 0.204926 0.404022
0.970276 0.189270 0.336487
0.044891 0.214020 0.439819
0.312073 0.247559 0.446777
0.529144 0.291565 0.413635
0.780518 0.298157 0.412750
0.967499 0.316498 0.353821
0.088043 0.469421 0.478058
0.291565 0.475494 0.476379
0.566101 0.507263 0.483337
0.777100 0.491180 0.436279
0.961792 0.512573 0.382141
0.247192 0.748779 0.581024
0.376617 0.750916 0.583557
0.577484 0.759644 0.572662
0.800140 0.782288 0.523468
0.966980 0.756256 0.454132
0.564972 0.926117 0.738251
0.621643 0.919037 0.734863
0.694000 0.926514 0.728271
0.801910 0.919556 0.720917
0.935089 0.934357 0.653625
0.316650 0.183044 0.711334
0.447327 0.192657 0.709167
0.662109 0.267670 0.694000
0.826324 0.351807 0.665527
0.977356 0.544098 0.708313
0.293488 0.288544 0.713104
0.437561 0.301208 0.709167
0.665527 0.368744 0.709198
0.822388 0.450745 0.686035
0.968384 0.595459 0.717529
0.004791 0.473358 0.719177
0.246704 0.470703 0.714386
0.617950 0.536102 0.723114
0.810120 0.630737 0.715240
0.953552 0.670471 0.716125
0.209381 0.733459 0.747894
0.336884 0.735748 0.743073
0.565186 0.749146 0.742188
0.796204 0.784454 0.756989
0.933838 0.765869 0.698700
0.506653 0.927399 0.832001
0.558014 0.925629 0.823273
0.675140 0.922577 0.826813
0.819366 0.921204 0.831879
0.929932 0.931305 0.809753
0.571045 0.370270 0.924347
0.635559 0.389893 0.921326
0.771027 0.464020 0.909058
0.894623 0.610748 0.898682
0.976471 0.665161 0.881989
0.557617 0.445160 0.916901
0.621643 0.466156 0.916504
0.763062 0.528534 0.915253
0.890839 0.656555 0.895630
0.969513 0.713104 0.886780
0.373840 0.526123 0.918274
0.513641 0.563690 0.918152
0.720032 0.642639 0.916138
0.870728 0.736237 0.898163
0.947235 0.788879 0.891205
0.246704 0.737000 0.913849
0.352051 0.737000 0.915619
0.533569 0.730957 0.908173
0.822906 0.807983 0.902985
0.932587 0.868561 0.907776
0.530670 0.905518 0.921204
0.565094 0.908661 0.917023
0.666534 0.912598 0.922211
0.797974 0.917389 0.916504
0.929047 0.929413 0.920441
