apps/web/public/luts/brooklyn.cube
#Created by: Adobe Photoshop Export Color Lookup Plugin
#Copyright: (C) Copyright 2018 https://www.presetpro.com and Tim Martin
TITLE "Presetpro - Brooklyn"
#LUT size
LUT_3D_SIZE 8
#data domain
#LUT data points
DOMAIN_MIN 0.000000 0.000000 0.000000
DOMAIN_MAX 0.903226 0.903226 0.903226
0.082367 0.101959 0.117645
0.097015 0.098541 0.128387
0.164825 0.101959 0.122589
0.323700 0.071472 0.120667
0.496399 0.001892 0.123474
0.659729 0.002533 0.130554
0.811279 0.003052 0.143341
0.959259 0.028351 0.180023
0.085266 0.114227 0.135223
0.107910 0.122070 0.126495
0.196198 0.122589 0.123077
0.339905 0.114227 0.123474
0.508179 0.077911 0.119690
0.668457 0.017334 0.130157
0.816589 0.011139 0.147644
0.953186 0.141693 0.179504
0.003021 0.219727 0.133331
0.087280 0.215302 0.123596
0.243256 0.232513 0.103851
0.397339 0.222626 0.098938
0.527924 0.197205 0.100067
0.675415 0.196198 0.108917
0.824036 0.213013 0.126495
0.960663 0.277039 0.169250
0.000000 0.376190 0.174072
0.004028 0.376709 0.165710
0.224152 0.378601 0.156860
0.431732 0.394928 0.076019
0.610016 0.389343 0.013550
0.714996 0.353668 0.043671
0.835663 0.368988 0.095001
0.959656 0.418579 0.141937
0.003937 0.541565 0.227722
0.003418 0.541565 0.229980
0.232513 0.540558 0.218719
0.410980 0.553345 0.173584
0.617859 0.576874 0.033386
0.789520 0.590149 0.001892
0.877686 0.564087 0.002014
0.961151 0.558777 0.120422
0.000000 0.713470 0.301971
0.004059 0.710205 0.307159
0.254761 0.706787 0.295258
0.426178 0.703888 0.280579
0.593811 0.725250 0.215942
0.769531 0.747375 0.060852
0.911072 0.756866 0.000885
0.984558 0.731323 0.000366
0.214203 0.840485 0.419098
0.264526 0.843903 0.425568
0.366364 0.842651 0.416199
0.489044 0.842010 0.409515
0.606232 0.841492 0.389618
0.743469 0.852264 0.330048
0.874512 0.859222 0.207733
0.994812 0.867950 0.000000
0.522461 0.928284 0.616211
0.534729 0.924225 0.602417
0.575470 0.922211 0.612274
0.626953 0.923218 0.602417
0.693115 0.922852 0.595306
0.764465 0.927277 0.567749
0.852753 0.928650 0.504761
0.948639 0.932190 0.400879
0.093597 0.105377 0.140686
0.099060 0.098541 0.129913
0.187836 0.093109 0.132843
0.341309 0.087677 0.126007
0.501709 0.055786 0.118164
0.660461 0.000519 0.131317
0.817352 0.000000 0.145111
0.958649 0.105377 0.181274
0.077911 0.122070 0.146606
0.111816 0.122070 0.143188
0.213409 0.126007 0.145111
0.358002 0.122070 0.129425
0.515015 0.111816 0.128784
0.668457 0.082855 0.127014
0.822021 0.094238 0.144226
0.959259 0.181152 0.176086
0.024048 0.226685 0.177612
0.105988 0.224670 0.174072
0.258423 0.235413 0.141296
0.397339 0.217316 0.138275
0.533722 0.208466 0.125610
0.685638 0.211884 0.098022
0.828339 0.234161 0.125244
0.959656 0.291443 0.172943
0.045654 0.378113 0.233398
0.091705 0.383026 0.209869
0.248688 0.380127 0.208984
0.438934 0.395935 0.158875
0.614532 0.388458 0.110565
0.707764 0.358093 0.110809
0.839081 0.380249 0.092743
0.961304 0.428467 0.143066
0.005554 0.546509 0.283875
0.017181 0.548920 0.255035
0.260834 0.547272 0.255035
0.418976 0.553711 0.231873
0.621765 0.578766 0.143066
0.786102 0.588623 0.025024
0.876923 0.558655 0.024139
0.960144 0.564728 0.114227
0.004547 0.714630 0.346100
0.025543 0.709808 0.330170
0.269318 0.710693 0.327759
0.443756 0.709686 0.316254
0.601288 0.722473 0.268585
0.770264 0.751434 0.154327
0.908661 0.763092 0.002014
0.983185 0.728912 0.001007
0.268066 0.844421 0.456299
0.288818 0.844910 0.453003
0.379120 0.840118 0.445160
0.499939 0.839966 0.439209
0.614075 0.842896 0.425446
0.743835 0.853394 0.365204
0.880066 0.860107 0.259460
0.995209 0.867798 0.101074
0.542572 0.928162 0.634033
0.554718 0.921814 0.632507
0.583801 0.921692 0.624298
0.630493 0.924866 0.621246
0.701080 0.920807 0.618988
0.770294 0.925751 0.596985
0.856171 0.929169 0.539154
0.947754 0.932068 0.435822
0.088287 0.100067 0.225677
0.139771 0.098053 0.210480
0.202148 0.101959 0.192261
0.369385 0.091705 0.212280
0.525879 0.020630 0.181519
0.671356 0.037323 0.185822
0.820129 0.089447 0.166840
0.962799 0.164062 0.179260
0.033783 0.130920 0.237427
0.134460 0.131439 0.228577
0.235931 0.144714 0.215790
0.392273 0.144196 0.217712
0.531708 0.128540 0.202637
0.679718 0.129669 0.193298
0.825317 0.156097 0.166351
0.960663 0.217072 0.175323
0.003937 0.230469 0.258942
0.129517 0.234894 0.262360
0.282471 0.244263 0.250214
0.408081 0.241364 0.245789
0.553192 0.236420 0.228455
0.694885 0.244781 0.204041
0.832764 0.266022 0.184418
0.961304 0.316620 0.167480
0.073120 0.384949 0.304108
0.173676 0.391388 0.300690
0.296265 0.392914 0.294739
0.459076 0.404144 0.264893
0.601776 0.387451 0.242737
0.711060 0.374298 0.234772
0.844025 0.397827 0.197205
0.964203 0.437683 0.158752
0.140289 0.547516 0.358002
0.219238 0.547394 0.358643
0.296265 0.554230 0.336609
0.445404 0.554718 0.321686
0.630768 0.582825 0.271851
0.779266 0.582184 0.228577
0.868195 0.558136 0.214783
0.964447 0.570160 0.186188
0.218994 0.712219 0.433136
0.280731 0.714264 0.436432
0.309021 0.718536 0.398590
0.457153 0.712341 0.390656
0.601776 0.725006 0.362427
0.775085 0.744476 0.293488
0.902344 0.755371 0.225677
0.980774 0.728790 0.208344
0.395721 0.842499 0.545349
0.401520 0.842010 0.531799
0.414185 0.843536 0.497528
0.519653 0.842010 0.503235
0.625824 0.836700 0.485016
0.745483 0.853638 0.441986
0.874237 0.864014 0.367371
0.985718 0.865540 0.274261
0.584442 0.920807 0.681458
0.587097 0.924225 0.676666
0.592529 0.922699 0.660858
0.642883 0.926270 0.655792
0.703369 0.920807 0.651489
0.772552 0.926758 0.633759
0.854919 0.927277 0.591400
0.942200 0.931824 0.504730
0.098053 0.101959 0.357483
0.177979 0.104370 0.353058
0.304993 0.118164 0.339386
0.402130 0.136353 0.318268
0.574829 0.175201 0.339386
0.720306 0.115356 0.316742
0.839355 0.089325 0.285767
0.967102 0.192535 0.264893
0.089294 0.149139 0.369385
0.185455 0.153442 0.365967
0.314453 0.176483 0.358490
0.416931 0.192780 0.333069
0.578247 0.224640 0.352173
0.722717 0.170746 0.311554
0.842499 0.184448 0.294739
0.968872 0.241882 0.273743
0.000000 0.239838 0.382538
0.118256 0.237946 0.379608
0.322205 0.266785 0.373688
0.441467 0.290436 0.358612
0.589661 0.300690 0.362671
0.710693 0.272369 0.333954
0.839203 0.292480 0.311066
0.963684 0.336609 0.279053
0.061859 0.385559 0.399719
0.174072 0.389374 0.400238
0.314362 0.394409 0.405548
0.483612 0.413025 0.405182
0.603302 0.407562 0.386322
0.725739 0.405182 0.362030
0.852264 0.421509 0.333954
0.963562 0.447296 0.300049
0.142334 0.553223 0.452637
0.217316 0.553345 0.451355
0.355469 0.561188 0.452240
0.478668 0.574829 0.438446
0.637451 0.588135 0.410126
0.765350 0.574463 0.383545
0.856049 0.557251 0.359894
0.962433 0.575836 0.329651
0.228607 0.710571 0.518402
0.288055 0.712585 0.516876
0.393921 0.718536 0.517029
0.489929 0.723358 0.498413
0.618469 0.726257 0.487000
0.774841 0.753723 0.442627
0.897797 0.744476 0.399872
0.968903 0.722839 0.362427
0.385345 0.838959 0.601898
0.419250 0.837585 0.606720
0.499420 0.841492 0.610229
0.552429 0.845032 0.587097
0.644531 0.841370 0.577759
0.749664 0.847809 0.553070
0.872742 0.864014 0.499054
0.975098 0.860596 0.438049
0.592438 0.919678 0.718536
0.609497 0.922974 0.724976
0.653900 0.921814 0.730286
0.658325 0.922852 0.700836
0.719055 0.921692 0.702332
0.779022 0.921204 0.696259
0.849579 0.925873 0.661469
0.941162 0.931061 0.602264
0.159302 0.121704 0.500336
0.235565 0.127655 0.503754
0.367859 0.144226 0.496277
0.502350 0.190765 0.481720
0.600403 0.212036 0.463135
0.751953 0.274261 0.485168
0.884766 0.273010 0.477814
0.984680 0.245575 0.433289
0.180664 0.179871 0.512970
0.248840 0.183929 0.507660
0.377228 0.201660 0.505127
0.517395 0.239319 0.492493
0.615204 0.261505 0.470978
0.757751 0.319916 0.498932
0.881592 0.310699 0.484131
0.990143 0.275421 0.432922
0.082520 0.252136 0.520813
0.204071 0.261993 0.513611
0.372803 0.287415 0.521820
0.525360 0.326111 0.514496
0.622772 0.351318 0.492493
0.763062 0.415436 0.519562
0.878693 0.375977 0.487549
0.981659 0.347504 0.430878
0.008331 0.388092 0.528931
0.148621 0.390503 0.532715
0.297272 0.393921 0.533875
0.512970 0.426819 0.537140
0.638580 0.472870 0.529297
0.765472 0.493988 0.534119
0.868591 0.448456 0.479828
0.965973 0.462616 0.447357
0.111816 0.549408 0.557129
0.203186 0.549805 0.555237
0.337372 0.557251 0.560028
0.482605 0.567139 0.561707
0.647186 0.592438 0.562958
0.753204 0.580658 0.541077
0.863129 0.577759 0.503387
0.965607 0.586975 0.471893
0.202148 0.712585 0.613800
0.261475 0.714630 0.616730
0.378235 0.716522 0.615692
0.511200 0.723969 0.612671
0.648834 0.734222 0.610657
0.774689 0.751312 0.585846
0.878326 0.729919 0.555237
0.950653 0.717163 0.513611
0.344604 0.839722 0.679840
0.387726 0.838074 0.675781
0.456146 0.843536 0.672882
0.575836 0.841003 0.679443
0.663147 0.842499 0.668213
0.746735 0.850220 0.661987
0.867798 0.864899 0.630127
0.963074 0.854645 0.589142
0.526123 0.925110 0.750793
0.547119 0.923859 0.754211
0.607971 0.921936 0.764221
0.683746 0.922333 0.767883
0.726898 0.920807 0.761292
0.790375 0.916748 0.758270
0.855286 0.924744 0.743591
0.934082 0.930542 0.700958
0.276794 0.167236 0.670349
0.335114 0.171661 0.667572
0.451233 0.181030 0.664642
0.586090 0.222260 0.658325
0.705902 0.300323 0.646698
0.790527 0.316010 0.625824
0.890594 0.404816 0.640350
0.983948 0.483398 0.656952
0.284760 0.219727 0.670990
0.343323 0.225677 0.674011
0.452118 0.233521 0.667572
0.588104 0.265259 0.663116
0.704376 0.342468 0.653534
0.790009 0.360168 0.642151
0.891083 0.444031 0.647430
0.981262 0.507568 0.658966
0.244293 0.297791 0.674011
0.315125 0.306122 0.674896
0.440979 0.321808 0.680847
0.579620 0.351288 0.673889
0.708557 0.419861 0.665161
0.787598 0.440613 0.653412
0.884644 0.523071 0.664642
0.970795 0.554474 0.670471
0.002411 0.396820 0.682098
0.160675 0.400238 0.682465
0.346741 0.407074 0.683746
0.556458 0.453247 0.685150
0.704620 0.511719 0.681854
0.789886 0.550903 0.668182
0.876770 0.624786 0.694519
0.959625 0.601410 0.669861
0.004059 0.553223 0.694519
0.153442 0.552704 0.689575
0.300690 0.559143 0.688690
0.457916 0.558136 0.691986
0.662872 0.605591 0.698303
0.774841 0.663269 0.697693
0.863007 0.686798 0.706787
0.955994 0.637207 0.646576
0.180389 0.701477 0.708160
0.244659 0.700958 0.712097
0.358124 0.701721 0.713623
0.490936 0.714630 0.711731
0.633545 0.727905 0.718536
0.775085 0.755219 0.721313
0.851105 0.736511 0.687408
0.938263 0.731689 0.654785
0.303864 0.839966 0.758392
0.350037 0.839966 0.761536
0.434143 0.842896 0.757629
0.544708 0.844421 0.762939
0.661987 0.841003 0.758636
0.771301 0.848328 0.760040
0.866547 0.862640 0.749542
0.940918 0.849731 0.721954
0.512451 0.921204 0.812531
0.529663 0.923737 0.812164
0.574951 0.923737 0.810760
0.643250 0.919678 0.810638
0.726257 0.918274 0.811646
0.800751 0.921448 0.815704
0.855164 0.921936 0.809235
0.925476 0.932587 0.785065
0.419983 0.239594 0.820007
0.460724 0.243530 0.817719
0.543457 0.260223 0.815186
0.655273 0.295380 0.813049
0.764984 0.365234 0.807343
0.854279 0.473389 0.796478
0.915009 0.477051 0.779907
0.960419 0.573700 0.773438
0.420868 0.277283 0.820892
0.461731 0.285522 0.818115
0.545471 0.296906 0.817078
0.650726 0.335602 0.812653
0.763184 0.401398 0.807343
0.853149 0.502991 0.801392
0.915497 0.508057 0.787354
0.957886 0.598114 0.772675
0.394714 0.355103 0.820129
0.433533 0.362549 0.817841
0.527893 0.374817 0.820007
0.640594 0.411133 0.812012
0.755249 0.468323 0.811401
0.844543 0.568634 0.804443
0.906006 0.575073 0.795441
0.952057 0.649963 0.789764
0.220001 0.422363 0.813660
0.297577 0.424286 0.822021
0.468964 0.468445 0.817596
0.612396 0.496002 0.818481
0.739410 0.557373 0.815430
0.833282 0.641998 0.809235
0.884521 0.659851 0.797974
0.937378 0.719543 0.801270
0.007843 0.548279 0.817963
0.112335 0.548401 0.806061
0.285645 0.548401 0.814056
0.491425 0.563049 0.823669
0.698303 0.631775 0.815948
0.822906 0.700317 0.822906
0.875641 0.738647 0.815063
0.929657 0.785583 0.827820
0.118927 0.703735 0.817841
0.193939 0.702850 0.824432
0.321838 0.698303 0.825317
0.453766 0.704376 0.821381
0.594818 0.708801 0.819244
0.778503 0.760162 0.820892
0.866547 0.806702 0.827850
0.928528 0.823425 0.833282
0.311462 0.820892 0.833527
0.348663 0.825317 0.822266
0.426819 0.820892 0.829742
0.529144 0.830231 0.830231
0.639496 0.830750 0.831757
0.757507 0.843536 0.835175
0.860107 0.864014 0.840485
0.920319 0.851746 0.813049
0.481354 0.921326 0.865540
0.501190 0.924225 0.873383
0.548767 0.924744 0.874268
0.620850 0.922699 0.871338
0.705261 0.923737 0.861115
0.791779 0.922211 0.867676
0.867065 0.925110 0.865417
0.924744 0.929413 0.864532
0.571045 0.370270 0.924347
0.601654 0.378632 0.923462
0.652863 0.393036 0.918274
0.728912 0.436432 0.916901
0.814697 0.496277 0.905121
0.885895 0.589630 0.904358
0.928162 0.671356 0.892487
0.976471 0.665161 0.881989
0.567108 0.399506 0.923981
0.600769 0.407349 0.920929
0.648071 0.427460 0.916382
0.725342 0.459839 0.914612
0.815186 0.522705 0.914734
0.884125 0.603058 0.903748
0.931946 0.684875 0.892853
0.972931 0.687927 0.885895
0.550415 0.462494 0.922974
0.575958 0.463745 0.917389
0.634796 0.479950 0.916138
0.715118 0.517883 0.912079
0.800140 0.572815 0.907654
0.871094 0.650848 0.901581
0.924469 0.723724 0.894501
0.961792 0.721069 0.888062
0.485168 0.518036 0.918030
0.525879 0.540039 0.918915
0.597839 0.555969 0.912201
0.692078 0.586823 0.917877
0.787598 0.634521 0.909790
0.860992 0.696503 0.900818
0.913971 0.767731 0.901581
0.953461 0.765076 0.886414
0.283081 0.575989 0.916504
0.338867 0.576721 0.916901
0.451477 0.589630 0.915222
0.619690 0.640594 0.910431
0.748383 0.691589 0.903229
0.845428 0.742584 0.903870
0.899170 0.804321 0.899811
0.942688 0.816589 0.893219
0.213562 0.704895 0.913971
0.263641 0.706787 0.916138
0.347504 0.700317 0.916016
0.462097 0.698303 0.913971
0.640350 0.715118 0.915009
0.808594 0.786224 0.908051
0.892365 0.839966 0.906647
0.933960 0.863129 0.905121
0.365601 0.824799 0.916504
0.388611 0.821747 0.912964
0.447327 0.825684 0.911713
0.527893 0.827454 0.915009
0.628723 0.825684 0.912598
0.727905 0.828217 0.910065
0.869324 0.867950 0.900818
0.925629 0.900574 0.909943
0.530670 0.905518 0.921204
0.542053 0.912964 0.920044
0.573303 0.907135 0.915741
0.628967 0.907013 0.911438
0.698944 0.912598 0.920441
0.779388 0.915497 0.918030
0.857178 0.919922 0.919922
0.929047 0.929413 0.920441
