apps/web/public/luts/fuji-3513-print.cube
TITLE "Fuji 3513 Print"
LUT_3D_SIZE 33
0.013300 0.034360 0.041380
0.028501 0.034791 0.041810
0.050787 0.035526 0.042539
0.076827 0.036383 0.043383
0.105655 0.037331 0.044309
0.136753 0.038354 0.045299
0.169791 0.039442 0.046342
0.204535 0.040587 0.047429
0.240812 0.041784 0.048554
0.278487 0.043029 0.049711
0.317449 0.044318 0.050896
0.357607 0.045648 0.052107
0.398887 0.047017 0.053338
0.441221 0.048424 0.054589
0.484555 0.049865 0.055857
0.528837 0.051340 0.057139
0.574025 0.052848 0.058435
0.620078 0.054386 0.059743
0.666961 0.055954 0.061061
0.714643 0.057552 0.062388
0.763094 0.059177 0.063724
0.812287 0.060829 0.065067
0.862199 0.062507 0.066417
0.912805 0.064211 0.067773
0.960846 0.065907 0.069124
0.960905 0.067147 0.070334
0.960965 0.068402 0.071558
0.961026 0.069672 0.072796
0.961088 0.070955 0.074048
0.961150 0.072253 0.075314
0.961213 0.073564 0.076592
0.961277 0.074888 0.077884
0.961341 0.076225 0.079187
0.014048 0.049872 0.042111
0.030098 0.051147 0.042799
0.052661 0.052500 0.043622
0.078901 0.053904 0.044533
0.107892 0.055351 0.045512
0.139130 0.056836 0.046545
0.172294 0.058356 0.047624
0.207153 0.059908 0.048740
0.243537 0.061492 0.049890
0.281312 0.063104 0.051068
0.320368 0.064745 0.052270
0.360617 0.066412 0.053495
0.401983 0.068106 0.054739
0.444400 0.069825 0.056000
0.487813 0.071569 0.057276
0.532173 0.073337 0.058565
0.577435 0.075127 0.059867
0.623560 0.076941 0.061178
0.670514 0.078777 0.062500
0.718264 0.080634 0.063829
0.766782 0.082513 0.065166
0.816041 0.084412 0.066510
0.866015 0.086332 0.067861
0.916684 0.088272 0.069217
0.961918 0.090170 0.070561
0.961988 0.091632 0.071786
0.962059 0.093104 0.073025
0.962131 0.094586 0.074277
0.962203 0.096078 0.075543
0.962275 0.097580 0.076822
0.962348 0.099092 0.078114
0.962422 0.100613 0.079418
0.962497 0.102144 0.080734
0.015271 0.072614 0.043249
0.031939 0.074153 0.044023
0.054765 0.075760 0.044904
0.081196 0.077412 0.045859
0.110344 0.079100 0.046872
0.141719 0.080821 0.047932
0.175005 0.082572 0.049032
0.209976 0.084350 0.050166
0.246465 0.086155 0.051329
0.284337 0.087984 0.052518
0.323486 0.089838 0.053730
0.363823 0.091714 0.054961
0.405273 0.093613 0.056210
0.447772 0.095533 0.057475
0.491263 0.097475 0.058753
0.535698 0.099437 0.060043
0.581034 0.101419 0.061345
0.627230 0.103421 0.062656
0.674253 0.105442 0.063976
0.722070 0.107482 0.065304
0.770653 0.109540 0.066639
0.819975 0.111616 0.067981
0.870012 0.113710 0.069329
0.920740 0.115821 0.070682
0.963163 0.117859 0.072018
0.963242 0.119484 0.073257
0.963321 0.121118 0.074509
0.963401 0.122759 0.075775
0.963482 0.124407 0.077054
0.963563 0.126064 0.078345
0.963645 0.127728 0.079648
0.963727 0.129400 0.080964
0.963809 0.131080 0.082291
0.016735 0.099194 0.044527
0.033952 0.100918 0.045360
0.057034 0.102704 0.046283
0.083655 0.104533 0.047270
0.112958 0.106396 0.048307
0.144469 0.108289 0.049385
0.177876 0.110210 0.050500
0.212959 0.112156 0.051645
0.249551 0.114126 0.052817
0.287520 0.116119 0.054012
0.326762 0.118134 0.055228
0.367187 0.120170 0.056462
0.408721 0.122226 0.057712
0.451300 0.124302 0.058976
0.494869 0.126397 0.060253
0.539379 0.128511 0.061542
0.584787 0.130643 0.062841
0.631054 0.132794 0.064149
0.678145 0.134961 0.065465
0.726029 0.137146 0.066790
0.774676 0.139347 0.068121
0.824060 0.141565 0.069459
0.874157 0.143799 0.070803
0.924945 0.146049 0.072153
0.964551 0.148195 0.073482
0.964638 0.149952 0.074734
0.964725 0.151716 0.075998
0.964812 0.153487 0.077276
0.964900 0.155264 0.078567
0.964988 0.157047 0.079869
0.965077 0.158837 0.081184
0.965167 0.160634 0.082510
0.965256 0.162437 0.083849
0.018401 0.128625 0.045883
0.036120 0.130496 0.046760
0.059453 0.132427 0.047714
0.086260 0.134398 0.048724
0.115718 0.136402 0.049779
0.147363 0.138435 0.050871
0.180891 0.140494 0.051996
0.216085 0.142577 0.053148
0.252780 0.144682 0.054325
0.290846 0.146809 0.055523
0.330179 0.148957 0.056740
0.370691 0.151125 0.057973
0.412309 0.153312 0.059222
0.454969 0.155517 0.060484
0.498615 0.157741 0.061758
0.543199 0.159982 0.063043
0.588679 0.162240 0.064338
0.635016 0.164515 0.065642
0.682174 0.166806 0.066954
0.730123 0.169113 0.068274
0.778833 0.171435 0.069600
0.828278 0.173774 0.070934
0.878435 0.176126 0.072274
0.929280 0.178494 0.073620
0.966065 0.180727 0.074944
0.966159 0.182597 0.076208
0.966252 0.184472 0.077484
0.966347 0.186353 0.078774
0.966441 0.188240 0.080075
0.966536 0.190132 0.081389
0.966632 0.192030 0.082714
0.966727 0.193934 0.084051
0.966824 0.195844 0.085399
0.020250 0.160381 0.047278
0.038434 0.162377 0.048190
0.062012 0.164430 0.049169
0.089003 0.166522 0.050197
0.118614 0.168646 0.051265
0.150393 0.170798 0.052367
0.184041 0.172975 0.053499
0.219345 0.175175 0.054655
0.256143 0.177397 0.055834
0.294305 0.179640 0.057033
0.333730 0.181902 0.058249
0.374328 0.184184 0.059481
0.416029 0.186484 0.060727
0.458768 0.188801 0.061985
0.502490 0.191136 0.063255
0.547148 0.193487 0.064536
0.592699 0.195855 0.065826
0.639104 0.198238 0.067125
0.686328 0.200637 0.068433
0.734341 0.203051 0.069748
0.783113 0.205479 0.071070
0.832618 0.207923 0.072400
0.882832 0.210380 0.073736
0.933733 0.212851 0.075079
0.967693 0.215157 0.076400
0.967793 0.217125 0.077675
0.967893 0.219098 0.078963
0.967993 0.221076 0.080263
0.968094 0.223060 0.081576
0.968195 0.225048 0.082900
0.968296 0.227042 0.084236
0.968398 0.229040 0.085583
0.968500 0.231044 0.086941
0.022269 0.194125 0.048689
0.040889 0.196230 0.049629
0.064708 0.198390 0.050628
0.091881 0.200588 0.051670
0.121643 0.202818 0.052749
0.153554 0.205074 0.053858
0.187321 0.207356 0.054993
0.222735 0.209660 0.056152
0.259634 0.211985 0.057332
0.297892 0.214330 0.058530
0.337406 0.216694 0.059744
0.378091 0.219076 0.060974
0.419873 0.221476 0.062216
0.462690 0.223893 0.063471
0.506488 0.226327 0.064737
0.551218 0.228776 0.066013
0.596838 0.231241 0.067299
0.643310 0.233721 0.068594
0.690599 0.236216 0.069897
0.738674 0.238726 0.071208
0.787506 0.241249 0.072527
0.837070 0.243786 0.073853
0.887340 0.246336 0.075187
0.938295 0.248900 0.076527
0.969425 0.251267 0.077847
0.969530 0.253324 0.079134
0.969636 0.255384 0.080433
0.969742 0.257450 0.081744
0.969848 0.259520 0.083067
0.969955 0.261595 0.084402
0.970061 0.263674 0.085748
0.970169 0.265758 0.087105
0.970276 0.267847 0.088473
0.024450 0.229619 0.050100
0.043482 0.231822 0.051062
0.067537 0.234078 0.052077
0.094888 0.236372 0.053131
0.124800 0.238696 0.054217
0.156842 0.241047 0.055332
0.190727 0.243422 0.056470
0.226248 0.245819 0.057631
0.263248 0.248237 0.058810
0.301600 0.250674 0.060007
0.341203 0.253130 0.061219
0.381972 0.255603 0.062446
0.423835 0.258094 0.063685
0.466729 0.260601 0.064936
0.510600 0.263124 0.066198
0.555401 0.265662 0.067471
0.601089 0.268215 0.068753
0.647627 0.270783 0.070044
0.694979 0.273365 0.071344
0.743114 0.275961 0.072652
0.792005 0.278570 0.073968
0.841625 0.281192 0.075293
0.891949 0.283827 0.076625
0.942957 0.286474 0.077966
0.971252 0.288895 0.079287
0.971362 0.291031 0.080585
0.971473 0.293172 0.081895
0.971584 0.295317 0.083217
0.971695 0.297466 0.084551
0.971806 0.299620 0.085895
0.971918 0.301777 0.087251
0.972031 0.303939 0.088618
0.972143 0.306105 0.089996
0.026786 0.266686 0.051497
0.046209 0.268978 0.052479
0.070494 0.271322 0.053507
0.098022 0.273703 0.054570
0.128081 0.276113 0.055663
0.160252 0.278550 0.056782
0.194254 0.281011 0.057923
0.229882 0.283493 0.059084
0.266980 0.285995 0.060264
0.305425 0.288517 0.061459
0.345116 0.291056 0.062670
0.385968 0.293613 0.063894
0.427909 0.296186 0.065130
0.470878 0.298775 0.066378
0.514822 0.301380 0.067638
0.559692 0.304000 0.068907
0.605446 0.306633 0.070187
0.652047 0.309281 0.071476
0.699460 0.311943 0.072774
0.747654 0.314618 0.074081
0.796601 0.317305 0.075396
0.846275 0.320005 0.076721
0.896651 0.322718 0.078054
0.947708 0.325442 0.079397
0.973164 0.327908 0.080721
0.973279 0.330118 0.082030
0.973394 0.332332 0.083351
0.973510 0.334551 0.084684
0.973626 0.336773 0.086028
0.973742 0.338998 0.087383
0.973858 0.341228 0.088749
0.973975 0.343462 0.090126
0.974092 0.345700 0.091513
0.029271 0.305188 0.052874
0.049066 0.307561 0.053873
0.073576 0.309986 0.054912
0.101278 0.312446 0.055983
0.131483 0.314937 0.057082
0.163781 0.317453 0.058204
0.197897 0.319992 0.059348
0.233630 0.322553 0.060510
0.270826 0.325133 0.061689
0.309362 0.327732 0.062884
0.349138 0.330349 0.064093
0.390071 0.332982 0.065315
0.432090 0.335632 0.066550
0.475132 0.338297 0.067797
0.519146 0.340977 0.069055
0.564083 0.343671 0.070323
0.609901 0.346380 0.071601
0.656563 0.349102 0.072890
0.704035 0.351837 0.074188
0.752286 0.354584 0.075496
0.801286 0.357344 0.076813
0.851012 0.360116 0.078140
0.901437 0.362900 0.079477
0.952541 0.365695 0.080824
0.975154 0.368201 0.082154
0.975273 0.370480 0.083474
0.975392 0.372762 0.084807
0.975512 0.375048 0.086150
0.975631 0.377337 0.087505
0.975752 0.379631 0.088870
0.975872 0.381928 0.090246
0.975992 0.384228 0.091633
0.976113 0.386532 0.093030
0.031898 0.345010 0.054224
0.052048 0.347460 0.055238
0.076779 0.349959 0.056288
0.104652 0.352494 0.057367
0.134999 0.355058 0.058471
0.167423 0.357648 0.059597
0.201652 0.360261 0.060743
0.237488 0.362894 0.061906
0.274779 0.365547 0.063086
0.313404 0.368218 0.064281
0.353264 0.370906 0.065490
0.394276 0.373611 0.066713
0.436370 0.376331 0.067947
0.479484 0.379067 0.069194
0.523565 0.381817 0.070452
0.568566 0.384581 0.071721
0.614446 0.387358 0.073000
0.661168 0.390149 0.074290
0.708696 0.392952 0.075591
0.757000 0.395767 0.076902
0.806052 0.398594 0.078224
0.855826 0.401433 0.079556
0.906298 0.404283 0.080899
0.957446 0.407143 0.082253
0.977211 0.409684 0.083591
0.977334 0.412027 0.084923
0.977457 0.414373 0.086266
0.977580 0.416722 0.087621
0.977703 0.419075 0.088986
0.977826 0.421431 0.090362
0.977950 0.423791 0.091749
0.978074 0.426154 0.093146
0.978198 0.428520 0.094553
0.034660 0.386060 0.055546
0.055152 0.388581 0.056574
0.080098 0.391150 0.057634
0.108138 0.393755 0.058720
0.138626 0.396388 0.059829
0.171173 0.399047 0.060960
0.205512 0.401727 0.062109
0.241449 0.404429 0.063275
0.278834 0.407149 0.064456
0.317546 0.409888 0.065653
0.357487 0.412643 0.066864
0.398576 0.415414 0.068087
0.440742 0.418201 0.069324
0.483925 0.421002 0.070572
0.528071 0.423817 0.071833
0.573135 0.426646 0.073104
0.619074 0.429488 0.074388
0.665851 0.432342 0.075682
0.713433 0.435209 0.076988
0.761788 0.438087 0.078305
0.810888 0.440977 0.079634
0.860708 0.443877 0.080975
0.911224 0.446789 0.082327
0.962412 0.449710 0.083692
0.979327 0.452282 0.085039
0.979452 0.454684 0.086383
0.979578 0.457090 0.087737
0.979704 0.459499 0.089103
0.979830 0.461911 0.090479
0.979957 0.464326 0.091866
0.980083 0.466745 0.093264
0.980210 0.469166 0.094671
0.980337 0.471591 0.096089
0.037550 0.428260 0.056840
0.058369 0.430847 0.057880
0.083527 0.433482 0.058950
0.111730 0.436152 0.060044
0.142356 0.438850 0.061160
0.175024 0.441573 0.062295
0.209471 0.444318 0.063448
0.245507 0.447083 0.064618
0.282982 0.449867 0.065803
0.321779 0.452668 0.067003
0.361799 0.455486 0.068217
0.402962 0.458319 0.069445
0.445199 0.461168 0.070685
0.488447 0.464030 0.071938
0.532657 0.466907 0.073203
0.577780 0.469796 0.074480
0.623775 0.472698 0.075770
0.670606 0.475613 0.077072
0.718238 0.478539 0.078386
0.766641 0.481476 0.079713
0.815786 0.484424 0.081052
0.865649 0.487382 0.082404
0.916204 0.490351 0.083770
0.967430 0.493329 0.085149
0.981490 0.495928 0.086507
0.981613 0.498388 0.087868
0.981723 0.500853 0.089255
0.981820 0.503324 0.090669
0.981903 0.505800 0.092109
0.981974 0.508281 0.093575
0.982033 0.510768 0.095066
0.982079 0.513260 0.096583
0.982114 0.515757 0.098125
0.040561 0.471540 0.058107
0.061695 0.474190 0.059160
0.087058 0.476887 0.060240
0.115422 0.479618 0.061342
0.146183 0.482377 0.062465
0.178969 0.485161 0.063607
0.213522 0.487966 0.064766
0.249653 0.490791 0.065941
0.287217 0.493635 0.067132
0.326096 0.496495 0.068337
0.366193 0.499372 0.069557
0.407427 0.502264 0.070790
0.449731 0.505171 0.072037
0.493043 0.508091 0.073297
0.537312 0.511025 0.074570
0.582492 0.513971 0.075856
0.628540 0.516929 0.077155
0.675421 0.519900 0.078468
0.723100 0.522881 0.079794
0.771547 0.525873 0.081133
0.820735 0.528876 0.082487
0.870632 0.531889 0.083861
0.920892 0.534962 0.085716
0.971176 0.538158 0.088359
0.981918 0.540860 0.090305
0.981845 0.543404 0.091951
0.981762 0.545953 0.093622
0.981671 0.548506 0.095320
0.981571 0.551063 0.097044
0.981462 0.553623 0.098793
0.981344 0.556188 0.100568
0.981219 0.558757 0.102368
0.981085 0.561329 0.104193
0.043684 0.515842 0.059351
0.065121 0.518552 0.060417
0.090685 0.521307 0.061507
0.119206 0.524096 0.062619
0.150099 0.526913 0.063751
0.183000 0.529753 0.064901
0.217656 0.532615 0.066067
0.253881 0.535497 0.067250
0.291530 0.538397 0.068449
0.330487 0.541313 0.069662
0.370658 0.544245 0.070890
0.411961 0.547192 0.072132
0.454329 0.550154 0.073388
0.497702 0.553128 0.074658
0.542027 0.556116 0.075942
0.587260 0.559115 0.077240
0.633358 0.562127 0.078553
0.680286 0.565149 0.079879
0.728009 0.568183 0.081220
0.776409 0.571232 0.082786
0.825179 0.574328 0.085072
0.874139 0.577514 0.088126
0.923120 0.580828 0.091974
0.971959 0.584310 0.096637
0.979554 0.587071 0.099064
0.979355 0.589676 0.101000
0.979150 0.592284 0.102962
0.978940 0.594895 0.104950
0.978725 0.597509 0.106962
0.978505 0.600125 0.109000
0.978282 0.602744 0.111061
0.978053 0.605365 0.113147
0.977821 0.607989 0.115257
0.046910 0.561112 0.060578
0.068640 0.563879 0.061657
0.094399 0.566690 0.062759
0.123073 0.569533 0.063882
0.154095 0.572405 0.065024
0.187108 0.575299 0.066184
0.221864 0.578215 0.067360
0.258179 0.581150 0.068553
0.295911 0.584103 0.069762
0.334945 0.587072 0.070986
0.375186 0.590056 0.072225
0.416555 0.593055 0.073479
0.458983 0.596068 0.074747
0.502413 0.599093 0.076031
0.546792 0.602131 0.077330
0.592074 0.605181 0.078643
0.638205 0.608237 0.080070
0.685022 0.611284 0.082114
0.732348 0.614354 0.084877
0.780015 0.617486 0.088387
0.827859 0.620717 0.092667
0.875721 0.624084 0.097736
0.923450 0.627624 0.103609
0.970901 0.631372 0.110293
0.975575 0.634141 0.113005
0.975316 0.636785 0.115229
0.975057 0.639430 0.117477
0.974796 0.642077 0.119748
0.974533 0.644726 0.122044
0.974270 0.647376 0.124362
0.974007 0.650027 0.126704
0.973743 0.652680 0.129068
0.973478 0.655335 0.131454
0.050230 0.607305 0.061794
0.072241 0.610125 0.062888
0.098190 0.612988 0.064003
0.127015 0.615884 0.065139
0.158162 0.618807 0.066293
0.191283 0.621753 0.067465
0.226136 0.624719 0.068654
0.262538 0.627705 0.069859
0.300350 0.630707 0.071081
0.339456 0.633726 0.072319
0.379765 0.636760 0.073572
0.421196 0.639808 0.074841
0.463682 0.642869 0.076126
0.507173 0.645933 0.077495
0.551629 0.648950 0.079413
0.596896 0.651939 0.081997
0.642810 0.654933 0.085276
0.689206 0.657968 0.089279
0.735923 0.661078 0.094026
0.782806 0.664299 0.099535
0.829705 0.667665 0.105818
0.876479 0.671210 0.112882
0.922997 0.674965 0.120726
0.969135 0.678960 0.129343
0.971106 0.681692 0.132132
0.970852 0.684354 0.134626
0.970600 0.687017 0.137142
0.970351 0.689681 0.139680
0.970104 0.692345 0.142240
0.969859 0.695010 0.144820
0.969617 0.697676 0.147421
0.969379 0.700342 0.150042
0.969143 0.703009 0.152683
0.053632 0.654377 0.063008
0.075914 0.657248 0.064118
0.102049 0.660161 0.065248
0.131019 0.663106 0.066399
0.162288 0.666078 0.067568
0.195515 0.669073 0.068754
0.230461 0.672087 0.069958
0.266948 0.675120 0.071180
0.304835 0.678170 0.072417
0.344011 0.681236 0.073672
0.384420 0.684295 0.075044
0.426089 0.687273 0.076947
0.468868 0.690187 0.079459
0.512590 0.693065 0.082614
0.557092 0.695936 0.086439
0.602211 0.698833 0.090962
0.647790 0.701787 0.096201
0.693674 0.704831 0.102173
0.739716 0.707999 0.108887
0.785776 0.711321 0.116348
0.831721 0.714829 0.124555
0.877430 0.718552 0.133499
0.922790 0.722517 0.143166
0.967377 0.726736 0.153474
0.967179 0.729401 0.156189
0.966987 0.732066 0.158923
0.966799 0.734731 0.161676
0.966617 0.737396 0.164448
0.966440 0.740061 0.167238
0.966269 0.742726 0.170046
0.966103 0.745391 0.172872
0.965943 0.748056 0.175714
0.965790 0.750720 0.178573
0.057105 0.702290 0.064231
0.079649 0.705209 0.065358
0.105964 0.708170 0.066506
0.135076 0.711162 0.067673
0.166463 0.714180 0.068859
0.199792 0.717221 0.070064
0.234828 0.720281 0.071286
0.271542 0.723291 0.072771
0.309878 0.726199 0.074764
0.349652 0.729023 0.077305
0.390685 0.731783 0.080432
0.432806 0.734504 0.084175
0.475846 0.737211 0.088563
0.519642 0.739933 0.093620
0.564035 0.742700 0.099365
0.608871 0.745543 0.105809
0.654002 0.748491 0.112963
0.699288 0.751575 0.120828
0.744594 0.754825 0.129401
0.789799 0.758270 0.138672
0.834788 0.761935 0.148625
0.879462 0.765845 0.159235
0.923734 0.770022 0.170472
0.964786 0.774362 0.181718
0.964694 0.777018 0.184630
0.964610 0.779675 0.187557
0.964533 0.782331 0.190499
0.964464 0.784987 0.193456
0.964403 0.787642 0.196428
0.964350 0.790296 0.199413
0.964304 0.792951 0.202412
0.964267 0.795604 0.205423
0.964238 0.798257 0.208447
0.060637 0.751008 0.065474
0.083434 0.753974 0.066620
0.109924 0.756980 0.067787
0.139306 0.759961 0.069130
0.171216 0.762849 0.070859
0.205301 0.765642 0.073027
0.241286 0.768347 0.075680
0.278937 0.770974 0.078859
0.318045 0.773542 0.082598
0.358416 0.776071 0.086929
0.399869 0.778583 0.091878
0.442232 0.781104 0.097467
0.485338 0.783661 0.103711
0.529030 0.786282 0.110624
0.573155 0.788997 0.118209
0.617571 0.791833 0.126469
0.662142 0.794819 0.135398
0.706742 0.797983 0.144983
0.751255 0.801351 0.155206
0.795577 0.804947 0.166041
0.839617 0.808792 0.177455
0.883299 0.812906 0.189407
0.926561 0.817304 0.201847
0.964320 0.821741 0.213534
0.964371 0.824383 0.216579
0.964430 0.827025 0.219634
0.964499 0.829667 0.222700
0.964577 0.832308 0.225776
0.964665 0.834948 0.228860
0.964762 0.837587 0.231954
0.964869 0.840227 0.235057
0.964985 0.842865 0.238167
0.965111 0.845503 0.241284
0.065240 0.800091 0.067776
0.089017 0.802800 0.069754
0.116664 0.805437 0.072119
0.147262 0.807994 0.074916
0.180281 0.810474 0.078185
0.215347 0.812884 0.081963
0.252169 0.815240 0.086282
0.290501 0.817557 0.091171
0.330128 0.819856 0.096652
0.370853 0.822161 0.102745
0.412493 0.824496 0.109464
0.454877 0.826888 0.116817
0.497846 0.829363 0.124808
0.541249 0.831950 0.133435
0.584944 0.834674 0.142690
0.628799 0.837563 0.152558
0.672696 0.840643 0.163019
0.716525 0.843937 0.174045
0.760189 0.847467 0.185599
0.803608 0.851253 0.197640
0.846712 0.855311 0.210115
0.889452 0.859655 0.222964
0.931794 0.864295 0.236120
0.966495 0.868810 0.247700
0.966710 0.871438 0.250794
0.966935 0.874066 0.253894
0.967170 0.876694 0.256997
0.967416 0.879321 0.260105
0.967671 0.881948 0.263216
0.967936 0.884574 0.266330
0.968212 0.887200 0.269446
0.968498 0.889827 0.272564
0.968793 0.892452 0.275684
0.075581 0.847644 0.075830
0.100516 0.849997 0.079061
0.129229 0.852269 0.082806
0.160790 0.854472 0.087075
0.194651 0.856620 0.091886
0.230424 0.858728 0.097256
0.267808 0.860817 0.103202
0.306551 0.862907 0.109738
0.346431 0.865023 0.116874
0.387252 0.867190 0.124614
0.428833 0.869432 0.132958
0.471010 0.871778 0.141901
0.513629 0.874252 0.151431
0.556551 0.876881 0.161532
0.599646 0.879691 0.172178
0.642798 0.882704 0.183341
0.685905 0.885944 0.194980
0.728878 0.889429 0.207052
0.771641 0.893178 0.219501
0.814138 0.897205 0.232266
0.856326 0.901520 0.245276
0.898183 0.906131 0.258451
0.939706 0.911040 0.271700
0.971568 0.915626 0.282594
0.971954 0.918247 0.285633
0.972350 0.920868 0.288670
0.972755 0.923489 0.291705
0.973170 0.926111 0.294736
0.973595 0.928733 0.297764
0.974030 0.931355 0.300788
0.974474 0.933979 0.303806
0.974928 0.936602 0.306820
0.975392 0.939227 0.309827
0.092367 0.893352 0.090376
0.118232 0.895412 0.094849
0.147754 0.897397 0.099946
0.180002 0.899330 0.105637
0.214418 0.901235 0.111916
0.250606 0.903134 0.118782
0.288259 0.905052 0.126233
0.327121 0.907014 0.134267
0.366973 0.909046 0.142878
0.407618 0.911172 0.152055
0.448884 0.913421 0.161781
0.490612 0.915816 0.172037
0.532660 0.918384 0.182793
0.574901 0.921147 0.194016
0.617221 0.924130 0.205663
0.659523 0.927352 0.217688
0.701722 0.930831 0.230032
0.743753 0.934582 0.242631
0.785564 0.938619 0.255411
0.827124 0.942949 0.268289
0.868421 0.947577 0.281174
0.909461 0.952503 0.293962
0.950276 0.957723 0.306542
0.979498 0.962378 0.316156
0.980042 0.965006 0.319012
0.980594 0.967636 0.321858
0.981155 0.970267 0.324693
0.981724 0.972900 0.327516
0.982302 0.975534 0.330328
0.982887 0.978170 0.333127
0.983480 0.980808 0.335913
0.984081 0.983448 0.338685
0.984690 0.986090 0.341443
0.115469 0.937232 0.111316
0.142009 0.939080 0.116960
0.172057 0.940867 0.123308
0.204692 0.942629 0.130295
0.239353 0.944395 0.137889
0.275643 0.946195 0.146068
0.313253 0.948054 0.154811
0.351928 0.950001 0.164098
0.391451 0.952061 0.173906
0.431635 0.954262 0.184206
0.472314 0.956628 0.194966
0.513340 0.959185 0.206145
0.554585 0.961955 0.217699
0.595938 0.964959 0.229574
0.637302 0.968217 0.241711
0.678600 0.971745 0.254040
0.719771 0.975557 0.266485
0.760658 0.979333 0.278709
0.800666 0.981212 0.289257
0.840587 0.983351 0.299740
0.880422 0.985747 0.310089
0.920188 0.988397 0.320225
0.959918 0.991291 0.330065
0.986130 0.993337 0.336728
0.986161 0.993367 0.337849
0.986192 0.993398 0.338976
0.986223 0.993429 0.340111
0.986255 0.993460 0.341253
0.986287 0.993491 0.342401
0.986318 0.993522 0.343555
0.986351 0.993554 0.344716
0.986383 0.993585 0.345884
0.986416 0.993617 0.347057
0.142510 0.976834 0.136432
0.167782 0.976258 0.141454
0.196418 0.975648 0.147133
0.227534 0.975042 0.153371
0.260592 0.974467 0.160113
0.295218 0.973949 0.167325
0.331122 0.973511 0.174977
0.368074 0.973174 0.183045
0.405878 0.972960 0.191506
0.444367 0.972888 0.200336
0.483396 0.972977 0.209507
0.522838 0.973246 0.218991
0.562583 0.973711 0.228756
0.602532 0.974387 0.238766
0.642604 0.975288 0.248980
0.682728 0.976426 0.259355
0.722849 0.977810 0.269841
0.762924 0.979447 0.280385
0.802925 0.981343 0.290925
0.842838 0.983498 0.301398
0.882666 0.985911 0.311731
0.922427 0.988577 0.321847
0.962155 0.991486 0.331661
0.986161 0.993367 0.337849
0.986192 0.993398 0.338976
0.986223 0.993429 0.340111
0.986255 0.993460 0.341253
0.986287 0.993491 0.342401
0.986318 0.993522 0.343555
0.986351 0.993554 0.344716
0.986383 0.993585 0.345884
0.986416 0.993617 0.347057
0.986448 0.993650 0.348237
0.143868 0.976794 0.137772
0.169363 0.976215 0.142843
0.198155 0.975606 0.148563
0.229391 0.975001 0.154836
0.262545 0.974430 0.161610
0.297247 0.973917 0.168851
0.333215 0.973485 0.176530
0.370217 0.973156 0.184623
0.408062 0.972951 0.193107
0.446583 0.972889 0.201956
0.485636 0.972989 0.211145
0.525096 0.973270 0.220645
0.564851 0.973748 0.230422
0.604807 0.974439 0.240441
0.644881 0.975355 0.250663
0.685004 0.976508 0.261041
0.725120 0.977909 0.271528
0.765189 0.979563 0.282067
0.805182 0.981475 0.292600
0.845089 0.983647 0.303061
0.884910 0.986076 0.313378
0.924666 0.988758 0.323473
0.964392 0.991683 0.333262
0.986192 0.993398 0.338976
0.986223 0.993429 0.340111
0.986255 0.993460 0.341253
0.986287 0.993491 0.342401
0.986318 0.993522 0.343555
0.986351 0.993554 0.344716
0.986383 0.993585 0.345884
0.986416 0.993617 0.347057
0.986448 0.993650 0.348237
0.986481 0.993682 0.349423
0.145243 0.976754 0.139128
0.170954 0.976173 0.144247
0.199901 0.975563 0.150006
0.231254 0.974961 0.156314
0.264502 0.974393 0.163120
0.299281 0.973885 0.170389
0.335311 0.973460 0.178095
0.372364 0.973138 0.186212
0.410248 0.972942 0.194718
0.448800 0.972890 0.203587
0.487877 0.973002 0.212793
0.527354 0.973296 0.222307
0.567121 0.973787 0.232097
0.607083 0.974492 0.242126
0.647158 0.975423 0.252353
0.687279 0.976592 0.262735
0.727391 0.978009 0.273221
0.767453 0.979679 0.283756
0.807440 0.981608 0.294281
0.847339 0.983797 0.304730
0.887154 0.986243 0.315030
0.926905 0.988940 0.325104
0.966630 0.991880 0.334867
0.986223 0.993429 0.340111
0.986255 0.993460 0.341253
0.986287 0.993491 0.342401
0.986318 0.993522 0.343555
0.986351 0.993554 0.344716
0.986383 0.993585 0.345884
