apps/web/public/luts/fuji-3513-print.cube
TITLE "Fuji 3513 Print"
LUT_3D_SIZE 9
0.013300 0.034360 0.041380
0.105655 0.037331 0.044309
0.240812 0.041784 0.048554
0.398887 0.047017 0.053338
0.574025 0.052848 0.058435
0.763094 0.059177 0.063724
0.960846 0.065907 0.069124
0.961088 0.070955 0.074048
0.961341 0.076225 0.079187
0.018401 0.128625 0.045883
0.115718 0.136402 0.049779
0.252780 0.144682 0.054325
0.412309 0.153312 0.059222
0.588679 0.162240 0.064338
0.778833 0.171435 0.069600
0.966065 0.180727 0.074944
0.966441 0.188240 0.080075
0.966824 0.195844 0.085399
0.026786 0.266686 0.051497
0.128081 0.276113 0.055663
0.266980 0.285995 0.060264
0.427909 0.296186 0.065130
0.605446 0.306633 0.070187
0.796601 0.317305 0.075396
0.973164 0.327908 0.080721
0.973626 0.336773 0.086028
0.974092 0.345700 0.091513
0.037550 0.428260 0.056840
0.142356 0.438850 0.061160
0.282982 0.449867 0.065803
0.445199 0.461168 0.070685
0.623775 0.472698 0.075770
0.815786 0.484424 0.081052
0.981490 0.495928 0.086507
0.981903 0.505800 0.092109
0.982114 0.515757 0.098125
0.050230 0.607305 0.061794
0.158162 0.618807 0.066293
0.300350 0.630707 0.071081
0.463682 0.642869 0.076126
0.642810 0.654933 0.085276
0.829705 0.667665 0.105818
0.971106 0.681692 0.132132
0.970104 0.692345 0.142240
0.969143 0.703009 0.152683
0.065240 0.800091 0.067776
0.180281 0.810474 0.078185
0.330128 0.819856 0.096652
0.497846 0.829363 0.124808
0.672696 0.840643 0.163019
0.846712 0.855311 0.210115
0.966710 0.871438 0.250794
0.967671 0.881948 0.263216
0.968793 0.892452 0.275684
0.142510 0.976834 0.136432
0.260592 0.974467 0.160113
0.405878 0.972960 0.191506
0.562583 0.973711 0.228756
0.722849 0.977810 0.269841
0.882666 0.985911 0.311731
0.986192 0.993398 0.338976
0.986318 0.993522 0.343555
0.986448 0.993650 0.348237
0.148038 0.976673 0.141886
0.268433 0.974320 0.166176
0.414628 0.972926 0.197971
0.571662 0.973867 0.235472
0.731933 0.978212 0.276627
0.891640 0.986579 0.318350
0.986318 0.993522 0.343555
0.986448 0.993650 0.348237
0.986581 0.993780 0.353016
0.153802 0.976507 0.147572
0.276357 0.974177 0.172427
0.423416 0.972903 0.204593
0.580753 0.974039 0.242319
0.741014 0.978633 0.283517
0.900611 0.987266 0.325046
0.986448 0.993650 0.348237
0.986581 0.993780 0.353016
0.986717 0.993913 0.357888
0.015746 0.036802 0.133179
0.112791 0.040912 0.140730
0.249539 0.045940 0.148592
0.408740 0.051605 0.156554
0.584783 0.057792 0.164529
0.774622 0.064428 0.172471
0.961574 0.071317 0.180314
0.961840 0.076594 0.187616
0.962116 0.082072 0.195007
0.022153 0.135826 0.142289
0.123196 0.143767 0.149809
0.261803 0.152189 0.157527
0.422437 0.160952 0.165298
0.599695 0.170008 0.173065
0.790602 0.179326 0.180803
0.966973 0.188617 0.188462
0.967368 0.196229 0.195843
0.967769 0.203929 0.203307
0.031262 0.275488 0.151423
0.135860 0.285034 0.158782
0.276260 0.295017 0.166268
0.438267 0.305303 0.173797
0.616669 0.315840 0.181341
0.808554 0.326598 0.188897
0.974193 0.337163 0.196443
0.974670 0.346098 0.203891
0.975151 0.355093 0.211422
0.042589 0.438182 0.159861
0.150399 0.448869 0.167086
0.292477 0.459967 0.174409
0.455738 0.471342 0.181795
0.635150 0.482943 0.189245
0.827860 0.494733 0.196777
0.982126 0.506273 0.204792
0.982125 0.516287 0.212829
0.981949 0.526383 0.221137
0.055710 0.618108 0.167664
0.166407 0.629692 0.174862
0.309994 0.641658 0.182175
0.474400 0.653832 0.189871
0.654059 0.665799 0.203581
0.839670 0.679109 0.226788
0.969089 0.693595 0.252700
0.968175 0.704326 0.264210
0.967330 0.715066 0.275911
0.073398 0.810747 0.178053
0.192799 0.820543 0.192201
0.344830 0.829698 0.213376
0.513014 0.839506 0.242751
0.686909 0.851606 0.280467
0.859137 0.867468 0.325278
0.968809 0.883950 0.361440
0.970111 0.894535 0.374373
0.971576 0.905120 0.387242
0.154447 0.975833 0.242673
0.274620 0.973787 0.266793
0.420253 0.972893 0.297383
0.576429 0.974495 0.332831
0.735697 0.979596 0.371296
0.894518 0.988708 0.409991
0.988889 0.996047 0.433895
0.989061 0.996217 0.439784
0.989235 0.996388 0.445725
0.160341 0.975668 0.250236
0.282640 0.973665 0.274711
0.429100 0.972910 0.305479
0.585545 0.974726 0.340976
0.744782 0.980090 0.379334
0.903494 0.989471 0.417723
0.989061 0.996217 0.439784
0.989235 0.996388 0.445725
0.989412 0.996562 0.451716
0.166439 0.975503 0.257892
0.290731 0.973550 0.282698
0.437975 0.972941 0.313631
0.594664 0.974975 0.349163
0.753859 0.980603 0.387400
0.912466 0.990252 0.425467
0.989235 0.996388 0.445725
0.989412 0.996562 0.451716
0.989590 0.996738 0.457756
0.019424 0.040463 0.267404
0.120198 0.045158 0.276460
0.258496 0.050618 0.285747
0.418810 0.056639 0.295082
0.595751 0.063131 0.304389
0.786355 0.070038 0.313630
0.962467 0.077055 0.322717
0.962751 0.082538 0.331319
0.963046 0.088207 0.339982
0.026602 0.143271 0.277973
0.130948 0.151364 0.286929
0.271063 0.159919 0.296021
0.432786 0.168809 0.305125
0.610922 0.177986 0.314192
0.802575 0.187420 0.323205
0.968043 0.196705 0.332105
0.968452 0.204410 0.340756
0.968866 0.212201 0.349464
0.036313 0.284491 0.288423
0.143918 0.294147 0.297178
0.285781 0.304225 0.306012
0.448848 0.314601 0.314857
0.628102 0.325224 0.323691
0.820706 0.336063 0.332517
0.975378 0.346585 0.341309
0.975866 0.355585 0.350004
0.976357 0.364645 0.358756
0.048136 0.448284 0.298150
0.158719 0.459061 0.306747
0.302211 0.470234 0.315405
0.466496 0.481680 0.324102
0.646725 0.493345 0.332843
0.840119 0.505195 0.341653
0.981849 0.517037 0.351742
0.981459 0.527210 0.361114
0.980930 0.537460 0.370655
0.061644 0.629077 0.307270
0.174918 0.640735 0.315827
0.319863 0.652762 0.324474
0.485698 0.664757 0.334467
0.665568 0.676885 0.350035
0.849536 0.691079 0.372921
0.967118 0.706102 0.396254
0.966372 0.716919 0.408050
0.965720 0.727742 0.419952
0.083953 0.820970 0.320648
0.207488 0.830321 0.336080
0.361380 0.839493 0.357220
0.529616 0.849902 0.384961
0.702159 0.863118 0.419393
0.872351 0.880409 0.459389
0.971898 0.897206 0.489916
0.973567 0.907870 0.502510
0.975395 0.918535 0.515001
0.168764 0.974759 0.375981
0.290606 0.973205 0.398557
0.436199 0.973122 0.426373
0.591455 0.975777 0.458160
0.749394 0.982051 0.492366
0.907033 0.992273 0.526571
0.992285 0.999395 0.546874
0.992491 0.999598 0.553530
0.992699 0.999803 0.560221
0.174935 0.974613 0.384496
0.298736 0.973129 0.407276
0.445079 0.973210 0.435149
0.600554 0.976097 0.466884
0.758441 0.982642 0.500912
0.915992 0.993126 0.534781
0.992491 0.999598 0.553530
0.992699 0.999803 0.560221
0.992908 1.000000 0.566946
0.181291 0.974470 0.393064
0.306931 0.973063 0.416029
0.453982 0.973313 0.443948
0.609652 0.976436 0.475621
0.767479 0.983252 0.509461
0.924949 0.993995 0.542985
0.992699 0.999803 0.560221
0.992908 1.000000 0.566946
0.993119 1.000000 0.573705
0.023741 0.044741 0.424221
0.127822 0.049881 0.434302
0.267636 0.055698 0.444563
0.429049 0.062026 0.454845
0.606881 0.068791 0.465081
0.798244 0.075942 0.475236
0.963476 0.083066 0.485208
0.963777 0.088739 0.494762
0.964088 0.094584 0.504363
0.031559 0.150903 0.435751
0.138917 0.159140 0.445694
0.280507 0.167825 0.455737
0.443305 0.176838 0.465773
0.622311 0.186133 0.475760
0.814702 0.195680 0.485685
0.969226 0.204952 0.495484
0.969647 0.212747 0.505072
0.970074 0.220626 0.514706
0.041806 0.293643 0.447061
0.152195 0.303405 0.456791
0.295488 0.313575 0.466575
0.459598 0.324038 0.476356
0.639693 0.334744 0.486119
0.833005 0.345661 0.495871
0.976670 0.356137 0.505583
0.977166 0.365200 0.515207
0.977666 0.374323 0.524876
0.054078 0.458519 0.457657
0.167253 0.469382 0.467227
0.312123 0.480627 0.476844
0.477413 0.492139 0.486493
0.658446 0.503866 0.496184
0.852165 0.515867 0.506040
0.980620 0.528312 0.516947
0.979912 0.538657 0.526967
0.979104 0.549077 0.537062
0.067932 0.640165 0.467704
0.183629 0.651894 0.477244
0.330011 0.663940 0.486909
0.497718 0.675688 0.498135
0.677431 0.688306 0.512966
0.859473 0.703685 0.533018
0.965484 0.719248 0.552510
0.964980 0.730158 0.563986
0.964595 0.741070 0.575506
0.097102 0.830798 0.481972
0.224380 0.839932 0.496768
0.379692 0.849417 0.515776
0.547527 0.860722 0.539849
0.718356 0.875302 0.569221
0.886363 0.894160 0.603076
0.976047 0.911148 0.628015
0.978086 0.921889 0.639965
0.980272 0.932633 0.651811
0.184865 0.973815 0.524368
0.307996 0.972903 0.544305
0.453216 0.973791 0.568304
0.607246 0.977639 0.595543
0.763629 0.985177 0.624878
0.920014 0.996517 0.654379
0.996237 1.000000 0.671585
0.996471 1.000000 0.678793
0.996706 1.000000 0.686027
0.191268 0.973704 0.533399
0.316202 0.972890 0.553412
0.462096 0.973964 0.577377
0.616298 0.978059 0.604505
0.772619 0.985869 0.633644
0.928951 0.997453 0.662843
0.996471 1.000000 0.678793
0.996706 1.000000 0.686027
0.996943 1.000000 0.693288
0.197838 0.973599 0.542457
0.324465 0.972889 0.562531
0.470994 0.974154 0.586455
0.625348 0.978498 0.613466
0.781600 0.986580 0.642404
0.937890 0.998403 0.671299
0.996706 1.000000 0.686027
0.996943 1.000000 0.693288
0.997181 1.000000 0.700575
0.028548 0.049483 0.597773
0.135645 0.054991 0.608645
0.276942 0.061117 0.619660
0.439441 0.067719 0.630678
0.618155 0.074730 0.641637
0.810272 0.082107 0.652511
0.964581 0.089320 0.663185
0.964898 0.095168 0.673508
0.965224 0.101177 0.683869
0.036936 0.158701 0.610017
0.147085 0.167078 0.620729
0.290118 0.175888 0.631514
0.453975 0.185021 0.642280
0.633841 0.194431 0.652993
0.826962 0.204086 0.663643
0.970500 0.213341 0.674164
0.970933 0.221223 0.684514
0.971370 0.229187 0.694901
0.047675 0.302925 0.621968
0.160668 0.312789 0.632464
0.305358 0.323051 0.642997
0.470494 0.333598 0.653522
0.651417 0.344384 0.664029
0.845428 0.355377 0.674531
0.978044 0.365803 0.684990
0.978548 0.374928 0.695370
0.979054 0.384112 0.705788
0.060359 0.468867 0.633227
0.175974 0.479812 0.643572
0.322189 0.491128 0.653957
0.488464 0.502705 0.664374
0.670287 0.514491 0.674840
0.863184 0.527052 0.684811
0.978568 0.540208 0.694560
0.977635 0.550740 0.704637
0.976643 0.561340 0.714703
0.074522 0.651354 0.644014
0.192508 0.663151 0.654347
0.341300 0.674955 0.664432
0.510609 0.686763 0.674395
0.689787 0.700213 0.685965
0.869669 0.717045 0.700968
0.964446 0.733087 0.715953
0.964255 0.744091 0.726695
0.964203 0.755095 0.737443
0.112986 0.840359 0.655252
0.243510 0.849551 0.667595
0.399722 0.859656 0.682650
0.566669 0.872134 0.701479
0.735441 0.888267 0.724671
0.901178 0.908738 0.751923
0.981276 0.925736 0.771997
0.983664 0.936546 0.783266
0.986180 0.947360 0.794470
0.202483 0.973148 0.682281
0.326524 0.973020 0.698785
0.471044 0.975013 0.718316
0.623569 0.980153 0.740607
0.778222 0.988988 0.765044
0.933351 1.000000 0.790309
1.000000 1.000000 0.805232
1.000000 1.000000 0.812888
1.000000 1.000000 0.820568
0.209082 0.973087 0.691561
0.334776 0.973085 0.708032
0.479896 0.975283 0.727467
0.632552 0.980679 0.749628
0.787141 0.989779 0.773901
0.942267 1.000000 0.798962
1.000000 1.000000 0.812888
1.000000 1.000000 0.820568
1.000000 1.000000 0.828271
0.215830 0.973033 0.700850
0.343078 0.973162 0.717277
0.488762 0.975571 0.736612
0.641531 0.981225 0.758642
0.796052 0.990588 0.782753
0.951190 1.000000 0.807614
1.000000 1.000000 0.820568
1.000000 1.000000 0.828271
1.000000 1.000000 0.835997
0.033765 0.054604 0.784923
0.143658 0.060431 0.796446
0.286406 0.066834 0.808080
0.449976 0.073684 0.819703
0.629564 0.080922 0.831261
0.822427 0.088507 0.842732
0.965772 0.095793 0.853997
0.966104 0.101805 0.864972
0.966445 0.107969 0.875980
0.042677 0.166652 0.797731
0.155439 0.175164 0.809078
0.299883 0.184097 0.820478
0.464785 0.193347 0.831851
0.645500 0.202867 0.843170
0.839341 0.212628 0.854430
0.971853 0.221862 0.865566
0.972296 0.229828 0.876563
0.972744 0.237875 0.887592
0.053876 0.312326 0.810189
0.169323 0.322290 0.821324
0.315377 0.332640 0.832485
0.481523 0.343270 0.843636
0.663261 0.354134 0.854775
0.857958 0.365199 0.865916
0.979487 0.375572 0.877014
0.979996 0.384758 0.888041
0.980508 0.394001 0.899102
0.066940 0.479317 0.821993
0.184864 0.490342 0.832991
0.332391 0.501726 0.844028
0.499633 0.513365 0.855102
0.682144 0.525256 0.866002
0.873280 0.538939 0.873140
0.975920 0.552842 0.880165
0.974866 0.563571 0.889765
0.973794 0.574362 0.899279
0.081379 0.662633 0.833412
0.201987 0.674392 0.844106
0.354075 0.685907 0.852247
0.524522 0.698153 0.858353
0.702787 0.712763 0.864372
0.880320 0.731265 0.872538
0.964241 0.747663 0.882903
0.964423 0.758759 0.892641
0.964760 0.769850 0.902374
0.131665 0.849832 0.835616
0.264853 0.859375 0.843863
0.421379 0.870398 0.853492
0.586928 0.884287 0.866030
0.753317 0.902091 0.882637
0.916764 0.924119 0.903730
0.987539 0.940903 0.920166
0.990229 0.951766 0.930941
0.993016 0.962631 0.941733
0.221421 0.972888 0.846185
0.345982 0.973676 0.858700
0.489475 0.976882 0.873442
0.640234 0.983371 0.890813
0.793021 0.993475 0.910850
0.946950 1.000000 0.932975
1.000000 1.000000 0.946555
1.000000 1.000000 0.954622
1.000000 1.000000 0.962711
0.228178 0.972891 0.855528
0.354251 0.973830 0.867924
0.498272 0.977257 0.882541
0.649128 0.984005 0.899808
0.801860 0.994360 0.919771
0.955850 1.000000 0.941858
1.000000 1.000000 0.954622
1.000000 1.000000 0.962711
1.000000 1.000000 0.970824
0.235071 0.972903 0.864864
0.362564 0.973999 0.877136
0.507079 0.977652 0.891629
0.658016 0.984660 0.908795
0.810692 0.995262 0.928693
0.964763 1.000000 0.950755
1.000000 1.000000 0.962711
1.000000 1.000000 0.970824
1.000000 1.000000 0.978959
0.039330 0.060042 0.980462
0.151796 0.066117 0.981198
0.295914 0.072732 0.981995
0.460484 0.079771 0.982745
0.640876 0.087178 0.983403
0.834413 0.094916 0.983948
0.966688 0.102220 0.984255
0.966977 0.108346 0.984292
0.967273 0.114615 0.984328
0.048684 0.174700 0.982396
0.163857 0.183304 0.982926
0.309624 0.192316 0.983465
0.475493 0.201637 0.983949
0.656981 0.211223 0.984352
0.851469 0.221044 0.984675
0.972849 0.230211 0.984847
0.973242 0.238219 0.984875
0.973639 0.246305 0.984902
0.060252 0.321750 0.983924
0.177965 0.331771 0.984226
0.325291 0.342165 0.984518
0.492366 0.352834 0.984774
0.674844 0.363731 0.984993
0.870155 0.374825 0.985194
0.980499 0.385103 0.985318
0.980953 0.394307 0.985346
0.981410 0.403567 0.985375
0.073600 0.489730 0.984819
0.193658 0.500792 0.984974
0.342406 0.512201 0.985138
0.510537 0.523858 0.985315
0.693388 0.536024 0.983785
0.883098 0.550667 0.976477
0.974010 0.564752 0.971089
0.973048 0.575438 0.969707
0.972090 0.586166 0.968334
0.088230 0.673820 0.985382
0.212626 0.685266 0.983323
0.367093 0.696754 0.977387
0.538012 0.709471 0.969085
0.715256 0.724911 0.960919
0.890944 0.744373 0.955644
0.964626 0.760364 0.954868
0.965015 0.771240 0.954941
0.965536 0.782100 0.955154
0.149956 0.859494 0.964677
0.284586 0.869459 0.959324
0.440562 0.881234 0.955527
0.604359 0.896061 0.955350
0.768534 0.914771 0.960323
0.930174 0.937416 0.971057
0.991689 0.953334 0.977942
0.994256 0.963931 0.980417
0.996887 0.974531 0.982973
0.236464 0.973005 0.954875
0.360980 0.974421 0.955573
0.503360 0.978324 0.958726
0.652694 0.985443 0.965171
0.804218 0.995982 0.975201
0.957469 1.000000 0.988354
1.000000 1.000000 0.992980
1.000000 1.000000 0.992980
1.000000 1.000000 0.992980
0.242564 0.973036 0.954869
0.368564 0.974564 0.955674
0.511538 0.978630 0.958992
0.661077 0.985940 0.965634
0.812671 0.996661 0.975858
0.966091 1.000000 0.989153
1.000000 1.000000 0.992980
1.000000 1.000000 0.992980
1.000000 1.000000 0.992980
0.248792 0.973071 0.954868
0.376197 0.974715 0.955783
0.519736 0.978947 0.959268
0.669466 0.986447 0.966109
0.821128 0.997349 0.976526
0.974731 1.000000 0.989956
1.000000 1.000000 0.992980
1.000000 1.000000 0.992980
1.000000 1.000000 0.992980
0.044433 0.065110 0.980591
0.159324 0.071430 0.981329
0.304784 0.078262 0.982114
0.470347 0.085500 0.982848
0.651546 0.093091 0.983488
0.845773 0.101001 0.984016
0.966977 0.108346 0.984292
0.967273 0.114615 0.984328
0.967576 0.121020 0.984364
0.054138 0.182234 0.982516
0.171611 0.190954 0.983037
0.318689 0.200071 0.983560
0.485533 0.209492 0.984026
0.667816 0.219173 0.984412
0.862980 0.229085 0.984722
0.973242 0.238219 0.984875
0.973639 0.246305 0.984902
0.974041 0.254467 0.984929
0.066008 0.330643 0.984001
0.185908 0.340750 0.984293
0.334515 0.351221 0.984573
0.502545 0.361962 0.984818
0.685801 0.372928 0.985030
0.881772 0.384087 0.985230
0.980953 0.394307 0.985346
0.981410 0.403567 0.985375
0.981816 0.412904 0.985351
0.079618 0.499621 0.984860
0.201760 0.510753 0.985012
0.351753 0.522224 0.985175
0.520816 0.533937 0.985355
0.704114 0.546359 0.982740
0.893172 0.561511 0.974699
0.973048 0.575438 0.969707
0.972090 0.586166 0.968334
0.971148 0.596933 0.966978
0.094707 0.684460 0.985208
0.222108 0.695759 0.982201
0.378196 0.707238 0.975651
0.549614 0.720133 0.967247
0.726434 0.735917 0.959525
0.901115 0.755810 0.955165
0.965015 0.771240 0.954941
0.965536 0.782100 0.955154
0.966191 0.792942 0.955511
0.161881 0.869377 0.963095
0.298188 0.879420 0.958135
0.454401 0.891438 0.955097
0.617582 0.906642 0.955962
0.780752 0.925779 0.962106
0.941582 0.948764 0.973910
0.994256 0.963931 0.980417
0.996887 0.974531 0.982973
0.999570 0.985139 0.985598
0.242564 0.973036 0.954869
0.368564 0.974564 0.955674
0.511538 0.978630 0.958992
0.661077 0.985940 0.965634
0.812671 0.996661 0.975858
0.966091 1.000000 0.989153
1.000000 1.000000 0.992980
1.000000 1.000000 0.992980
1.000000 1.000000 0.992980
0.248792 0.973071 0.954868
0.376197 0.974715 0.955783
0.519736 0.978947 0.959268
0.669466 0.986447 0.966109
0.821128 0.997349 0.976526
0.974731 1.000000 0.989956
1.000000 1.000000 0.992980
1.000000 1.000000 0.992980
1.000000 1.000000 0.992980
0.255140 0.973112 0.954870
0.383876 0.974874 0.955900
0.527951 0.979274 0.959555
0.677860 0.986966 0.966595
0.829590 0.998046 0.977202
0.983390 1.000000 0.990764
1.000000 1.000000 0.992980
1.000000 1.000000 0.992980
1.000000 1.000000 0.992980
0.049762 0.070400 0.980723
0.166952 0.076946 0.981460
0.313725 0.083979 0.982233
0.480267 0.091402 0.982950
0.662265 0.099166 0.983571
0.857175 0.107237 0.984082
0.967273 0.114615 0.984328
0.967576 0.121020 0.984364
0.967886 0.127554 0.984399
0.059796 0.189861 0.982634
0.179458 0.198694 0.983145
0.327821 0.207913 0.983652
0.495628 0.217431 0.984100
0.678697 0.227205 0.984470
0.874532 0.237207 0.984766
0.973639 0.246305 0.984902
0.974041 0.254467 0.984929
0.974446 0.262704 0.984956
0.071951 0.339600 0.984074
0.193941 0.349792 0.984357
0.343803 0.360338 0.984626
0.512776 0.371150 0.984861
0.696800 0.382183 0.985067
0.893425 0.393406 0.985267
0.981410 0.403567 0.985375
0.981816 0.412904 0.985351
0.982060 0.422362 0.985163
0.085808 0.509562 0.984900
0.209947 0.520764 0.985049
0.361161 0.532294 0.985211
0.531145 0.544065 0.985374
0.714799 0.556784 0.981491
0.903121 0.572453 0.972868
0.972090 0.586166 0.968334
0.971148 0.596933 0.966978
0.970229 0.607734 0.965649
0.101689 0.695067 0.984757
0.231940 0.706232 0.980894
0.389516 0.717721 0.973847
0.561319 0.730812 0.965460
0.737635 0.746949 0.958282
0.911290 0.767270 0.954909
0.965536 0.782100 0.955154
0.966191 0.792942 0.955511
0.966981 0.803766 0.956013
0.174184 0.879218 0.961602
0.311981 0.889364 0.957108
0.468300 0.901652 0.954887
0.630779 0.917251 0.956826
0.792919 0.936819 0.964131
0.952999 0.960131 0.976942
0.996887 0.974531 0.982973
0.999570 0.985139 0.985598
1.000000 0.995760 0.988280
0.248792 0.973071 0.954868
0.376197 0.974715 0.955783
0.519736 0.978947 0.959268
0.669466 0.986447 0.966109
0.821128 0.997349 0.976526
0.974731 1.000000 0.989956
1.000000 1.000000 0.992980
1.000000 1.000000 0.992980
1.000000 1.000000 0.992980
0.255140 0.973112 0.954870
0.383876 0.974874 0.955900
0.527951 0.979274 0.959555
0.677860 0.986966 0.966595
0.829590 0.998046 0.977202
0.983390 1.000000 0.990764
1.000000 1.000000 0.992980
1.000000 1.000000 0.992980
1.000000 1.000000 0.992980
0.261601 0.973157 0.954878
0.391600 0.975041 0.956025
0.536183 0.979611 0.959853
0.686259 0.987495 0.967093
0.838057 0.998752 0.977888
0.992068 1.000000 0.991576
1.000000 1.000000 0.992980
1.000000 1.000000 0.992980
1.000000 1.000000 0.992980
