apps/web/public/luts/fuji-3513-print.cube
TITLE "Fuji 3513 Print"
LUT_3D_SIZE 5
0.013300 0.034360 0.041380
0.240812 0.041784 0.048554
0.574025 0.052848 0.058435
0.960846 0.065907 0.069124
0.961341 0.076225 0.079187
0.026786 0.266686 0.051497
0.266980 0.285995 0.060264
0.605446 0.306633 0.070187
0.973164 0.327908 0.080721
0.974092 0.345700 0.091513
0.050230 0.607305 0.061794
0.300350 0.630707 0.071081
0.642810 0.654933 0.085276
0.971106 0.681692 0.132132
0.969143 0.703009 0.152683
0.142510 0.976834 0.136432
0.405878 0.972960 0.191506
0.722849 0.977810 0.269841
0.986192 0.993398 0.338976
0.986448 0.993650 0.348237
0.153802 0.976507 0.147572
0.423416 0.972903 0.204593
0.741014 0.978633 0.283517
0.986448 0.993650 0.348237
0.986717 0.993913 0.357888
0.019424 0.040463 0.267404
0.258496 0.050618 0.285747
0.595751 0.063131 0.304389
0.962467 0.077055 0.322717
0.963046 0.088207 0.339982
0.036313 0.284491 0.288423
0.285781 0.304225 0.306012
0.628102 0.325224 0.323691
0.975378 0.346585 0.341309
0.976357 0.364645 0.358756
0.061644 0.629077 0.307270
0.319863 0.652762 0.324474
0.665568 0.676885 0.350035
0.967118 0.706102 0.396254
0.965720 0.727742 0.419952
0.168764 0.974759 0.375981
0.436199 0.973122 0.426373
0.749394 0.982051 0.492366
0.992285 0.999395 0.546874
0.992699 0.999803 0.560221
0.181291 0.974470 0.393064
0.453982 0.973313 0.443948
0.767479 0.983252 0.509461
0.992699 0.999803 0.560221
0.993119 1.000000 0.573705
0.028548 0.049483 0.597773
0.276942 0.061117 0.619660
0.618155 0.074730 0.641637
0.964581 0.089320 0.663185
0.965224 0.101177 0.683869
0.047675 0.302925 0.621968
0.305358 0.323051 0.642997
0.651417 0.344384 0.664029
0.978044 0.365803 0.684990
0.979054 0.384112 0.705788
0.074522 0.651354 0.644014
0.341300 0.674955 0.664432
0.689787 0.700213 0.685965
0.964446 0.733087 0.715953
0.964203 0.755095 0.737443
0.202483 0.973148 0.682281
0.471044 0.975013 0.718316
0.778222 0.988988 0.765044
1.000000 1.000000 0.805232
1.000000 1.000000 0.820568
0.215830 0.973033 0.700850
0.488762 0.975571 0.736612
0.796052 0.990588 0.782753
1.000000 1.000000 0.820568
1.000000 1.000000 0.835997
0.039330 0.060042 0.980462
0.295914 0.072732 0.981995
0.640876 0.087178 0.983403
0.966688 0.102220 0.984255
0.967273 0.114615 0.984328
0.060252 0.321750 0.983924
0.325291 0.342165 0.984518
0.674844 0.363731 0.984993
0.980499 0.385103 0.985318
0.981410 0.403567 0.985375
0.088230 0.673820 0.985382
0.367093 0.696754 0.977387
0.715256 0.724911 0.960919
0.964626 0.760364 0.954868
0.965536 0.782100 0.955154
0.236464 0.973005 0.954875
0.503360 0.978324 0.958726
0.804218 0.995982 0.975201
1.000000 1.000000 0.992980
1.000000 1.000000 0.992980
0.248792 0.973071 0.954868
0.519736 0.978947 0.959268
0.821128 0.997349 0.976526
1.000000 1.000000 0.992980
1.000000 1.000000 0.992980
0.049762 0.070400 0.980723
0.313725 0.083979 0.982233
0.662265 0.099166 0.983571
0.967273 0.114615 0.984328
0.967886 0.127554 0.984399
0.071951 0.339600 0.984074
0.343803 0.360338 0.984626
0.696800 0.382183 0.985067
0.981410 0.403567 0.985375
0.982060 0.422362 0.985163
0.101689 0.695067 0.984757
0.389516 0.717721 0.973847
0.737635 0.746949 0.958282
0.965536 0.782100 0.955154
0.966981 0.803766 0.956013
0.248792 0.973071 0.954868
0.519736 0.978947 0.959268
0.821128 0.997349 0.976526
1.000000 1.000000 0.992980
1.000000 1.000000 0.992980
0.261601 0.973157 0.954878
0.536183 0.979611 0.959853
0.838057 0.998752 0.977888
1.000000 1.000000 0.992980
1.000000 1.000000 0.992980
