apps/web/public/luts/ilford-hp5-bw.cube
TITLE "Ilford HP5 Plus B&W"
LUT_3D_SIZE 5
0.041640 0.033880 0.024180
0.099287 0.091527 0.081827
0.187567 0.179807 0.170107
0.247862 0.240102 0.230402
0.247862 0.240102 0.230402
0.235568 0.227808 0.218108
0.293216 0.285456 0.275756
0.381495 0.373735 0.364035
0.441790 0.434030 0.424330
0.441790 0.434030 0.424330
0.532547 0.524787 0.515087
0.590194 0.582434 0.572734
0.678474 0.670714 0.661014
0.738769 0.731009 0.721309
0.738769 0.731009 0.721309
0.735384 0.727624 0.717924
0.793031 0.785271 0.775571
0.881311 0.873551 0.863851
0.941606 0.933846 0.924146
0.941606 0.933846 0.924146
0.735384 0.727624 0.717924
0.793031 0.785271 0.775571
0.881311 0.873551 0.863851
0.941606 0.933846 0.924146
0.941606 0.933846 0.924146
0.061217 0.053457 0.043757
0.118864 0.111104 0.101404
0.207144 0.199384 0.189684
0.267439 0.259679 0.249979
0.267439 0.259679 0.249979
0.255146 0.247386 0.237686
0.312793 0.305033 0.295333
0.401073 0.393313 0.383613
0.461368 0.453608 0.443908
0.461368 0.453608 0.443908
0.552124 0.544364 0.534664
0.609772 0.602012 0.592312
0.698051 0.690291 0.680591
0.758346 0.750586 0.740886
0.758346 0.750586 0.740886
0.754961 0.747201 0.737501
0.812608 0.804848 0.795148
0.900888 0.893128 0.883428
0.961183 0.953423 0.943723
0.961183 0.953423 0.943723
0.754961 0.747201 0.737501
0.812608 0.804848 0.795148
0.900888 0.893128 0.883428
0.961183 0.953423 0.943723
0.961183 0.953423 0.943723
0.091197 0.083437 0.073737
0.148845 0.141085 0.131385
0.237124 0.229364 0.219664
0.297419 0.289659 0.279959
0.297419 0.289659 0.279959
0.285126 0.277366 0.267666
0.342773 0.335013 0.325313
0.431053 0.423293 0.413593
0.491348 0.483588 0.473888
0.491348 0.483588 0.473888
0.582105 0.574345 0.564645
0.639752 0.631992 0.622292
0.728031 0.720271 0.710571
0.788327 0.780567 0.770867
0.788327 0.780567 0.770867
0.784941 0.777181 0.767481
0.842589 0.834829 0.825129
0.930868 0.923108 0.913408
0.991163 0.983403 0.973703
0.991163 0.983403 0.973703
0.784941 0.777181 0.767481
0.842589 0.834829 0.825129
0.930868 0.923108 0.913408
0.991163 0.983403 0.973703
0.991163 0.983403 0.973703
0.111674 0.103914 0.094214
0.169321 0.161561 0.151861
0.257601 0.249841 0.240141
0.317896 0.310136 0.300436
0.317896 0.310136 0.300436
0.305602 0.297842 0.288142
0.363250 0.355490 0.345790
0.451529 0.443769 0.434069
0.511824 0.504064 0.494364
0.511824 0.504064 0.494364
0.602581 0.594821 0.585121
0.660228 0.652468 0.642768
0.748508 0.740748 0.731048
0.808803 0.801043 0.791343
0.808803 0.801043 0.791343
0.805418 0.797658 0.787958
0.863065 0.855305 0.845605
0.951345 0.943585 0.933885
1.000000 1.000000 0.994180
1.000000 1.000000 0.994180
0.805418 0.797658 0.787958
0.863065 0.855305 0.845605
0.951345 0.943585 0.933885
1.000000 1.000000 0.994180
1.000000 1.000000 0.994180
0.111674 0.103914 0.094214
0.169321 0.161561 0.151861
0.257601 0.249841 0.240141
0.317896 0.310136 0.300436
0.317896 0.310136 0.300436
0.305602 0.297842 0.288142
0.363250 0.355490 0.345790
0.451529 0.443769 0.434069
0.511824 0.504064 0.494364
0.511824 0.504064 0.494364
0.602581 0.594821 0.585121
0.660228 0.652468 0.642768
0.748508 0.740748 0.731048
0.808803 0.801043 0.791343
0.808803 0.801043 0.791343
0.805418 0.797658 0.787958
0.863065 0.855305 0.845605
0.951345 0.943585 0.933885
1.000000 1.000000 0.994180
1.000000 1.000000 0.994180
0.805418 0.797658 0.787958
0.863065 0.855305 0.845605
0.951345 0.943585 0.933885
1.000000 1.000000 0.994180
1.000000 1.000000 0.994180
