apps/web/public/luts/ilford-hp5-bw.cube
TITLE "Ilford HP5 Plus B&W"
LUT_3D_SIZE 33
0.041640 0.033880 0.024180
0.045187 0.037427 0.027727
0.050632 0.042872 0.033172
0.057126 0.049366 0.039666
0.064412 0.056652 0.046952
0.072349 0.064589 0.054889
0.080847 0.073087 0.063387
0.089843 0.082083 0.072383
0.099287 0.091527 0.081827
0.109142 0.101382 0.091682
0.119377 0.111617 0.101917
0.129967 0.122207 0.112507
0.140889 0.133129 0.123429
0.152126 0.144366 0.134666
0.163660 0.155900 0.146200
0.175478 0.167718 0.158018
0.187567 0.179807 0.170107
0.199916 0.192156 0.182456
0.212514 0.204754 0.195054
0.225352 0.217592 0.207892
0.238423 0.230663 0.220963
0.247862 0.240102 0.230402
0.247862 0.240102 0.230402
0.247862 0.240102 0.230402
0.247862 0.240102 0.230402
0.247862 0.240102 0.230402
0.247862 0.240102 0.230402
0.247862 0.240102 0.230402
0.247862 0.240102 0.230402
0.247862 0.240102 0.230402
0.247862 0.240102 0.230402
0.247862 0.240102 0.230402
0.247862 0.240102 0.230402
0.053573 0.045813 0.036113
0.057121 0.049361 0.039661
0.062566 0.054806 0.045106
0.069060 0.061300 0.051600
0.076345 0.068585 0.058885
0.084282 0.076522 0.066822
0.092780 0.085020 0.075320
0.101776 0.094016 0.084316
0.111221 0.103461 0.093761
0.121076 0.113316 0.103616
0.131311 0.123551 0.113851
0.141900 0.134140 0.124440
0.152823 0.145063 0.135363
0.164059 0.156299 0.146599
0.175593 0.167833 0.158133
0.187411 0.179651 0.169951
0.199500 0.191740 0.182040
0.211849 0.204089 0.194389
0.224447 0.216687 0.206987
0.237286 0.229526 0.219826
0.250356 0.242596 0.232896
0.259795 0.252035 0.242335
0.259795 0.252035 0.242335
0.259795 0.252035 0.242335
0.259795 0.252035 0.242335
0.259795 0.252035 0.242335
0.259795 0.252035 0.242335
0.259795 0.252035 0.242335
0.259795 0.252035 0.242335
0.259795 0.252035 0.242335
0.259795 0.252035 0.242335
0.259795 0.252035 0.242335
0.259795 0.252035 0.242335
0.071891 0.064131 0.054431
0.075438 0.067678 0.057978
0.080883 0.073123 0.063423
0.087377 0.079617 0.069917
0.094662 0.086902 0.077202
0.102600 0.094840 0.085140
0.111098 0.103338 0.093638
0.120094 0.112334 0.102634
0.129538 0.121778 0.112078
0.139393 0.131633 0.121933
0.149628 0.141868 0.132168
0.160218 0.152458 0.142758
0.171140 0.163380 0.153680
0.182377 0.174617 0.164917
0.193911 0.186151 0.176451
0.205729 0.197969 0.188269
0.217818 0.210058 0.200358
0.230167 0.222407 0.212707
0.242765 0.235005 0.225305
0.255603 0.247843 0.238143
0.268674 0.260914 0.251214
0.278113 0.270353 0.260653
0.278113 0.270353 0.260653
0.278113 0.270353 0.260653
0.278113 0.270353 0.260653
0.278113 0.270353 0.260653
0.278113 0.270353 0.260653
0.278113 0.270353 0.260653
0.278113 0.270353 0.260653
0.278113 0.270353 0.260653
0.278113 0.270353 0.260653
0.278113 0.270353 0.260653
0.278113 0.270353 0.260653
0.093737 0.085977 0.076277
0.097284 0.089524 0.079824
0.102729 0.094969 0.085269
0.109223 0.101463 0.091763
0.116508 0.108748 0.099048
0.124445 0.116685 0.106985
0.132944 0.125184 0.115484
0.141939 0.134179 0.124479
0.151384 0.143624 0.133924
0.161239 0.153479 0.143779
0.171474 0.163714 0.154014
0.182063 0.174303 0.164603
0.192986 0.185226 0.175526
0.204222 0.196462 0.186762
0.215756 0.207996 0.198296
0.227574 0.219814 0.210114
0.239663 0.231903 0.222203
0.252012 0.244252 0.234552
0.264610 0.256850 0.247150
0.277449 0.269689 0.259989
0.290519 0.282759 0.273059
0.299959 0.292199 0.282499
0.299959 0.292199 0.282499
0.299959 0.292199 0.282499
0.299959 0.292199 0.282499
0.299959 0.292199 0.282499
0.299959 0.292199 0.282499
0.299959 0.292199 0.282499
0.299959 0.292199 0.282499
0.299959 0.292199 0.282499
0.299959 0.292199 0.282499
0.299959 0.292199 0.282499
0.299959 0.292199 0.282499
0.118245 0.110485 0.100785
0.121792 0.114032 0.104332
0.127237 0.119477 0.109777
0.133731 0.125971 0.116271
0.141016 0.133256 0.123556
0.148953 0.141193 0.131493
0.157452 0.149692 0.139992
0.166448 0.158688 0.148988
0.175892 0.168132 0.158432
0.185747 0.177987 0.168287
0.195982 0.188222 0.178522
0.206572 0.198812 0.189112
0.217494 0.209734 0.200034
0.228730 0.220970 0.211270
0.240265 0.232505 0.222805
0.252083 0.244323 0.234623
0.264172 0.256412 0.246712
0.276520 0.268760 0.259060
0.289119 0.281359 0.271659
0.301957 0.294197 0.284497
0.315028 0.307268 0.297568
0.324467 0.316707 0.307007
0.324467 0.316707 0.307007
0.324467 0.316707 0.307007
0.324467 0.316707 0.307007
0.324467 0.316707 0.307007
0.324467 0.316707 0.307007
0.324467 0.316707 0.307007
0.324467 0.316707 0.307007
0.324467 0.316707 0.307007
0.324467 0.316707 0.307007
0.324467 0.316707 0.307007
0.324467 0.316707 0.307007
0.144946 0.137186 0.127486
0.148493 0.140733 0.131033
0.153938 0.146178 0.136478
0.160432 0.152672 0.142972
0.167717 0.159957 0.150257
0.175654 0.167894 0.158194
0.184153 0.176393 0.166693
0.193148 0.185388 0.175688
0.202593 0.194833 0.185133
0.212448 0.204688 0.194988
0.222683 0.214923 0.205223
0.233273 0.225513 0.215813
0.244195 0.236435 0.226735
0.255431 0.247671 0.237971
0.266966 0.259206 0.249506
0.278784 0.271024 0.261324
0.290873 0.283113 0.273413
0.303221 0.295461 0.285761
0.315820 0.308060 0.298360
0.328658 0.320898 0.311198
0.341728 0.333968 0.324268
0.351168 0.343408 0.333708
0.351168 0.343408 0.333708
0.351168 0.343408 0.333708
0.351168 0.343408 0.333708
0.351168 0.343408 0.333708
0.351168 0.343408 0.333708
0.351168 0.343408 0.333708
0.351168 0.343408 0.333708
0.351168 0.343408 0.333708
0.351168 0.343408 0.333708
0.351168 0.343408 0.333708
0.351168 0.343408 0.333708
0.173535 0.165775 0.156075
0.177082 0.169322 0.159622
0.182527 0.174767 0.165067
0.189021 0.181261 0.171561
0.196306 0.188546 0.178846
0.204244 0.196484 0.186784
0.212742 0.204982 0.195282
0.221738 0.213978 0.204278
0.231182 0.223422 0.213722
0.241037 0.233277 0.223577
0.251272 0.243512 0.233812
0.261862 0.254102 0.244402
0.272784 0.265024 0.255324
0.284021 0.276261 0.266561
0.295555 0.287795 0.278095
0.307373 0.299613 0.289913
0.319462 0.311702 0.302002
0.331811 0.324051 0.314351
0.344409 0.336649 0.326949
0.357247 0.349487 0.339787
0.370318 0.362558 0.352858
0.379757 0.371997 0.362297
0.379757 0.371997 0.362297
0.379757 0.371997 0.362297
0.379757 0.371997 0.362297
0.379757 0.371997 0.362297
0.379757 0.371997 0.362297
0.379757 0.371997 0.362297
0.379757 0.371997 0.362297
0.379757 0.371997 0.362297
0.379757 0.371997 0.362297
0.379757 0.371997 0.362297
0.379757 0.371997 0.362297
0.203797 0.196037 0.186337
0.207344 0.199584 0.189884
0.212789 0.205029 0.195329
0.219283 0.211523 0.201823
0.226568 0.218808 0.209108
0.234505 0.226745 0.217045
0.243004 0.235244 0.225544
0.251999 0.244239 0.234539
0.261444 0.253684 0.243984
0.271299 0.263539 0.253839
0.281534 0.273774 0.264074
0.292124 0.284364 0.274664
0.303046 0.295286 0.285586
0.314282 0.306522 0.296822
0.325817 0.318057 0.308357
0.337635 0.329875 0.320175
0.349724 0.341964 0.332264
0.362072 0.354312 0.344612
0.374671 0.366911 0.357211
0.387509 0.379749 0.370049
0.400580 0.392820 0.383120
0.410019 0.402259 0.392559
0.410019 0.402259 0.392559
0.410019 0.402259 0.392559
0.410019 0.402259 0.392559
0.410019 0.402259 0.392559
0.410019 0.402259 0.392559
0.410019 0.402259 0.392559
0.410019 0.402259 0.392559
0.410019 0.402259 0.392559
0.410019 0.402259 0.392559
0.410019 0.402259 0.392559
0.410019 0.402259 0.392559
0.235568 0.227808 0.218108
0.239116 0.231356 0.221656
0.244561 0.236801 0.227101
0.251055 0.243295 0.233595
0.258340 0.250580 0.240880
0.266277 0.258517 0.248817
0.274776 0.267016 0.257316
0.283771 0.276011 0.266311
0.293216 0.285456 0.275756
0.303071 0.295311 0.285611
0.313306 0.305546 0.295846
0.323895 0.316135 0.306435
0.334818 0.327058 0.317358
0.346054 0.338294 0.328594
0.357588 0.349828 0.340128
0.369406 0.361646 0.351946
0.381495 0.373735 0.364035
0.393844 0.386084 0.376384
0.406442 0.398682 0.388982
0.419281 0.411521 0.401821
0.432351 0.424591 0.414891
0.441790 0.434030 0.424330
0.441790 0.434030 0.424330
0.441790 0.434030 0.424330
0.441790 0.434030 0.424330
0.441790 0.434030 0.424330
0.441790 0.434030 0.424330
0.441790 0.434030 0.424330
0.441790 0.434030 0.424330
0.441790 0.434030 0.424330
0.441790 0.434030 0.424330
0.441790 0.434030 0.424330
0.441790 0.434030 0.424330
0.268722 0.260962 0.251262
0.272269 0.264509 0.254809
0.277714 0.269954 0.260254
0.284208 0.276448 0.266748
0.291494 0.283734 0.274034
0.299431 0.291671 0.281971
0.307929 0.300169 0.290469
0.316925 0.309165 0.299465
0.326369 0.318609 0.308909
0.336224 0.328464 0.318764
0.346460 0.338700 0.329000
0.357049 0.349289 0.339589
0.367971 0.360211 0.350511
0.379208 0.371448 0.361748
0.390742 0.382982 0.373282
0.402560 0.394800 0.385100
0.414649 0.406889 0.397189
0.426998 0.419238 0.409538
0.439596 0.431836 0.422136
0.452434 0.444674 0.434974
0.465505 0.457745 0.448045
0.474944 0.467184 0.457484
0.474944 0.467184 0.457484
0.474944 0.467184 0.457484
0.474944 0.467184 0.457484
0.474944 0.467184 0.457484
0.474944 0.467184 0.457484
0.474944 0.467184 0.457484
0.474944 0.467184 0.457484
0.474944 0.467184 0.457484
0.474944 0.467184 0.457484
0.474944 0.467184 0.457484
0.474944 0.467184 0.457484
0.303154 0.295394 0.285694
0.306701 0.298941 0.289241
0.312146 0.304386 0.294686
0.318640 0.310880 0.301180
0.325925 0.318165 0.308465
0.333862 0.326102 0.316402
0.342361 0.334601 0.324901
0.351356 0.343596 0.333896
0.360801 0.353041 0.343341
0.370656 0.362896 0.353196
0.380891 0.373131 0.363431
0.391481 0.383721 0.374021
0.402403 0.394643 0.384943
0.413639 0.405879 0.396179
0.425174 0.417414 0.407714
0.436992 0.429232 0.419532
0.449081 0.441321 0.431621
0.461429 0.453669 0.443969
0.474028 0.466268 0.456568
0.486866 0.479106 0.469406
0.499937 0.492177 0.482477
0.509376 0.501616 0.491916
0.509376 0.501616 0.491916
0.509376 0.501616 0.491916
0.509376 0.501616 0.491916
0.509376 0.501616 0.491916
0.509376 0.501616 0.491916
0.509376 0.501616 0.491916
0.509376 0.501616 0.491916
0.509376 0.501616 0.491916
0.509376 0.501616 0.491916
0.509376 0.501616 0.491916
0.509376 0.501616 0.491916
0.338778 0.331018 0.321318
0.342325 0.334565 0.324865
0.347770 0.340010 0.330310
0.354264 0.346504 0.336804
0.361549 0.353789 0.344089
0.369486 0.361726 0.352026
0.377985 0.370225 0.360525
0.386980 0.379220 0.369520
0.396425 0.388665 0.378965
0.406280 0.398520 0.388820
0.416515 0.408755 0.399055
0.427105 0.419345 0.409645
0.438027 0.430267 0.420567
0.449263 0.441503 0.431803
0.460798 0.453038 0.443338
0.472615 0.464855 0.455155
0.484704 0.476944 0.467244
0.497053 0.489293 0.479593
0.509651 0.501891 0.492191
0.522490 0.514730 0.505030
0.535560 0.527800 0.518100
0.545000 0.537240 0.527540
0.545000 0.537240 0.527540
0.545000 0.537240 0.527540
0.545000 0.537240 0.527540
0.545000 0.537240 0.527540
0.545000 0.537240 0.527540
0.545000 0.537240 0.527540
0.545000 0.537240 0.527540
0.545000 0.537240 0.527540
0.545000 0.537240 0.527540
0.545000 0.537240 0.527540
0.545000 0.537240 0.527540
0.375521 0.367761 0.358061
0.379068 0.371308 0.361608
0.384513 0.376753 0.367053
0.391007 0.383247 0.373547
0.398292 0.390532 0.380832
0.406229 0.398469 0.388769
0.414728 0.406968 0.397268
0.423723 0.415963 0.406263
0.433168 0.425408 0.415708
0.443023 0.435263 0.425563
0.453258 0.445498 0.435798
0.463848 0.456088 0.446388
0.474770 0.467010 0.457310
0.486006 0.478246 0.468546
0.497541 0.489781 0.480081
0.509359 0.501599 0.491899
0.521448 0.513688 0.503988
0.533796 0.526036 0.516336
0.546395 0.538635 0.528935
0.559233 0.551473 0.541773
0.572304 0.564544 0.554844
0.581743 0.573983 0.564283
0.581743 0.573983 0.564283
0.581743 0.573983 0.564283
0.581743 0.573983 0.564283
0.581743 0.573983 0.564283
0.581743 0.573983 0.564283
0.581743 0.573983 0.564283
0.581743 0.573983 0.564283
0.581743 0.573983 0.564283
0.581743 0.573983 0.564283
0.581743 0.573983 0.564283
0.581743 0.573983 0.564283
0.413321 0.405561 0.395861
0.416868 0.409108 0.399408
0.422313 0.414553 0.404853
0.428807 0.421047 0.411347
0.436092 0.428332 0.418632
0.444029 0.436269 0.426569
0.452528 0.444768 0.435068
0.461523 0.453763 0.444063
0.470968 0.463208 0.453508
0.480823 0.473063 0.463363
0.491058 0.483298 0.473598
0.501648 0.493888 0.484188
0.512570 0.504810 0.495110
0.523806 0.516046 0.506346
0.535340 0.527580 0.517880
0.547158 0.539398 0.529698
0.559247 0.551487 0.541787
0.571596 0.563836 0.554136
0.584194 0.576434 0.566734
0.597033 0.589273 0.579573
0.610103 0.602343 0.592643
0.619543 0.611783 0.602083
0.619543 0.611783 0.602083
0.619543 0.611783 0.602083
0.619543 0.611783 0.602083
0.619543 0.611783 0.602083
0.619543 0.611783 0.602083
0.619543 0.611783 0.602083
0.619543 0.611783 0.602083
0.619543 0.611783 0.602083
0.619543 0.611783 0.602083
0.619543 0.611783 0.602083
0.619543 0.611783 0.602083
0.452123 0.444363 0.434663
0.455670 0.447910 0.438210
0.461115 0.453355 0.443655
0.467609 0.459849 0.450149
0.474894 0.467134 0.457434
0.482831 0.475071 0.465371
0.491330 0.483570 0.473870
0.500325 0.492565 0.482865
0.509770 0.502010 0.492310
0.519625 0.511865 0.502165
0.529860 0.522100 0.512400
0.540450 0.532690 0.522990
0.551372 0.543612 0.533912
0.562608 0.554848 0.545148
0.574142 0.566382 0.556682
0.585960 0.578200 0.568500
0.598049 0.590289 0.580589
0.610398 0.602638 0.592938
0.622996 0.615236 0.605536
0.635835 0.628075 0.618375
0.648905 0.641145 0.631445
0.658345 0.650585 0.640885
0.658345 0.650585 0.640885
0.658345 0.650585 0.640885
0.658345 0.650585 0.640885
0.658345 0.650585 0.640885
0.658345 0.650585 0.640885
0.658345 0.650585 0.640885
0.658345 0.650585 0.640885
0.658345 0.650585 0.640885
0.658345 0.650585 0.640885
0.658345 0.650585 0.640885
0.658345 0.650585 0.640885
0.491879 0.484119 0.474419
0.495426 0.487666 0.477966
0.500871 0.493111 0.483411
0.507365 0.499605 0.489905
0.514651 0.506891 0.497191
0.522588 0.514828 0.505128
0.531086 0.523326 0.513626
0.540082 0.532322 0.522622
0.549526 0.541766 0.532066
0.559381 0.551621 0.541921
0.569616 0.561856 0.552156
0.580206 0.572446 0.562746
0.591128 0.583368 0.573668
0.602365 0.594605 0.584905
0.613899 0.606139 0.596439
0.625717 0.617957 0.608257
0.637806 0.630046 0.620346
0.650155 0.642395 0.632695
0.662753 0.654993 0.645293
0.675591 0.667831 0.658131
0.688662 0.680902 0.671202
0.698101 0.690341 0.680641
0.698101 0.690341 0.680641
0.698101 0.690341 0.680641
0.698101 0.690341 0.680641
0.698101 0.690341 0.680641
0.698101 0.690341 0.680641
0.698101 0.690341 0.680641
0.698101 0.690341 0.680641
0.698101 0.690341 0.680641
0.698101 0.690341 0.680641
0.698101 0.690341 0.680641
0.698101 0.690341 0.680641
0.532547 0.524787 0.515087
0.536095 0.528335 0.518635
0.541540 0.533780 0.524080
0.548033 0.540273 0.530573
0.555319 0.547559 0.537859
0.563256 0.555496 0.545796
0.571754 0.563994 0.554294
0.580750 0.572990 0.563290
0.590194 0.582434 0.572734
0.600049 0.592289 0.582589
0.610285 0.602525 0.592825
0.620874 0.613114 0.603414
0.631796 0.624036 0.614336
0.643033 0.635273 0.625573
0.654567 0.646807 0.637107
0.666385 0.658625 0.648925
0.678474 0.670714 0.661014
0.690823 0.683063 0.673363
0.703421 0.695661 0.685961
0.716260 0.708500 0.698800
0.729330 0.721570 0.711870
0.738769 0.731009 0.721309
0.738769 0.731009 0.721309
0.738769 0.731009 0.721309
0.738769 0.731009 0.721309
0.738769 0.731009 0.721309
0.738769 0.731009 0.721309
0.738769 0.731009 0.721309
0.738769 0.731009 0.721309
0.738769 0.731009 0.721309
0.738769 0.731009 0.721309
0.738769 0.731009 0.721309
0.738769 0.731009 0.721309
0.574089 0.566329 0.556629
0.577636 0.569876 0.560176
0.583082 0.575322 0.565622
0.589575 0.581815 0.572115
0.596861 0.589101 0.579401
0.604798 0.597038 0.587338
0.613296 0.605536 0.595836
0.622292 0.614532 0.604832
0.631736 0.623976 0.614276
0.641591 0.633831 0.624131
0.651827 0.644067 0.634367
0.662416 0.654656 0.644956
0.673338 0.665578 0.655878
0.684575 0.676815 0.667115
0.696109 0.688349 0.678649
0.707927 0.700167 0.690467
0.720016 0.712256 0.702556
0.732365 0.724605 0.714905
0.744963 0.737203 0.727503
0.757802 0.750042 0.740342
0.770872 0.763112 0.753412
0.780311 0.772551 0.762851
0.780311 0.772551 0.762851
0.780311 0.772551 0.762851
0.780311 0.772551 0.762851
0.780311 0.772551 0.762851
0.780311 0.772551 0.762851
0.780311 0.772551 0.762851
0.780311 0.772551 0.762851
0.780311 0.772551 0.762851
0.780311 0.772551 0.762851
0.780311 0.772551 0.762851
0.780311 0.772551 0.762851
0.616470 0.608710 0.599010
0.620018 0.612258 0.602558
0.625463 0.617703 0.608003
0.631957 0.624197 0.614497
0.639242 0.631482 0.621782
0.647179 0.639419 0.629719
0.655678 0.647918 0.638218
0.664673 0.656913 0.647213
0.674118 0.666358 0.656658
0.683973 0.676213 0.666513
0.694208 0.686448 0.676748
0.704797 0.697037 0.687337
0.715720 0.707960 0.698260
0.726956 0.719196 0.709496
0.738490 0.730730 0.721030
0.750308 0.742548 0.732848
0.762397 0.754637 0.744937
0.774746 0.766986 0.757286
0.787344 0.779584 0.769884
0.800183 0.792423 0.782723
0.813253 0.805493 0.795793
0.822692 0.814932 0.805232
0.822692 0.814932 0.805232
0.822692 0.814932 0.805232
0.822692 0.814932 0.805232
0.822692 0.814932 0.805232
0.822692 0.814932 0.805232
0.822692 0.814932 0.805232
0.822692 0.814932 0.805232
0.822692 0.814932 0.805232
0.822692 0.814932 0.805232
0.822692 0.814932 0.805232
0.822692 0.814932 0.805232
0.659660 0.651900 0.642200
0.663208 0.655448 0.645748
0.668653 0.660893 0.651193
0.675146 0.667386 0.657686
0.682432 0.674672 0.664972
0.690369 0.682609 0.672909
0.698867 0.691107 0.681407
0.707863 0.700103 0.690403
0.717307 0.709547 0.699847
0.727163 0.719403 0.709703
0.737398 0.729638 0.719938
0.747987 0.740227 0.730527
0.758909 0.751149 0.741449
0.770146 0.762386 0.752686
0.781680 0.773920 0.764220
0.793498 0.785738 0.776038
0.805587 0.797827 0.788127
0.817936 0.810176 0.800476
0.830534 0.822774 0.813074
0.843373 0.835613 0.825913
0.856443 0.848683 0.838983
0.865882 0.858122 0.848422
0.865882 0.858122 0.848422
0.865882 0.858122 0.848422
0.865882 0.858122 0.848422
0.865882 0.858122 0.848422
0.865882 0.858122 0.848422
0.865882 0.858122 0.848422
0.865882 0.858122 0.848422
0.865882 0.858122 0.848422
0.865882 0.858122 0.848422
0.865882 0.858122 0.848422
0.865882 0.858122 0.848422
0.703630 0.695870 0.686170
0.707177 0.699417 0.689717
0.712622 0.704862 0.695162
0.719116 0.711356 0.701656
0.726401 0.718641 0.708941
0.734339 0.726579 0.716879
0.742837 0.735077 0.725377
0.751833 0.744073 0.734373
0.761277 0.753517 0.743817
0.771132 0.763372 0.753672
0.781367 0.773607 0.763907
0.791957 0.784197 0.774497
0.802879 0.795119 0.785419
0.814116 0.806356 0.796656
0.825650 0.817890 0.808190
0.837468 0.829708 0.820008
0.849557 0.841797 0.832097
0.861906 0.854146 0.844446
0.874504 0.866744 0.857044
0.887342 0.879582 0.869882
0.900413 0.892653 0.882953
0.909852 0.902092 0.892392
0.909852 0.902092 0.892392
0.909852 0.902092 0.892392
0.909852 0.902092 0.892392
0.909852 0.902092 0.892392
0.909852 0.902092 0.892392
0.909852 0.902092 0.892392
0.909852 0.902092 0.892392
0.909852 0.902092 0.892392
0.909852 0.902092 0.892392
0.909852 0.902092 0.892392
0.909852 0.902092 0.892392
0.735384 0.727624 0.717924
0.738931 0.731171 0.721471
0.744376 0.736616 0.726916
0.750870 0.743110 0.733410
0.758156 0.750396 0.740696
0.766093 0.758333 0.748633
0.774591 0.766831 0.757131
0.783587 0.775827 0.766127
0.793031 0.785271 0.775571
0.802886 0.795126 0.785426
0.813121 0.805361 0.795661
0.823711 0.815951 0.806251
0.834633 0.826873 0.817173
0.845870 0.838110 0.828410
0.857404 0.849644 0.839944
0.869222 0.861462 0.851762
0.881311 0.873551 0.863851
0.893660 0.885900 0.876200
0.906258 0.898498 0.888798
0.919096 0.911336 0.901636
0.932167 0.924407 0.914707
0.941606 0.933846 0.924146
0.941606 0.933846 0.924146
0.941606 0.933846 0.924146
0.941606 0.933846 0.924146
0.941606 0.933846 0.924146
0.941606 0.933846 0.924146
0.941606 0.933846 0.924146
0.941606 0.933846 0.924146
0.941606 0.933846 0.924146
0.941606 0.933846 0.924146
0.941606 0.933846 0.924146
0.941606 0.933846 0.924146
0.735384 0.727624 0.717924
0.738931 0.731171 0.721471
0.744376 0.736616 0.726916
0.750870 0.743110 0.733410
0.758156 0.750396 0.740696
0.766093 0.758333 0.748633
0.774591 0.766831 0.757131
0.783587 0.775827 0.766127
0.793031 0.785271 0.775571
0.802886 0.795126 0.785426
0.813121 0.805361 0.795661
0.823711 0.815951 0.806251
0.834633 0.826873 0.817173
0.845870 0.838110 0.828410
0.857404 0.849644 0.839944
0.869222 0.861462 0.851762
0.881311 0.873551 0.863851
0.893660 0.885900 0.876200
0.906258 0.898498 0.888798
0.919096 0.911336 0.901636
0.932167 0.924407 0.914707
0.941606 0.933846 0.924146
0.941606 0.933846 0.924146
0.941606 0.933846 0.924146
0.941606 0.933846 0.924146
0.941606 0.933846 0.924146
0.941606 0.933846 0.924146
0.941606 0.933846 0.924146
0.941606 0.933846 0.924146
0.941606 0.933846 0.924146
0.941606 0.933846 0.924146
0.941606 0.933846 0.924146
0.941606 0.933846 0.924146
0.735384 0.727624 0.717924
0.738931 0.731171 0.721471
0.744376 0.736616 0.726916
0.750870 0.743110 0.733410
0.758156 0.750396 0.740696
0.766093 0.758333 0.748633
0.774591 0.766831 0.757131
0.783587 0.775827 0.766127
0.793031 0.785271 0.775571
0.802886 0.795126 0.785426
0.813121 0.805361 0.795661
0.823711 0.815951 0.806251
0.834633 0.826873 0.817173
0.845870 0.838110 0.828410
0.857404 0.849644 0.839944
0.869222 0.861462 0.851762
0.881311 0.873551 0.863851
0.893660 0.885900 0.876200
0.906258 0.898498 0.888798
0.919096 0.911336 0.901636
0.932167 0.924407 0.914707
0.941606 0.933846 0.924146
0.941606 0.933846 0.924146
0.941606 0.933846 0.924146
0.941606 0.933846 0.924146
0.941606 0.933846 0.924146
0.941606 0.933846 0.924146
0.941606 0.933846 0.924146
0.941606 0.933846 0.924146
0.941606 0.933846 0.924146
0.941606 0.933846 0.924146
0.941606 0.933846 0.924146
0.941606 0.933846 0.924146
0.735384 0.727624 0.717924
0.738931 0.731171 0.721471
0.744376 0.736616 0.726916
0.750870 0.743110 0.733410
0.758156 0.750396 0.740696
0.766093 0.758333 0.748633
0.774591 0.766831 0.757131
0.783587 0.775827 0.766127
0.793031 0.785271 0.775571
0.802886 0.795126 0.785426
0.813121 0.805361 0.795661
0.823711 0.815951 0.806251
0.834633 0.826873 0.817173
0.845870 0.838110 0.828410
0.857404 0.849644 0.839944
0.869222 0.861462 0.851762
0.881311 0.873551 0.863851
0.893660 0.885900 0.876200
0.906258 0.898498 0.888798
0.919096 0.911336 0.901636
0.932167 0.924407 0.914707
0.941606 0.933846 0.924146
0.941606 0.933846 0.924146
0.941606 0.933846 0.924146
0.941606 0.933846 0.924146
0.941606 0.933846 0.924146
0.941606 0.933846 0.924146
0.941606 0.933846 0.924146
0.941606 0.933846 0.924146
0.941606 0.933846 0.924146
0.941606 0.933846 0.924146
0.941606 0.933846 0.924146
0.941606 0.933846 0.924146
0.735384 0.727624 0.717924
0.738931 0.731171 0.721471
0.744376 0.736616 0.726916
0.750870 0.743110 0.733410
0.758156 0.750396 0.740696
0.766093 0.758333 0.748633
0.774591 0.766831 0.757131
0.783587 0.775827 0.766127
0.793031 0.785271 0.775571
0.802886 0.795126 0.785426
0.813121 0.805361 0.795661
0.823711 0.815951 0.806251
0.834633 0.826873 0.817173
0.845870 0.838110 0.828410
0.857404 0.849644 0.839944
0.869222 0.861462 0.851762
0.881311 0.873551 0.863851
0.893660 0.885900 0.876200
0.906258 0.898498 0.888798
0.919096 0.911336 0.901636
0.932167 0.924407 0.914707
0.941606 0.933846 0.924146
0.941606 0.933846 0.924146
0.941606 0.933846 0.924146
0.941606 0.933846 0.924146
0.941606 0.933846 0.924146
0.941606 0.933846 0.924146
0.941606 0.933846 0.924146
0.941606 0.933846 0.924146
0.941606 0.933846 0.924146
0.941606 0.933846 0.924146
0.941606 0.933846 0.924146
0.941606 0.933846 0.924146
0.735384 0.727624 0.717924
0.738931 0.731171 0.721471
0.744376 0.736616 0.726916
0.750870 0.743110 0.733410
0.758156 0.750396 0.740696
0.766093 0.758333 0.748633
0.774591 0.766831 0.757131
0.783587 0.775827 0.766127
0.793031 0.785271 0.775571
0.802886 0.795126 0.785426
0.813121 0.805361 0.795661
0.823711 0.815951 0.806251
0.834633 0.826873 0.817173
0.845870 0.838110 0.828410
0.857404 0.849644 0.839944
0.869222 0.861462 0.851762
0.881311 0.873551 0.863851
0.893660 0.885900 0.876200
0.906258 0.898498 0.888798
0.919096 0.911336 0.901636
0.932167 0.924407 0.914707
0.941606 0.933846 0.924146
0.941606 0.933846 0.924146
0.941606 0.933846 0.924146
0.941606 0.933846 0.924146
0.941606 0.933846 0.924146
0.941606 0.933846 0.924146
0.941606 0.933846 0.924146
0.941606 0.933846 0.924146
