apps/web/public/luts/ilford-hp5-bw.cube
TITLE "Ilford HP5 Plus B&W"
LUT_3D_SIZE 9
0.041640 0.033880 0.024180
0.064412 0.056652 0.046952
0.099287 0.091527 0.081827
0.140889 0.133129 0.123429
0.187567 0.179807 0.170107
0.238423 0.230663 0.220963
0.247862 0.240102 0.230402
0.247862 0.240102 0.230402
0.247862 0.240102 0.230402
0.118245 0.110485 0.100785
0.141016 0.133256 0.123556
0.175892 0.168132 0.158432
0.217494 0.209734 0.200034
0.264172 0.256412 0.246712
0.315028 0.307268 0.297568
0.324467 0.316707 0.307007
0.324467 0.316707 0.307007
0.324467 0.316707 0.307007
0.235568 0.227808 0.218108
0.258340 0.250580 0.240880
0.293216 0.285456 0.275756
0.334818 0.327058 0.317358
0.381495 0.373735 0.364035
0.432351 0.424591 0.414891
0.441790 0.434030 0.424330
0.441790 0.434030 0.424330
0.441790 0.434030 0.424330
0.375521 0.367761 0.358061
0.398292 0.390532 0.380832
0.433168 0.425408 0.415708
0.474770 0.467010 0.457310
0.521448 0.513688 0.503988
0.572304 0.564544 0.554844
0.581743 0.573983 0.564283
0.581743 0.573983 0.564283
0.581743 0.573983 0.564283
0.532547 0.524787 0.515087
0.555319 0.547559 0.537859
0.590194 0.582434 0.572734
0.631796 0.624036 0.614336
0.678474 0.670714 0.661014
0.729330 0.721570 0.711870
0.738769 0.731009 0.721309
0.738769 0.731009 0.721309
0.738769 0.731009 0.721309
0.703630 0.695870 0.686170
0.726401 0.718641 0.708941
0.761277 0.753517 0.743817
0.802879 0.795119 0.785419
0.849557 0.841797 0.832097
0.900413 0.892653 0.882953
0.909852 0.902092 0.892392
0.909852 0.902092 0.892392
0.909852 0.902092 0.892392
0.735384 0.727624 0.717924
0.758156 0.750396 0.740696
0.793031 0.785271 0.775571
0.834633 0.826873 0.817173
0.881311 0.873551 0.863851
0.932167 0.924407 0.914707
0.941606 0.933846 0.924146
0.941606 0.933846 0.924146
0.941606 0.933846 0.924146
0.735384 0.727624 0.717924
0.758156 0.750396 0.740696
0.793031 0.785271 0.775571
0.834633 0.826873 0.817173
0.881311 0.873551 0.863851
0.932167 0.924407 0.914707
0.941606 0.933846 0.924146
0.941606 0.933846 0.924146
0.941606 0.933846 0.924146
0.735384 0.727624 0.717924
0.758156 0.750396 0.740696
0.793031 0.785271 0.775571
0.834633 0.826873 0.817173
0.881311 0.873551 0.863851
0.932167 0.924407 0.914707
0.941606 0.933846 0.924146
0.941606 0.933846 0.924146
0.941606 0.933846 0.924146
0.049373 0.041613 0.031913
0.072145 0.064385 0.054685
0.107020 0.099260 0.089560
0.148623 0.140863 0.131163
0.195300 0.187540 0.177840
0.246156 0.238396 0.228696
0.255595 0.247835 0.238135
0.255595 0.247835 0.238135
0.255595 0.247835 0.238135
0.125978 0.118218 0.108518
0.148750 0.140990 0.131290
0.183625 0.175865 0.166165
0.225227 0.217467 0.207767
0.271905 0.264145 0.254445
0.322761 0.315001 0.305301
0.332200 0.324440 0.314740
0.332200 0.324440 0.314740
0.332200 0.324440 0.314740
0.243302 0.235542 0.225842
0.266073 0.258313 0.248613
0.300949 0.293189 0.283489
0.342551 0.334791 0.325091
0.389229 0.381469 0.371769
0.440085 0.432325 0.422625
0.449524 0.441764 0.432064
0.449524 0.441764 0.432064
0.449524 0.441764 0.432064
0.383254 0.375494 0.365794
0.406026 0.398266 0.388566
0.440901 0.433141 0.423441
0.482503 0.474743 0.465043
0.529181 0.521421 0.511721
0.580037 0.572277 0.562577
0.589476 0.581716 0.572016
0.589476 0.581716 0.572016
0.589476 0.581716 0.572016
0.540281 0.532521 0.522821
0.563052 0.555292 0.545592
0.597928 0.590168 0.580468
0.639530 0.631770 0.622070
0.686207 0.678447 0.668747
0.737063 0.729303 0.719603
0.746503 0.738743 0.729043
0.746503 0.738743 0.729043
0.746503 0.738743 0.729043
0.711363 0.703603 0.693903
0.734135 0.726375 0.716675
0.769010 0.761250 0.751550
0.810613 0.802853 0.793153
0.857290 0.849530 0.839830
0.908146 0.900386 0.890686
0.917585 0.909825 0.900125
0.917585 0.909825 0.900125
0.917585 0.909825 0.900125
0.743117 0.735357 0.725657
0.765889 0.758129 0.748429
0.800764 0.793004 0.783304
0.842367 0.834607 0.824907
0.889044 0.881284 0.871584
0.939900 0.932140 0.922440
0.949339 0.941579 0.931879
0.949339 0.941579 0.931879
0.949339 0.941579 0.931879
0.743117 0.735357 0.725657
0.765889 0.758129 0.748429
0.800764 0.793004 0.783304
0.842367 0.834607 0.824907
0.889044 0.881284 0.871584
0.939900 0.932140 0.922440
0.949339 0.941579 0.931879
0.949339 0.941579 0.931879
0.949339 0.941579 0.931879
0.743117 0.735357 0.725657
0.765889 0.758129 0.748429
0.800764 0.793004 0.783304
0.842367 0.834607 0.824907
0.889044 0.881284 0.871584
0.939900 0.932140 0.922440
0.949339 0.941579 0.931879
0.949339 0.941579 0.931879
0.949339 0.941579 0.931879
0.061217 0.053457 0.043757
0.083989 0.076229 0.066529
0.118864 0.111104 0.101404
0.160466 0.152706 0.143006
0.207144 0.199384 0.189684
0.258000 0.250240 0.240540
0.267439 0.259679 0.249979
0.267439 0.259679 0.249979
0.267439 0.259679 0.249979
0.137822 0.130062 0.120362
0.160594 0.152834 0.143134
0.195469 0.187709 0.178009
0.237071 0.229311 0.219611
0.283749 0.275989 0.266289
0.334605 0.326845 0.317145
0.344044 0.336284 0.326584
0.344044 0.336284 0.326584
0.344044 0.336284 0.326584
0.255146 0.247386 0.237686
0.277917 0.270157 0.260457
0.312793 0.305033 0.295333
0.354395 0.346635 0.336935
0.401073 0.393313 0.383613
0.451929 0.444169 0.434469
0.461368 0.453608 0.443908
0.461368 0.453608 0.443908
0.461368 0.453608 0.443908
0.395098 0.387338 0.377638
0.417870 0.410110 0.400410
0.452745 0.444985 0.435285
0.494347 0.486587 0.476887
0.541025 0.533265 0.523565
0.591881 0.584121 0.574421
0.601320 0.593560 0.583860
0.601320 0.593560 0.583860
0.601320 0.593560 0.583860
0.552124 0.544364 0.534664
0.574896 0.567136 0.557436
0.609772 0.602012 0.592312
0.651374 0.643614 0.633914
0.698051 0.690291 0.680591
0.748907 0.741147 0.731447
0.758346 0.750586 0.740886
0.758346 0.750586 0.740886
0.758346 0.750586 0.740886
0.723207 0.715447 0.705747
0.745979 0.738219 0.728519
0.780854 0.773094 0.763394
0.822456 0.814696 0.804996
0.869134 0.861374 0.851674
0.919990 0.912230 0.902530
0.929429 0.921669 0.911969
0.929429 0.921669 0.911969
0.929429 0.921669 0.911969
0.754961 0.747201 0.737501
0.777733 0.769973 0.760273
0.812608 0.804848 0.795148
0.854210 0.846450 0.836750
0.900888 0.893128 0.883428
0.951744 0.943984 0.934284
0.961183 0.953423 0.943723
0.961183 0.953423 0.943723
0.961183 0.953423 0.943723
0.754961 0.747201 0.737501
0.777733 0.769973 0.760273
0.812608 0.804848 0.795148
0.854210 0.846450 0.836750
0.900888 0.893128 0.883428
0.951744 0.943984 0.934284
0.961183 0.953423 0.943723
0.961183 0.953423 0.943723
0.961183 0.953423 0.943723
0.754961 0.747201 0.737501
0.777733 0.769973 0.760273
0.812608 0.804848 0.795148
0.854210 0.846450 0.836750
0.900888 0.893128 0.883428
0.951744 0.943984 0.934284
0.961183 0.953423 0.943723
0.961183 0.953423 0.943723
0.961183 0.953423 0.943723
0.075346 0.067586 0.057886
0.098117 0.090357 0.080657
0.132993 0.125233 0.115533
0.174595 0.166835 0.157135
0.221272 0.213512 0.203812
0.272128 0.264368 0.254668
0.281568 0.273808 0.264108
0.281568 0.273808 0.264108
0.281568 0.273808 0.264108
0.151950 0.144190 0.134490
0.174722 0.166962 0.157262
0.209597 0.201837 0.192137
0.251200 0.243440 0.233740
0.297877 0.290117 0.280417
0.348733 0.340973 0.331273
0.358172 0.350412 0.340712
0.358172 0.350412 0.340712
0.358172 0.350412 0.340712
0.269274 0.261514 0.251814
0.292046 0.284286 0.274586
0.326921 0.319161 0.309461
0.368523 0.360763 0.351063
0.415201 0.407441 0.397741
0.466057 0.458297 0.448597
0.475496 0.467736 0.458036
0.475496 0.467736 0.458036
0.475496 0.467736 0.458036
0.409226 0.401466 0.391766
0.431998 0.424238 0.414538
0.466873 0.459113 0.449413
0.508476 0.500716 0.491016
0.555153 0.547393 0.537693
0.606009 0.598249 0.588549
0.615448 0.607688 0.597988
0.615448 0.607688 0.597988
0.615448 0.607688 0.597988
0.566253 0.558493 0.548793
0.589024 0.581264 0.571564
0.623900 0.616140 0.606440
0.665502 0.657742 0.648042
0.712180 0.704420 0.694720
0.763036 0.755276 0.745576
0.772475 0.764715 0.755015
0.772475 0.764715 0.755015
0.772475 0.764715 0.755015
0.737335 0.729575 0.719875
0.760107 0.752347 0.742647
0.794983 0.787223 0.777523
0.836585 0.828825 0.819125
0.883262 0.875502 0.865802
0.934118 0.926358 0.916658
0.943557 0.935797 0.926097
0.943557 0.935797 0.926097
0.943557 0.935797 0.926097
0.769090 0.761330 0.751630
0.791861 0.784101 0.774401
0.826737 0.818977 0.809277
0.868339 0.860579 0.850879
0.915016 0.907256 0.897556
0.965872 0.958112 0.948412
0.975312 0.967552 0.957852
0.975312 0.967552 0.957852
0.975312 0.967552 0.957852
0.769090 0.761330 0.751630
0.791861 0.784101 0.774401
0.826737 0.818977 0.809277
0.868339 0.860579 0.850879
0.915016 0.907256 0.897556
0.965872 0.958112 0.948412
0.975312 0.967552 0.957852
0.975312 0.967552 0.957852
0.975312 0.967552 0.957852
0.769090 0.761330 0.751630
0.791861 0.784101 0.774401
0.826737 0.818977 0.809277
0.868339 0.860579 0.850879
0.915016 0.907256 0.897556
0.965872 0.958112 0.948412
0.975312 0.967552 0.957852
0.975312 0.967552 0.957852
0.975312 0.967552 0.957852
0.091197 0.083437 0.073737
0.113969 0.106209 0.096509
0.148845 0.141085 0.131385
0.190447 0.182687 0.172987
0.237124 0.229364 0.219664
0.287980 0.280220 0.270520
0.297419 0.289659 0.279959
0.297419 0.289659 0.279959
0.297419 0.289659 0.279959
0.167802 0.160042 0.150342
0.190574 0.182814 0.173114
0.225449 0.217689 0.207989
0.267052 0.259292 0.249592
0.313729 0.305969 0.296269
0.364585 0.356825 0.347125
0.374024 0.366264 0.356564
0.374024 0.366264 0.356564
0.374024 0.366264 0.356564
0.285126 0.277366 0.267666
0.307897 0.300137 0.290437
0.342773 0.335013 0.325313
0.384375 0.376615 0.366915
0.431053 0.423293 0.413593
0.481909 0.474149 0.464449
0.491348 0.483588 0.473888
0.491348 0.483588 0.473888
0.491348 0.483588 0.473888
0.425078 0.417318 0.407618
0.447850 0.440090 0.430390
0.482725 0.474965 0.465265
0.524327 0.516567 0.506867
0.571005 0.563245 0.553545
0.621861 0.614101 0.604401
0.631300 0.623540 0.613840
0.631300 0.623540 0.613840
0.631300 0.623540 0.613840
0.582105 0.574345 0.564645
0.604876 0.597116 0.587416
0.639752 0.631992 0.622292
0.681354 0.673594 0.663894
0.728031 0.720271 0.710571
0.778887 0.771127 0.761427
0.788327 0.780567 0.770867
0.788327 0.780567 0.770867
0.788327 0.780567 0.770867
0.753187 0.745427 0.735727
0.775959 0.768199 0.758499
0.810834 0.803074 0.793374
0.852437 0.844677 0.834977
0.899114 0.891354 0.881654
0.949970 0.942210 0.932510
0.959409 0.951649 0.941949
0.959409 0.951649 0.941949
0.959409 0.951649 0.941949
0.784941 0.777181 0.767481
0.807713 0.799953 0.790253
0.842589 0.834829 0.825129
0.884191 0.876431 0.866731
0.930868 0.923108 0.913408
0.981724 0.973964 0.964264
0.991163 0.983403 0.973703
0.991163 0.983403 0.973703
0.991163 0.983403 0.973703
0.784941 0.777181 0.767481
0.807713 0.799953 0.790253
0.842589 0.834829 0.825129
0.884191 0.876431 0.866731
0.930868 0.923108 0.913408
0.981724 0.973964 0.964264
0.991163 0.983403 0.973703
0.991163 0.983403 0.973703
0.991163 0.983403 0.973703
0.784941 0.777181 0.767481
0.807713 0.799953 0.790253
0.842589 0.834829 0.825129
0.884191 0.876431 0.866731
0.930868 0.923108 0.913408
0.981724 0.973964 0.964264
0.991163 0.983403 0.973703
0.991163 0.983403 0.973703
0.991163 0.983403 0.973703
0.108468 0.100708 0.091008
0.131240 0.123480 0.113780
0.166115 0.158355 0.148655
0.207718 0.199958 0.190258
0.254395 0.246635 0.236935
0.305251 0.297491 0.287791
0.314690 0.306930 0.297230
0.314690 0.306930 0.297230
0.314690 0.306930 0.297230
0.185073 0.177313 0.167613
0.207845 0.200085 0.190385
0.242720 0.234960 0.225260
0.284322 0.276562 0.266862
0.331000 0.323240 0.313540
0.381856 0.374096 0.364396
0.391295 0.383535 0.373835
0.391295 0.383535 0.373835
0.391295 0.383535 0.373835
0.302397 0.294637 0.284937
0.325168 0.317408 0.307708
0.360044 0.352284 0.342584
0.401646 0.393886 0.384186
0.448324 0.440564 0.430864
0.499180 0.491420 0.481720
0.508619 0.500859 0.491159
0.508619 0.500859 0.491159
0.508619 0.500859 0.491159
0.442349 0.434589 0.424889
0.465121 0.457361 0.447661
0.499996 0.492236 0.482536
0.541598 0.533838 0.524138
0.588276 0.580516 0.570816
0.639132 0.631372 0.621672
0.648571 0.640811 0.631111
0.648571 0.640811 0.631111
0.648571 0.640811 0.631111
0.599376 0.591616 0.581916
0.622147 0.614387 0.604687
0.657023 0.649263 0.639563
0.698625 0.690865 0.681165
0.745302 0.737542 0.727842
0.796158 0.788398 0.778698
0.805598 0.797838 0.788138
0.805598 0.797838 0.788138
0.805598 0.797838 0.788138
0.770458 0.762698 0.752998
0.793230 0.785470 0.775770
0.828105 0.820345 0.810645
0.869708 0.861948 0.852248
0.916385 0.908625 0.898925
0.967241 0.959481 0.949781
0.976680 0.968920 0.959220
0.976680 0.968920 0.959220
0.976680 0.968920 0.959220
0.802212 0.794452 0.784752
0.824984 0.817224 0.807524
0.859859 0.852099 0.842399
0.901462 0.893702 0.884002
0.948139 0.940379 0.930679
0.998995 0.991235 0.981535
1.000000 1.000000 0.990974
1.000000 1.000000 0.990974
1.000000 1.000000 0.990974
0.802212 0.794452 0.784752
0.824984 0.817224 0.807524
0.859859 0.852099 0.842399
0.901462 0.893702 0.884002
0.948139 0.940379 0.930679
0.998995 0.991235 0.981535
1.000000 1.000000 0.990974
1.000000 1.000000 0.990974
1.000000 1.000000 0.990974
0.802212 0.794452 0.784752
0.824984 0.817224 0.807524
0.859859 0.852099 0.842399
0.901462 0.893702 0.884002
0.948139 0.940379 0.930679
0.998995 0.991235 0.981535
1.000000 1.000000 0.990974
1.000000 1.000000 0.990974
1.000000 1.000000 0.990974
0.111674 0.103914 0.094214
0.134446 0.126686 0.116986
0.169321 0.161561 0.151861
0.210923 0.203163 0.193463
0.257601 0.249841 0.240141
0.308457 0.300697 0.290997
0.317896 0.310136 0.300436
0.317896 0.310136 0.300436
0.317896 0.310136 0.300436
0.188279 0.180519 0.170819
0.211050 0.203290 0.193590
0.245926 0.238166 0.228466
0.287528 0.279768 0.270068
0.334206 0.326446 0.316746
0.385062 0.377302 0.367602
0.394501 0.386741 0.377041
0.394501 0.386741 0.377041
0.394501 0.386741 0.377041
0.305602 0.297842 0.288142
0.328374 0.320614 0.310914
0.363250 0.355490 0.345790
0.404852 0.397092 0.387392
0.451529 0.443769 0.434069
0.502385 0.494625 0.484925
0.511824 0.504064 0.494364
0.511824 0.504064 0.494364
0.511824 0.504064 0.494364
0.445555 0.437795 0.428095
0.468326 0.460566 0.450866
0.503202 0.495442 0.485742
0.544804 0.537044 0.527344
0.591482 0.583722 0.574022
0.642338 0.634578 0.624878
0.651777 0.644017 0.634317
0.651777 0.644017 0.634317
0.651777 0.644017 0.634317
0.602581 0.594821 0.585121
0.625353 0.617593 0.607893
0.660228 0.652468 0.642768
0.701830 0.694070 0.684370
0.748508 0.740748 0.731048
0.799364 0.791604 0.781904
0.808803 0.801043 0.791343
0.808803 0.801043 0.791343
0.808803 0.801043 0.791343
0.773664 0.765904 0.756204
0.796435 0.788675 0.778975
0.831311 0.823551 0.813851
0.872913 0.865153 0.855453
0.919591 0.911831 0.902131
0.970447 0.962687 0.952987
0.979886 0.972126 0.962426
0.979886 0.972126 0.962426
0.979886 0.972126 0.962426
0.805418 0.797658 0.787958
0.828190 0.820430 0.810730
0.863065 0.855305 0.845605
0.904667 0.896907 0.887207
0.951345 0.943585 0.933885
1.000000 0.994441 0.984741
1.000000 1.000000 0.994180
1.000000 1.000000 0.994180
1.000000 1.000000 0.994180
0.805418 0.797658 0.787958
0.828190 0.820430 0.810730
0.863065 0.855305 0.845605
0.904667 0.896907 0.887207
0.951345 0.943585 0.933885
1.000000 0.994441 0.984741
1.000000 1.000000 0.994180
1.000000 1.000000 0.994180
1.000000 1.000000 0.994180
0.805418 0.797658 0.787958
0.828190 0.820430 0.810730
0.863065 0.855305 0.845605
0.904667 0.896907 0.887207
0.951345 0.943585 0.933885
1.000000 0.994441 0.984741
1.000000 1.000000 0.994180
1.000000 1.000000 0.994180
1.000000 1.000000 0.994180
0.111674 0.103914 0.094214
0.134446 0.126686 0.116986
0.169321 0.161561 0.151861
0.210923 0.203163 0.193463
0.257601 0.249841 0.240141
0.308457 0.300697 0.290997
0.317896 0.310136 0.300436
0.317896 0.310136 0.300436
0.317896 0.310136 0.300436
0.188279 0.180519 0.170819
0.211050 0.203290 0.193590
0.245926 0.238166 0.228466
0.287528 0.279768 0.270068
0.334206 0.326446 0.316746
0.385062 0.377302 0.367602
0.394501 0.386741 0.377041
0.394501 0.386741 0.377041
0.394501 0.386741 0.377041
0.305602 0.297842 0.288142
0.328374 0.320614 0.310914
0.363250 0.355490 0.345790
0.404852 0.397092 0.387392
0.451529 0.443769 0.434069
0.502385 0.494625 0.484925
0.511824 0.504064 0.494364
0.511824 0.504064 0.494364
0.511824 0.504064 0.494364
0.445555 0.437795 0.428095
0.468326 0.460566 0.450866
0.503202 0.495442 0.485742
0.544804 0.537044 0.527344
0.591482 0.583722 0.574022
0.642338 0.634578 0.624878
0.651777 0.644017 0.634317
0.651777 0.644017 0.634317
0.651777 0.644017 0.634317
0.602581 0.594821 0.585121
0.625353 0.617593 0.607893
0.660228 0.652468 0.642768
0.701830 0.694070 0.684370
0.748508 0.740748 0.731048
0.799364 0.791604 0.781904
0.808803 0.801043 0.791343
0.808803 0.801043 0.791343
0.808803 0.801043 0.791343
0.773664 0.765904 0.756204
0.796435 0.788675 0.778975
0.831311 0.823551 0.813851
0.872913 0.865153 0.855453
0.919591 0.911831 0.902131
0.970447 0.962687 0.952987
0.979886 0.972126 0.962426
0.979886 0.972126 0.962426
0.979886 0.972126 0.962426
0.805418 0.797658 0.787958
0.828190 0.820430 0.810730
0.863065 0.855305 0.845605
0.904667 0.896907 0.887207
0.951345 0.943585 0.933885
1.000000 0.994441 0.984741
1.000000 1.000000 0.994180
1.000000 1.000000 0.994180
1.000000 1.000000 0.994180
0.805418 0.797658 0.787958
0.828190 0.820430 0.810730
0.863065 0.855305 0.845605
0.904667 0.896907 0.887207
0.951345 0.943585 0.933885
1.000000 0.994441 0.984741
1.000000 1.000000 0.994180
1.000000 1.000000 0.994180
1.000000 1.000000 0.994180
0.805418 0.797658 0.787958
0.828190 0.820430 0.810730
0.863065 0.855305 0.845605
0.904667 0.896907 0.887207
0.951345 0.943585 0.933885
1.000000 0.994441 0.984741
1.000000 1.000000 0.994180
1.000000 1.000000 0.994180
1.000000 1.000000 0.994180
0.111674 0.103914 0.094214
0.134446 0.126686 0.116986
0.169321 0.161561 0.151861
0.210923 0.203163 0.193463
0.257601 0.249841 0.240141
0.308457 0.300697 0.290997
0.317896 0.310136 0.300436
0.317896 0.310136 0.300436
0.317896 0.310136 0.300436
0.188279 0.180519 0.170819
0.211050 0.203290 0.193590
0.245926 0.238166 0.228466
0.287528 0.279768 0.270068
0.334206 0.326446 0.316746
0.385062 0.377302 0.367602
0.394501 0.386741 0.377041
0.394501 0.386741 0.377041
0.394501 0.386741 0.377041
0.305602 0.297842 0.288142
0.328374 0.320614 0.310914
0.363250 0.355490 0.345790
0.404852 0.397092 0.387392
0.451529 0.443769 0.434069
0.502385 0.494625 0.484925
0.511824 0.504064 0.494364
0.511824 0.504064 0.494364
0.511824 0.504064 0.494364
0.445555 0.437795 0.428095
0.468326 0.460566 0.450866
0.503202 0.495442 0.485742
0.544804 0.537044 0.527344
0.591482 0.583722 0.574022
0.642338 0.634578 0.624878
0.651777 0.644017 0.634317
0.651777 0.644017 0.634317
0.651777 0.644017 0.634317
0.602581 0.594821 0.585121
0.625353 0.617593 0.607893
0.660228 0.652468 0.642768
0.701830 0.694070 0.684370
0.748508 0.740748 0.731048
0.799364 0.791604 0.781904
0.808803 0.801043 0.791343
0.808803 0.801043 0.791343
0.808803 0.801043 0.791343
0.773664 0.765904 0.756204
0.796435 0.788675 0.778975
0.831311 0.823551 0.813851
0.872913 0.865153 0.855453
0.919591 0.911831 0.902131
0.970447 0.962687 0.952987
0.979886 0.972126 0.962426
0.979886 0.972126 0.962426
0.979886 0.972126 0.962426
0.805418 0.797658 0.787958
0.828190 0.820430 0.810730
0.863065 0.855305 0.845605
0.904667 0.896907 0.887207
0.951345 0.943585 0.933885
1.000000 0.994441 0.984741
1.000000 1.000000 0.994180
1.000000 1.000000 0.994180
1.000000 1.000000 0.994180
0.805418 0.797658 0.787958
0.828190 0.820430 0.810730
0.863065 0.855305 0.845605
0.904667 0.896907 0.887207
0.951345 0.943585 0.933885
1.000000 0.994441 0.984741
1.000000 1.000000 0.994180
1.000000 1.000000 0.994180
1.000000 1.000000 0.994180
0.805418 0.797658 0.787958
0.828190 0.820430 0.810730
0.863065 0.855305 0.845605
0.904667 0.896907 0.887207
0.951345 0.943585 0.933885
1.000000 0.994441 0.984741
1.000000 1.000000 0.994180
1.000000 1.000000 0.994180
1.000000 1.000000 0.994180
