apps/web/public/luts/kodak-vision3-250d.cube
TITLE "Kodak Vision3 250D"
LUT_3D_SIZE 5
0.021176 0.020000 0.022352
0.259138 0.025175 0.027421
0.575692 0.032170 0.033978
0.930876 0.040077 0.041055
1.000000 0.048470 0.049176
0.026998 0.258079 0.026741
0.272920 0.270902 0.033067
0.592000 0.283920 0.039917
0.948956 0.297110 0.047123
1.000000 0.310203 0.055633
0.036229 0.574990 0.030994
0.288328 0.589950 0.037821
0.609628 0.605031 0.045062
0.959311 0.621106 0.069249
0.994118 0.636675 0.085648
0.074546 0.919559 0.062602
0.346002 0.927817 0.107653
0.660224 0.940834 0.174355
0.971667 0.964746 0.248470
0.992676 0.980651 0.267042
0.112332 0.979483 0.099171
0.379403 0.974178 0.145517
0.683623 0.975115 0.206667
0.988306 0.986380 0.269084
0.993795 0.986815 0.277911
0.026342 0.025157 0.260226
0.271897 0.032106 0.272740
0.590589 0.039959 0.285087
0.947216 0.048486 0.297238
1.000000 0.057351 0.310050
0.034125 0.270819 0.271903
0.286000 0.283779 0.284039
0.607146 0.296926 0.295987
0.965487 0.310238 0.307823
1.000000 0.323428 0.320682
0.044343 0.589828 0.281867
0.301637 0.604865 0.293828
0.624789 0.619905 0.307150
0.970221 0.637722 0.335351
0.989375 0.653468 0.352863
0.099196 0.931042 0.318299
0.374219 0.940463 0.360111
0.684405 0.956752 0.416396
0.991365 0.984360 0.474913
0.997974 0.990957 0.488198
0.134129 0.976993 0.347688
0.402844 0.973499 0.388163
0.703909 0.977378 0.438785
0.997974 0.990957 0.488198
0.998196 0.991178 0.498790
0.033302 0.032080 0.576413
0.284830 0.039887 0.590882
0.605622 0.048364 0.605127
0.963677 0.057391 0.619141
1.000000 0.066649 0.633890
0.042159 0.283698 0.589869
0.299269 0.296789 0.603932
0.622432 0.310063 0.617776
0.982133 0.323491 0.631491
1.000000 0.336774 0.646270
0.053125 0.604755 0.601666
0.315115 0.619864 0.615568
0.640284 0.635081 0.629377
0.980275 0.656012 0.648909
0.984686 0.671741 0.664446
0.130328 0.942295 0.625008
0.406309 0.954136 0.654871
0.710493 0.974631 0.694592
1.000000 0.996328 0.733856
1.000000 0.996594 0.745562
0.160366 0.974773 0.644824
0.428977 0.973862 0.673553
0.725596 0.981234 0.709605
1.000000 0.996594 0.745562
1.000000 0.996863 0.757309
0.041150 0.039851 0.930895
0.297935 0.048281 0.946621
0.620783 0.057261 0.962100
0.980246 0.066709 0.977345
1.000000 0.076306 0.993427
0.050851 0.296706 0.945430
0.312704 0.309926 0.960762
0.637834 0.323320 0.975875
0.998865 0.336859 0.990871
1.000000 0.350228 0.997297
0.062421 0.619761 0.958422
0.329812 0.634772 0.972093
0.656784 0.651252 0.975439
0.982192 0.675874 0.968397
0.981355 0.691405 0.967346
0.166644 0.954359 0.946419
0.440683 0.969663 0.960965
0.734389 0.985692 0.976463
1.000000 1.000000 0.992944
1.000000 1.000000 0.992944
0.189671 0.973558 0.959749
0.456134 0.975708 0.966937
0.747130 0.986343 0.977098
1.000000 1.000000 0.992944
1.000000 1.000000 0.992944
0.049542 0.048205 1.000000
0.311039 0.057119 1.000000
0.635831 0.066504 1.000000
0.996619 0.076303 1.000000
1.000000 0.086191 0.999921
0.059819 0.309768 1.000000
0.326000 0.323099 0.999592
0.653012 0.336597 0.998506
1.000000 0.350228 0.997297
1.000000 0.363688 0.997159
0.071827 0.634751 0.997226
0.344408 0.649649 0.992985
0.672222 0.666576 0.979111
0.981355 0.691405 0.967346
0.980702 0.706924 0.966486
0.186442 0.967994 0.965528
0.456134 0.975708 0.966937
0.747130 0.986343 0.977098
1.000000 1.000000 0.992944
1.000000 1.000000 0.992944
0.200052 0.973517 0.965314
0.468596 0.975978 0.967183
0.759875 0.987009 0.977750
1.000000 1.000000 0.992944
1.000000 1.000000 0.992944
