apps/web/public/luts/kodak-vision3-250d.cube
TITLE "Kodak Vision3 250D"
LUT_3D_SIZE 9
0.021176 0.020000 0.022352
0.123309 0.022188 0.024520
0.259138 0.025175 0.027421
0.411489 0.028535 0.030610
0.575692 0.032170 0.033978
0.749327 0.036029 0.037471
0.930876 0.040077 0.041055
1.000000 0.044227 0.044976
1.000000 0.048470 0.049176
0.023492 0.122157 0.024384
0.128979 0.127631 0.027231
0.265804 0.133174 0.030356
0.418861 0.138785 0.033661
0.583635 0.144461 0.037094
0.757755 0.150202 0.040624
0.939728 0.156005 0.044232
1.000000 0.161781 0.048247
1.000000 0.167559 0.052544
0.026998 0.258079 0.026741
0.135114 0.264464 0.029822
0.272920 0.270902 0.033067
0.426672 0.277388 0.036441
0.592000 0.283920 0.039917
0.766586 0.290495 0.043480
0.948956 0.297110 0.047123
1.000000 0.303664 0.051243
1.000000 0.310203 0.055633
0.031302 0.410589 0.028950
0.141723 0.417584 0.032184
0.280463 0.424626 0.035526
0.434870 0.431705 0.038971
0.600712 0.438819 0.042511
0.775717 0.445964 0.046141
0.958435 0.453137 0.049860
1.000000 0.460228 0.054100
1.000000 0.467303 0.058583
0.036229 0.574990 0.030994
0.148714 0.582450 0.034367
0.288328 0.589950 0.037821
0.443334 0.597480 0.041371
0.609628 0.605031 0.045062
0.783610 0.612573 0.053219
0.959311 0.621106 0.069249
0.995030 0.629113 0.078865
0.994118 0.636675 0.085648
0.041577 0.748815 0.032994
0.156327 0.756476 0.037029
0.299361 0.763075 0.045464
0.457424 0.769100 0.060155
0.622797 0.775596 0.081745
0.789641 0.783652 0.110175
0.953746 0.794182 0.144618
0.980281 0.802489 0.157817
0.980109 0.810010 0.166310
0.074546 0.919559 0.062602
0.198913 0.923642 0.081914
0.346002 0.927817 0.107653
0.501963 0.933236 0.138905
0.660224 0.940834 0.174355
0.817164 0.951263 0.211896
0.971667 0.964746 0.248470
0.991451 0.973160 0.259431
0.992676 0.980651 0.267042
0.107672 0.979644 0.094537
0.229995 0.976648 0.114844
0.372792 0.974267 0.140369
0.523592 0.973481 0.169675
0.676841 0.974966 0.201390
0.829738 0.979115 0.233683
0.981640 0.985958 0.264113
0.993646 0.986668 0.269936
0.993720 0.986741 0.273895
0.112332 0.979483 0.099171
0.236099 0.976493 0.119798
0.379403 0.974178 0.145517
0.530376 0.973498 0.174934
0.683623 0.975115 0.206667
0.836448 0.979406 0.238872
0.988306 0.986380 0.269084
0.993720 0.986741 0.273895
0.993795 0.986815 0.277911
0.023362 0.022184 0.124469
0.128768 0.025162 0.129880
0.265495 0.028510 0.135284
0.418450 0.032132 0.140666
0.583122 0.035976 0.146018
0.757145 0.040011 0.151337
0.939028 0.044213 0.156623
1.000000 0.048492 0.162170
1.000000 0.052854 0.167896
0.026508 0.127613 0.129711
0.134535 0.133142 0.135061
0.272240 0.138739 0.140380
0.425892 0.144402 0.145670
0.591129 0.150130 0.150930
0.765632 0.155920 0.156162
0.947933 0.161770 0.161371
1.000000 0.167586 0.166930
1.000000 0.173405 0.172676
0.030422 0.264431 0.134531
0.140770 0.270851 0.139809
0.279433 0.277323 0.145042
0.433770 0.283842 0.150246
0.599552 0.290405 0.155429
0.774513 0.297012 0.160597
0.957204 0.303658 0.165757
1.000000 0.310233 0.171349
1.000000 0.316800 0.177122
0.035027 0.417538 0.138903
0.147469 0.424560 0.144129
0.287044 0.431626 0.149306
0.442022 0.438729 0.154462
0.608308 0.445866 0.159612
0.783677 0.453034 0.164765
0.966706 0.460228 0.169934
1.000000 0.467333 0.175582
1.000000 0.474438 0.181428
0.040188 0.582397 0.142920
0.154531 0.589877 0.148130
0.294957 0.597395 0.153300
0.450520 0.604943 0.158466
0.617200 0.612467 0.164263
0.790688 0.620155 0.175076
0.964950 0.629235 0.192357
0.992748 0.637298 0.202300
0.991828 0.644904 0.210098
0.045716 0.756592 0.146758
0.163320 0.763830 0.153536
0.308099 0.770074 0.164430
0.466809 0.776090 0.180567
0.631880 0.782928 0.202474
0.797720 0.791619 0.230076
0.960481 0.802972 0.262599
0.979972 0.811205 0.274741
0.979956 0.818762 0.283761
0.085941 0.925411 0.179269
0.212135 0.929550 0.199132
0.359489 0.934082 0.224433
0.514844 0.940135 0.254291
0.671970 0.948572 0.287443
0.827644 0.959929 0.321886
0.981242 0.974276 0.354719
0.994490 0.982470 0.364494
0.995602 0.988604 0.371798
0.117659 0.978437 0.207296
0.241184 0.975721 0.227321
0.383995 0.973818 0.251732
0.534271 0.973658 0.279296
0.686722 0.975858 0.308779
0.838806 0.980732 0.338516
0.990178 0.988208 0.366265
0.995602 0.988604 0.371798
0.995697 0.988699 0.376618
0.122510 0.978273 0.213278
0.247372 0.975579 0.233476
0.390647 0.973756 0.257955
0.541068 0.973713 0.285517
0.693500 0.976054 0.314923
0.845509 0.981073 0.344494
0.995602 0.988604 0.371798
0.995697 0.988699 0.376618
0.995793 0.988794 0.381463
0.026342 0.025157 0.260226
0.134288 0.028496 0.266499
0.271897 0.032106 0.272740
0.425451 0.035937 0.278938
0.590589 0.039959 0.285087
0.764999 0.044147 0.291187
0.947216 0.048486 0.297238
1.000000 0.052880 0.303569
1.000000 0.057351 0.310050
0.029897 0.133124 0.266289
0.140158 0.138707 0.272477
0.278725 0.144357 0.278614
0.432967 0.150072 0.284704
0.598663 0.155849 0.290747
0.773547 0.161688 0.296748
0.956175 0.167585 0.302711
1.000000 0.173437 0.309045
1.000000 0.179297 0.315533
0.034125 0.270819 0.271903
0.146497 0.277273 0.278002
0.286000 0.283779 0.284039
0.440914 0.290330 0.290031
0.607146 0.296926 0.295987
0.782478 0.303563 0.301915
0.965487 0.310238 0.307823
1.000000 0.316835 0.314181
1.000000 0.323428 0.320682
0.038982 0.424517 0.277062
0.153286 0.431564 0.283094
0.293678 0.438654 0.289064
0.449220 0.445781 0.294999
0.615944 0.452941 0.300914
0.791674 0.460130 0.306822
0.974995 0.467348 0.312743
1.000000 0.474552 0.319357
1.000000 0.481740 0.326064
0.044343 0.589828 0.281867
0.160418 0.597328 0.287873
0.301637 0.604865 0.293828
0.457748 0.612430 0.299765
0.624789 0.619905 0.307150
0.797582 0.627916 0.318736
0.970221 0.637722 0.335351
0.990265 0.645812 0.344787
0.989375 0.653468 0.352863
0.050598 0.764189 0.286813
0.171374 0.770909 0.295088
0.317775 0.776926 0.306627
0.476944 0.783097 0.322332
0.641503 0.790452 0.342689
0.806162 0.799943 0.367681
0.967489 0.812246 0.396668
0.980079 0.820346 0.407306
0.980245 0.827942 0.416228
0.099196 0.931042 0.318299
0.226902 0.935394 0.336972
0.374219 0.940463 0.360111
0.528668 0.947326 0.386961
0.684405 0.956752 0.416396
0.838661 0.969134 0.446602
0.991365 0.984360 0.474913
0.997863 0.990848 0.482926
0.997974 0.990957 0.488198
0.129135 0.977146 0.341164
0.253596 0.974823 0.359550
0.396184 0.973523 0.381534
0.545704 0.974112 0.406136
0.697156 0.977132 0.432316
0.848294 0.982799 0.458624
0.997863 0.990848 0.482926
0.997974 0.990957 0.488198
0.998085 0.991067 0.493485
0.134129 0.976993 0.347688
0.259829 0.974707 0.366169
0.402844 0.973499 0.388163
0.552486 0.974214 0.412716
0.703909 0.977378 0.438785
0.854977 0.983188 0.464910
0.997974 0.990957 0.488198
0.998085 0.991067 0.493485
0.998196 0.991178 0.498790
0.029688 0.028489 0.412434
0.139869 0.032089 0.419269
0.278342 0.035909 0.426061
0.432488 0.039918 0.432800
0.598090 0.044094 0.439485
0.772885 0.048420 0.446113
0.955432 0.052882 0.452688
1.000000 0.057381 0.459570
1.000000 0.061952 0.466582
0.033556 0.138688 0.419015
0.145845 0.144323 0.425757
0.285256 0.150025 0.432438
0.440081 0.155790 0.439065
0.606232 0.161617 0.445640
0.781494 0.167503 0.452167
0.964447 0.173445 0.458653
1.000000 0.179333 0.465538
1.000000 0.185233 0.472551
0.038049 0.277242 0.425137
0.152288 0.283729 0.431784
0.292613 0.290268 0.438363
0.448096 0.296852 0.444892
0.614774 0.303479 0.451379
0.790474 0.310146 0.457835
0.973798 0.316850 0.464268
1.000000 0.323467 0.471176
1.000000 0.330087 0.478196
0.043125 0.431522 0.430808
0.159165 0.438594 0.437387
0.300357 0.445708 0.443899
0.456454 0.452859 0.450372
0.623611 0.460041 0.456821
0.799698 0.467251 0.463260
0.982670 0.474665 0.469882
1.000000 0.482025 0.477058
1.000000 0.489304 0.484239
0.048663 0.597281 0.436142
0.166363 0.604800 0.442695
0.308358 0.612355 0.449193
0.465094 0.619902 0.455756
0.632456 0.627415 0.463761
0.804382 0.635935 0.474545
0.975283 0.646628 0.489011
0.987769 0.654689 0.497669
0.986944 0.662400 0.505670
0.056860 0.771433 0.441982
0.180605 0.777767 0.450524
0.328417 0.783727 0.461360
0.487822 0.790229 0.475291
0.651672 0.798264 0.492844
0.815017 0.808680 0.514140
0.974888 0.822001 0.538745
0.980721 0.829896 0.547952
0.981086 0.837530 0.556533
0.114039 0.936626 0.468466
0.242913 0.941346 0.484949
0.389887 0.947111 0.504984
0.543154 0.954921 0.528043
0.697299 0.965426 0.553218
0.850052 0.978858 0.578956
1.000000 0.993394 0.602382
1.000000 0.993516 0.607970
1.000000 0.993638 0.613570
0.141692 0.975927 0.486098
0.266851 0.974093 0.502170
0.409021 0.973490 0.521107
0.557610 0.974908 0.542232
0.707928 0.978802 0.564747
0.858055 0.985276 0.587470
1.000000 0.993516 0.607970
1.000000 0.993638 0.613570
1.000000 0.993762 0.619183
0.146804 0.975794 0.492900
0.273113 0.974012 0.509003
0.415674 0.973511 0.527907
0.564362 0.975062 0.548956
0.714645 0.979101 0.571352
0.864713 0.985712 0.593903
1.000000 0.993638 0.613570
1.000000 0.993762 0.619183
1.000000 0.993885 0.624807
0.033302 0.032080 0.576413
0.145510 0.035889 0.583674
0.284830 0.039887 0.590882
0.439562 0.044050 0.598034
0.605622 0.048364 0.605127
0.780800 0.052814 0.612162
0.963677 0.057391 0.619141
1.000000 0.061986 0.626460
1.000000 0.066649 0.633890
0.037435 0.144303 0.583373
0.151593 0.149990 0.590536
0.291831 0.155742 0.597633
0.447231 0.161557 0.604671
0.613833 0.167431 0.611655
0.789470 0.173363 0.618590
0.972745 0.179350 0.625484
1.000000 0.185272 0.632807
1.000000 0.191210 0.640234
0.042159 0.283698 0.589869
0.158138 0.290218 0.596937
0.299269 0.296789 0.603932
0.455315 0.303405 0.610875
0.622432 0.310063 0.617776
0.798497 0.316759 0.624644
0.982133 0.323491 0.631491
1.000000 0.330129 0.638837
1.000000 0.336774 0.646270
0.047431 0.438553 0.595926
0.165102 0.445649 0.602926
0.307076 0.452787 0.609858
0.463721 0.459960 0.616751
0.631305 0.467164 0.623619
0.807746 0.474394 0.630478
0.989430 0.482342 0.637096
1.000000 0.489824 0.644381
1.000000 0.497203 0.651727
0.053125 0.604755 0.601666
0.172360 0.612292 0.608644
0.315115 0.619864 0.615568
0.472799 0.627327 0.622337
0.640284 0.635081 0.629377
0.811184 0.644294 0.637879
0.980275 0.656012 0.648909
0.985410 0.663971 0.656762
0.984686 0.671741 0.664446
0.064642 0.778378 0.607301
0.191097 0.784489 0.614913
0.340065 0.790575 0.623803
0.499461 0.797583 0.634800
0.662406 0.806442 0.648564
0.824329 0.817877 0.665423
0.981475 0.832174 0.685114
0.981976 0.839851 0.693258
0.982549 0.847522 0.701387
0.130328 0.942295 0.625008
0.260001 0.947536 0.638552
0.406309 0.954136 0.654871
0.558123 0.962998 0.673755
0.710493 0.974631 0.694592
0.861374 0.987668 0.715776
1.000000 0.996328 0.733856
1.000000 0.996461 0.739703
1.000000 0.996594 0.745562
0.155154 0.974878 0.637893
0.280781 0.973618 0.651185
0.422346 0.973790 0.666707
0.569845 0.976093 0.684131
0.718923 0.980882 0.702952
0.868007 0.988140 0.722298
1.000000 0.996461 0.739703
1.000000 0.996594 0.745562
1.000000 0.996728 0.751430
0.160366 0.974773 0.644824
0.287058 0.973578 0.658093
0.428977 0.973862 0.673553
0.576557 0.976301 0.690892
0.725596 0.981234 0.709605
0.874638 0.988620 0.728817
1.000000 0.996594 0.745562
1.000000 0.996728 0.751430
1.000000 0.996863 0.757309
0.037134 0.035878 0.749739
0.151212 0.039864 0.757344
0.291361 0.044016 0.764891
0.446671 0.048318 0.772378
0.613187 0.052756 0.779804
0.788744 0.057321 0.787171
0.971949 0.062002 0.794482
1.000000 0.066685 0.802168
1.000000 0.071435 0.809945
0.041499 0.149968 0.756996
0.157400 0.155706 0.764501
0.298449 0.161507 0.771936
0.454417 0.167370 0.779311
0.621466 0.173291 0.786631
0.797474 0.179267 0.793902
0.981068 0.185297 0.801132
1.000000 0.191252 0.808825
1.000000 0.197228 0.816598
0.046432 0.290186 0.763788
0.164047 0.296739 0.771199
0.305967 0.303342 0.778536
0.462567 0.309989 0.785821
0.630120 0.316677 0.793063
0.806545 0.323402 0.800274
0.990489 0.330161 0.807465
1.000000 0.336818 0.815183
1.000000 0.343489 0.822960
0.051881 0.445609 0.770155
0.171093 0.452729 0.777502
0.313834 0.459890 0.784782
0.471018 0.467085 0.792023
0.639025 0.474309 0.799241
0.815613 0.481639 0.806251
0.995361 0.490476 0.811179
1.000000 0.498022 0.818337
1.000000 0.505508 0.825575
0.057716 0.612248 0.776230
0.178407 0.619804 0.783561
0.322074 0.627357 0.790694
0.480967 0.634791 0.796236
0.648363 0.642996 0.800775
0.818093 0.653072 0.805654
0.983965 0.665872 0.812169
0.983328 0.673697 0.819369
0.982739 0.681525 0.826559
0.074035 0.785110 0.779444
0.202900 0.791173 0.784977
0.352738 0.797573 0.790797
0.511868 0.805252 0.797893
0.673716 0.815055 0.807139
0.834130 0.827568 0.819146
0.983179 0.842490 0.833659
0.983891 0.850199 0.841316
0.984672 0.857902 0.848971
0.147919 0.948169 0.784997
0.278000 0.954073 0.795071
0.423307 0.961630 0.807354
0.573396 0.971616 0.822035
0.723418 0.982982 0.838580
0.871479 0.990849 0.855136
1.000000 0.999490 0.870879
1.000000 0.999632 0.876952
1.000000 0.999774 0.883035
0.169399 0.974076 0.794039
0.295262 0.973468 0.804234
0.436037 0.974476 0.816161
0.582299 0.977698 0.829889
0.730048 0.983378 0.845249
0.878084 0.991361 0.861729
1.000000 0.999632 0.876952
1.000000 0.999774 0.883035
1.000000 0.999916 0.889128
0.174692 0.974005 0.800999
0.301540 0.973476 0.811128
0.442635 0.974602 0.822979
0.588962 0.977963 0.836630
0.736673 0.983781 0.851915
0.884688 0.991878 0.868322
1.000000 0.999774 0.883035
1.000000 0.999916 0.889128
1.000000 1.000000 0.895230
0.041150 0.039851 0.930895
0.156973 0.043992 0.938789
0.297935 0.048281 0.946621
0.453816 0.052708 0.954392
0.620783 0.057261 0.962100
0.796717 0.061931 0.969750
0.980246 0.066709 0.977345
1.000000 0.071474 0.985350
1.000000 0.076306 0.993427
0.045726 0.155682 0.938394
0.163267 0.161469 0.946188
0.305110 0.167319 0.953910
0.461638 0.173228 0.961571
0.629129 0.179194 0.969178
0.805505 0.185214 0.976737
0.989414 0.191285 0.984256
1.000000 0.197272 0.992273
1.000000 0.203285 0.998796
0.050851 0.296706 0.945430
0.170011 0.303292 0.953133
0.312704 0.309926 0.960762
0.469851 0.316603 0.968339
0.637834 0.323320 0.975875
0.814616 0.330073 0.983382
0.998865 0.336859 0.990871
1.000000 0.343534 0.997366
1.000000 0.350228 0.997297
0.056461 0.452688 0.952058
0.177135 0.459832 0.959703
0.320628 0.467016 0.967282
0.478343 0.474232 0.974823
0.646767 0.481477 0.982344
0.822898 0.489224 0.988070
0.999137 0.499113 0.988106
0.998368 0.506615 0.987208
0.997579 0.514144 0.986291
0.062421 0.619761 0.958422
0.184500 0.627334 0.966057
0.329812 0.634772 0.972093
0.489691 0.642398 0.974810
0.656784 0.651252 0.975439
0.825214 0.662324 0.974131
0.982192 0.675874 0.968397
0.981751 0.683641 0.967849
0.981355 0.691405 0.967346
0.085088 0.791733 0.955805
0.216035 0.797930 0.958205
0.366435 0.804821 0.959999
0.525032 0.813317 0.962451
0.685565 0.824143 0.965416
0.844296 0.837633 0.965838
0.985384 0.852871 0.969576
0.986202 0.860459 0.970333
0.987073 0.868040 0.971146
0.166644 0.954359 0.946419
0.296724 0.961056 0.952733
0.440683 0.969663 0.960965
0.588208 0.979412 0.970398
0.734389 0.985692 0.976463
0.881286 0.994042 0.984675
1.000000 1.000000 0.992944
1.000000 1.000000 0.992944
1.000000 1.000000 0.992944
0.184314 0.973590 0.952830
0.310179 0.973701 0.959750
0.449916 0.975579 0.966821
0.594545 0.979637 0.970612
0.740759 0.986016 0.976779
0.887703 0.994443 0.985072
1.000000 1.000000 0.992944
1.000000 1.000000 0.992944
1.000000 1.000000 0.992944
0.189671 0.973558 0.959749
0.316369 0.973756 0.965282
0.456134 0.975708 0.966937
0.600884 0.979867 0.970831
0.747130 0.986343 0.977098
0.894123 0.994846 0.985472
1.000000 1.000000 0.992944
1.000000 1.000000 0.992944
1.000000 1.000000 0.992944
0.045290 0.043966 1.000000
0.162741 0.048240 1.000000
0.304486 0.052650 1.000000
0.460914 0.057186 1.000000
0.628311 0.061840 1.000000
0.804600 0.066603 1.000000
0.988434 0.071468 1.000000
1.000000 0.076307 1.000000
1.000000 0.081213 0.999967
0.050031 0.161424 1.000000
0.169108 0.167255 1.000000
0.311715 0.173147 1.000000
0.468780 0.179097 1.000000
0.636693 0.185103 1.000000
0.813419 0.191161 0.999469
0.997628 0.197269 0.998876
1.000000 0.203285 0.998796
1.000000 0.209332 0.998735
0.055301 0.303229 1.000000
0.175916 0.309843 1.000000
0.319355 0.316504 0.999672
0.477028 0.323207 0.999159
0.645425 0.329949 0.998596
0.822550 0.336726 0.997992
1.000000 0.343534 0.997366
1.000000 0.350228 0.997297
1.000000 0.356946 0.997228
0.061034 0.459756 0.999033
0.183093 0.466920 0.998600
0.327312 0.474123 0.998093
0.485543 0.481358 0.997537
0.654372 0.488620 0.996951
0.830395 0.496596 0.993776
0.998368 0.506615 0.987208
0.997579 0.514144 0.986291
0.996774 0.521698 0.985359
0.067095 0.627253 0.997317
0.190538 0.634833 0.996817
0.337125 0.642208 0.993865
0.497506 0.649907 0.987900
0.664512 0.658921 0.980383
0.832486 0.670187 0.973026
0.981751 0.683641 0.967849
0.981355 0.691405 0.967346
0.981004 0.699166 0.966891
0.092995 0.798874 0.984262
0.225170 0.805110 0.978397
0.375781 0.812128 0.972370
0.534048 0.820792 0.967575
0.694002 0.831789 0.965235
0.852188 0.845491 0.966269
0.986202 0.860459 0.970333
0.987073 0.868040 0.971146
0.987997 0.875611 0.972014
0.177111 0.961150 0.965830
0.307284 0.968074 0.965181
0.449916 0.975579 0.966821
0.594545 0.979637 0.970612
0.740759 0.986016 0.976779
0.887703 0.994443 0.985072
1.000000 1.000000 0.992944
1.000000 1.000000 0.992944
1.000000 1.000000 0.992944
0.190035 0.973549 0.965370
0.316369 0.973756 0.965282
0.456134 0.975708 0.966937
0.600884 0.979867 0.970831
0.747130 0.986343 0.977098
0.894123 0.994846 0.985472
1.000000 1.000000 0.992944
1.000000 1.000000 0.992944
1.000000 1.000000 0.992944
0.195011 0.973532 0.965341
0.322257 0.973800 0.965313
0.462361 0.975841 0.967058
0.607225 0.980101 0.971054
0.753502 0.986674 0.977422
0.900547 0.995252 0.985874
1.000000 1.000000 0.992944
1.000000 1.000000 0.992944
1.000000 1.000000 0.992944
0.049542 0.048205 1.000000
0.168529 0.052599 1.000000
0.311039 0.057119 1.000000
0.468008 0.061757 1.000000
0.635831 0.066504 1.000000
0.812477 0.071355 1.000000
0.996619 0.076303 1.000000
1.000000 0.081213 0.999967
1.000000 0.086191 0.999921
0.054422 0.167199 1.000000
0.174958 0.173073 1.000000
0.318316 0.179007 1.000000
0.475915 0.184998 1.000000
0.644250 0.191044 0.999938
0.821328 0.197141 0.999389
1.000000 0.203285 0.998796
1.000000 0.209332 0.998735
1.000000 0.215414 0.998674
0.059819 0.309768 1.000000
0.181826 0.316410 1.000000
0.326000 0.323099 0.999592
0.484198 0.329829 0.999074
0.653012 0.336597 0.998506
0.830484 0.343400 0.997900
1.000000 0.350228 0.997297
1.000000 0.356946 0.997228
1.000000 0.363688 0.997159
0.065667 0.466833 0.998950
0.189055 0.474018 0.998511
0.333994 0.481242 0.998000
0.492742 0.488497 0.997442
0.661967 0.495790 0.996790
0.837855 0.504000 0.992885
0.997579 0.514144 0.986291
0.996774 0.521698 0.985359
0.995957 0.529276 0.984416
0.071827 0.634751 0.997226
0.196709 0.642318 0.996535
0.344408 0.649649 0.992985
0.505267 0.657406 0.986680
0.672222 0.666576 0.979111
0.839749 0.678068 0.971972
0.981355 0.691405 0.967346
0.981004 0.699166 0.966891
0.980702 0.706924 0.966486
0.100282 0.806100 0.983045
0.233761 0.812325 0.977182
0.384774 0.819420 0.971360
0.542924 0.828240 0.966956
0.702443 0.839442 0.965153
0.860083 0.853353 0.966804
0.987073 0.868040 0.971146
0.987997 0.875611 0.972014
0.988972 0.883175 0.972936
0.186442 0.967994 0.965528
0.316369 0.973756 0.965282
0.456134 0.975708 0.966937
0.600884 0.979867 0.970831
0.747130 0.986343 0.977098
0.894123 0.994846 0.985472
1.000000 1.000000 0.992944
1.000000 1.000000 0.992944
1.000000 1.000000 0.992944
0.195011 0.973532 0.965341
0.322257 0.973800 0.965313
0.462361 0.975841 0.967058
0.607225 0.980101 0.971054
0.753502 0.986674 0.977422
0.900547 0.995252 0.985874
1.000000 1.000000 0.992944
1.000000 1.000000 0.992944
1.000000 1.000000 0.992944
0.200052 0.973517 0.965314
0.328167 0.973847 0.965347
0.468596 0.975978 0.967183
0.613569 0.980339 0.971283
0.759875 0.987009 0.977750
0.906976 0.995660 0.986279
1.000000 1.000000 0.992944
1.000000 1.000000 0.992944
1.000000 1.000000 0.992944
