apps/web/public/luts/kodak-2383-print.cube
TITLE "Kodak 2383 Print"
LUT_3D_SIZE 33
0.006332 0.015000 0.048884
0.018790 0.015143 0.049025
0.039754 0.015521 0.049392
0.065813 0.015991 0.049832
0.095860 0.016536 0.050321
0.129278 0.017145 0.050844
0.165660 0.017812 0.051389
0.204713 0.018535 0.051945
0.246214 0.019310 0.052505
0.289985 0.020135 0.053062
0.335881 0.021007 0.053611
0.383782 0.021926 0.054144
0.433584 0.022891 0.054659
0.485199 0.023901 0.055151
0.538549 0.024954 0.055615
0.593563 0.026050 0.056049
0.650181 0.027189 0.056450
0.708347 0.028369 0.056815
0.768011 0.029590 0.057143
0.829125 0.030852 0.057431
0.891648 0.032154 0.057679
0.955540 0.033495 0.057885
1.000000 0.034879 0.058169
1.000000 0.036331 0.059526
1.000000 0.037810 0.060907
1.000000 0.039315 0.062312
1.000000 0.040846 0.063741
1.000000 0.042401 0.065192
1.000000 0.043981 0.066666
1.000000 0.045585 0.068162
1.000000 0.047213 0.069679
1.000000 0.048863 0.071218
1.000000 0.050536 0.072777
0.006367 0.027340 0.048890
0.019855 0.028503 0.049271
0.041230 0.029670 0.049714
0.067601 0.030853 0.050201
0.097915 0.032057 0.050720
0.131571 0.033284 0.051259
0.168173 0.034536 0.051809
0.207432 0.035815 0.052362
0.249129 0.037122 0.052912
0.293089 0.038458 0.053452
0.339169 0.039823 0.053978
0.387248 0.041217 0.054484
0.437224 0.042643 0.054968
0.489010 0.044099 0.055424
0.542526 0.045587 0.055849
0.597705 0.047106 0.056242
0.654485 0.048657 0.056599
0.712809 0.050240 0.056919
0.772629 0.051854 0.057199
0.833897 0.053500 0.057439
0.896571 0.055178 0.057637
0.960612 0.056887 0.057793
1.000000 0.058633 0.058118
1.000000 0.060426 0.059475
1.000000 0.062240 0.060857
1.000000 0.064073 0.062262
1.000000 0.065926 0.063690
1.000000 0.067799 0.065141
1.000000 0.069690 0.066614
1.000000 0.071601 0.068109
1.000000 0.073529 0.069625
1.000000 0.075476 0.071162
1.000000 0.077442 0.072719
0.006624 0.048115 0.048970
0.020921 0.049680 0.049428
0.042715 0.051243 0.049915
0.069412 0.052814 0.050427
0.100006 0.054398 0.050956
0.133915 0.055998 0.051494
0.170750 0.057617 0.052034
0.210230 0.059256 0.052570
0.252137 0.060916 0.053095
0.296299 0.062600 0.053606
0.342574 0.064307 0.054098
0.390842 0.066038 0.054565
0.441004 0.067796 0.055006
0.492970 0.069579 0.055417
0.546663 0.071388 0.055795
0.602015 0.073224 0.056138
0.658965 0.075088 0.056444
0.717456 0.076979 0.056711
0.777439 0.078897 0.056938
0.838866 0.080842 0.057124
0.901697 0.082815 0.057269
0.965890 0.084816 0.057372
1.000000 0.086847 0.057741
1.000000 0.088911 0.059101
1.000000 0.090991 0.060485
1.000000 0.093088 0.061892
1.000000 0.095201 0.063322
1.000000 0.097330 0.064774
1.000000 0.099476 0.066248
1.000000 0.101637 0.067743
1.000000 0.103814 0.069259
1.000000 0.106006 0.070795
1.000000 0.108214 0.072351
0.007042 0.073958 0.048953
0.022081 0.075823 0.049456
0.044293 0.077685 0.049966
0.071322 0.079553 0.050486
0.102203 0.081433 0.051010
0.136372 0.083325 0.051534
0.173450 0.085234 0.052051
0.213158 0.087159 0.052558
0.255283 0.089104 0.053049
0.299655 0.091069 0.053520
0.346133 0.093054 0.053968
0.394599 0.095062 0.054389
0.444952 0.097092 0.054780
0.497105 0.099145 0.055138
0.550982 0.101222 0.055462
0.606512 0.103323 0.055750
0.663636 0.105449 0.055999
0.722298 0.107599 0.056209
0.782448 0.109773 0.056379
0.844038 0.111973 0.056508
0.907027 0.114197 0.056597
0.971375 0.116445 0.056645
1.000000 0.118718 0.057066
1.000000 0.121011 0.058430
1.000000 0.123318 0.059817
1.000000 0.125640 0.061226
1.000000 0.127976 0.062658
1.000000 0.130326 0.064112
1.000000 0.132690 0.065587
1.000000 0.135068 0.067082
1.000000 0.137460 0.068599
1.000000 0.139865 0.070135
1.000000 0.142285 0.071691
0.007659 0.103779 0.048780
0.023391 0.105894 0.049309
0.046018 0.108007 0.049827
0.073381 0.110126 0.050341
0.104554 0.112255 0.050850
0.138989 0.114397 0.051349
0.176314 0.116552 0.051835
0.216256 0.118724 0.052305
0.258605 0.120913 0.052753
0.303192 0.123121 0.053178
0.349877 0.125347 0.053575
0.398545 0.127594 0.053943
0.449094 0.129862 0.054279
0.501438 0.132151 0.054580
0.555500 0.134462 0.054846
0.611212 0.136795 0.055075
0.668513 0.139150 0.055265
0.727347 0.141528 0.055416
0.787664 0.143928 0.055527
0.849418 0.146352 0.055599
0.912566 0.148797 0.055632
0.977068 0.151265 0.055626
1.000000 0.153750 0.056108
1.000000 0.156245 0.057476
1.000000 0.158752 0.058866
1.000000 0.161272 0.060278
1.000000 0.163806 0.061712
1.000000 0.166351 0.063168
1.000000 0.168910 0.064645
1.000000 0.171481 0.066142
1.000000 0.174064 0.067659
1.000000 0.176660 0.069196
1.000000 0.179268 0.070753
0.008507 0.136973 0.048406
0.024893 0.139307 0.048947
0.047933 0.141641 0.049462
0.075631 0.143981 0.049961
0.107098 0.146330 0.050446
0.141801 0.148692 0.050913
0.179377 0.151067 0.051361
0.219556 0.153457 0.051787
0.262131 0.155864 0.052187
0.306936 0.158289 0.052561
0.353832 0.160731 0.052904
0.402703 0.163192 0.053216
0.453450 0.165673 0.053493
0.505986 0.168174 0.053736
0.560235 0.170695 0.053942
0.616128 0.173237 0.054110
0.673606 0.175799 0.054241
0.732611 0.178383 0.054334
0.793095 0.180987 0.054388
0.855010 0.183611 0.054405
0.918314 0.186257 0.054384
0.982966 0.188922 0.054327
1.000000 0.191597 0.054879
1.000000 0.194274 0.056251
1.000000 0.196962 0.057645
1.000000 0.199662 0.059060
1.000000 0.202373 0.060497
1.000000 0.205096 0.061956
1.000000 0.207831 0.063435
1.000000 0.210577 0.064934
1.000000 0.213335 0.066452
1.000000 0.216104 0.067991
1.000000 0.218884 0.069548
0.009612 0.173141 0.047794
0.026622 0.175672 0.048337
0.050070 0.178204 0.048840
0.078103 0.180744 0.049317
0.109865 0.183293 0.049771
0.144838 0.185855 0.050202
0.182665 0.188430 0.050607
0.223082 0.191019 0.050986
0.265885 0.193624 0.051336
0.310907 0.196246 0.051655
0.358014 0.198886 0.051943
0.407088 0.201543 0.052197
0.458033 0.204218 0.052416
0.510760 0.206912 0.052599
0.565194 0.209626 0.052746
0.621267 0.212358 0.052857
0.678919 0.215110 0.052930
0.738093 0.217881 0.052967
0.798740 0.220671 0.052967
0.860812 0.223480 0.052932
0.924268 0.226308 0.052863
0.989066 0.229155 0.052761
1.000000 0.232001 0.053393
1.000000 0.234844 0.054769
1.000000 0.237698 0.056167
1.000000 0.240563 0.057587
1.000000 0.243438 0.059028
1.000000 0.246324 0.060489
1.000000 0.249221 0.061971
1.000000 0.252128 0.063473
1.000000 0.255046 0.064994
1.000000 0.257974 0.066535
1.000000 0.260913 0.068095
0.010997 0.211995 0.046915
0.028604 0.214706 0.047452
0.052456 0.217422 0.047938
0.080821 0.220145 0.048388
0.112877 0.222879 0.048808
0.148119 0.225624 0.049198
0.186197 0.228383 0.049559
0.226852 0.231156 0.049888
0.269881 0.233944 0.050187
0.315120 0.236748 0.050452
0.362436 0.239569 0.050684
0.411712 0.242407 0.050882
0.462851 0.245263 0.051044
0.515766 0.248135 0.051171
0.570382 0.251026 0.051262
0.626632 0.253935 0.051317
0.684453 0.256861 0.051337
0.743791 0.259806 0.051323
0.804595 0.262767 0.051275
0.866819 0.265747 0.051195
0.930420 0.268743 0.051084
0.995357 0.271755 0.050944
1.000000 0.274759 0.051665
1.000000 0.277756 0.053047
1.000000 0.280763 0.054451
1.000000 0.283780 0.055876
1.000000 0.286808 0.057321
1.000000 0.289845 0.058787
1.000000 0.292892 0.060273
1.000000 0.295949 0.061779
1.000000 0.299016 0.063304
1.000000 0.302093 0.064848
1.000000 0.305179 0.066411
0.012677 0.253315 0.045749
0.030857 0.256195 0.046274
0.055106 0.259080 0.046738
0.083801 0.261974 0.047158
0.116149 0.264878 0.047542
0.151658 0.267795 0.047891
0.189985 0.270725 0.048206
0.230875 0.273669 0.048488
0.274128 0.276627 0.048735
0.319582 0.279602 0.048948
0.367102 0.282591 0.049127
0.416576 0.285598 0.049271
0.467906 0.288620 0.049380
0.521005 0.291659 0.049454
0.575798 0.294715 0.049494
0.632217 0.297787 0.049500
0.690202 0.300876 0.049474
0.749697 0.303981 0.049415
0.810652 0.307102 0.049327
0.873020 0.310238 0.049209
0.936757 0.313390 0.049066
1.000000 0.316556 0.048897
1.000000 0.319704 0.049719
1.000000 0.322845 0.051108
1.000000 0.325995 0.052518
1.000000 0.329155 0.053949
1.000000 0.332324 0.055401
1.000000 0.335503 0.056872
1.000000 0.338691 0.058364
1.000000 0.341888 0.059875
1.000000 0.345094 0.061406
1.000000 0.348310 0.062955
1.000000 0.351534 0.064523
0.014661 0.296926 0.044281
0.033394 0.299963 0.044791
0.058033 0.303007 0.045231
0.087053 0.306060 0.045620
0.119689 0.309125 0.045967
0.155462 0.312202 0.046276
0.194035 0.315292 0.046547
0.235156 0.318396 0.046782
0.278628 0.321514 0.046982
0.324292 0.324647 0.047146
0.372013 0.327795 0.047276
0.421679 0.330959 0.047371
0.473193 0.334137 0.047433
0.526469 0.337331 0.047461
0.581432 0.340541 0.047457
0.638014 0.343766 0.047421
0.696155 0.347005 0.047356
0.755798 0.350260 0.047263
0.816894 0.353528 0.047143
0.879395 0.356811 0.046999
0.943259 0.360106 0.046834
1.000000 0.363415 0.046649
1.000000 0.366697 0.047579
1.000000 0.369973 0.048976
1.000000 0.373257 0.050395
1.000000 0.376551 0.051834
1.000000 0.379854 0.053294
1.000000 0.383165 0.054773
1.000000 0.386485 0.056273
1.000000 0.389814 0.057791
1.000000 0.393152 0.059329
1.000000 0.396498 0.060885
1.000000 0.399853 0.062460
0.016954 0.342682 0.042506
0.036219 0.345867 0.042998
0.061241 0.349061 0.043413
0.090580 0.352265 0.043773
0.123500 0.355480 0.044085
0.159531 0.358708 0.044355
0.198344 0.361949 0.044586
0.239692 0.365203 0.044778
0.283378 0.368471 0.044935
0.329245 0.371753 0.045056
0.377160 0.375049 0.045143
0.427011 0.378359 0.045196
0.478702 0.381684 0.045218
0.532147 0.385023 0.045208
0.587271 0.388376 0.045168
0.644007 0.391743 0.045101
0.702293 0.395124 0.045008
0.762074 0.398517 0.044890
0.823300 0.401923 0.044751
0.885923 0.405341 0.044593
0.949901 0.408770 0.044419
1.000000 0.412209 0.044232
1.000000 0.415616 0.045278
1.000000 0.419019 0.046686
1.000000 0.422431 0.048115
1.000000 0.425851 0.049565
1.000000 0.429280 0.051034
1.000000 0.432716 0.052524
1.000000 0.436162 0.054033
1.000000 0.439615 0.055561
1.000000 0.443077 0.057109
1.000000 0.446546 0.058675
1.000000 0.450024 0.060260
0.019551 0.390460 0.040425
0.039329 0.393785 0.040899
0.064725 0.397120 0.041291
0.094378 0.400466 0.041622
0.127575 0.403824 0.041903
0.163859 0.407194 0.042138
0.202906 0.410576 0.042333
0.244472 0.413972 0.042489
0.288365 0.417380 0.042609
0.334427 0.420802 0.042694
0.382528 0.424238 0.042746
0.432556 0.427686 0.042766
0.484415 0.431148 0.042757
0.538019 0.434622 0.042719
0.593293 0.438110 0.042655
0.650171 0.441609 0.042568
0.708591 0.445120 0.042458
0.768499 0.448643 0.042330
0.829842 0.452176 0.042185
0.892574 0.455719 0.042028
0.956651 0.459271 0.041860
1.000000 0.462832 0.041687
1.000000 0.466356 0.042853
1.000000 0.469880 0.044275
1.000000 0.473411 0.045717
1.000000 0.476951 0.047180
1.000000 0.480499 0.048662
1.000000 0.484055 0.050170
1.000000 0.487626 0.051738
1.000000 0.491212 0.053372
1.000000 0.494813 0.055073
1.000000 0.498429 0.056840
1.000000 0.502059 0.058673
0.022444 0.440153 0.038046
0.042716 0.443611 0.038504
0.068477 0.447080 0.038875
0.098435 0.450560 0.039182
0.131902 0.454052 0.039435
0.168431 0.457556 0.039642
0.207704 0.461072 0.039808
0.249481 0.464601 0.039935
0.293572 0.468142 0.040026
0.339821 0.471695 0.040084
0.388098 0.475261 0.040111
0.438291 0.478839 0.040108
0.490306 0.482428 0.040079
0.544058 0.486029 0.040026
0.599471 0.489642 0.039950
0.656479 0.493264 0.039855
0.715020 0.496897 0.039744
0.775039 0.500539 0.039620
0.836484 0.504190 0.039485
0.899310 0.507849 0.039344
0.963401 0.511525 0.039296
1.000000 0.515404 0.040669
1.000000 0.519121 0.042575
1.000000 0.522821 0.044506
1.000000 0.526533 0.046507
1.000000 0.530256 0.048577
1.000000 0.533991 0.050716
1.000000 0.537738 0.052924
1.000000 0.541495 0.055200
1.000000 0.545263 0.057544
1.000000 0.549041 0.059955
1.000000 0.552830 0.062434
1.000000 0.556628 0.064979
0.025615 0.491666 0.035388
0.046364 0.495250 0.035832
0.072479 0.498846 0.036185
0.102734 0.502453 0.036473
0.136462 0.506071 0.036706
0.173227 0.509702 0.036892
0.212717 0.513344 0.037036
0.254695 0.516998 0.037143
0.298974 0.520663 0.037215
0.345398 0.524340 0.037257
0.393839 0.528028 0.037270
0.444187 0.531726 0.037257
0.496346 0.535435 0.037221
0.550232 0.539154 0.037166
0.605770 0.542882 0.037093
0.662893 0.546619 0.037006
0.721540 0.550365 0.036910
0.781655 0.554117 0.036806
0.842928 0.557897 0.037248
0.904564 0.561810 0.039401
0.966082 0.565971 0.043398
1.000000 0.570495 0.049327
1.000000 0.574339 0.051989
1.000000 0.578180 0.054666
1.000000 0.582029 0.057413
1.000000 0.585884 0.060229
1.000000 0.589747 0.063113
1.000000 0.593616 0.066064
1.000000 0.597492 0.069083
1.000000 0.601375 0.072168
1.000000 0.605263 0.075319
1.000000 0.609156 0.078536
1.000000 0.613055 0.081816
0.029042 0.544913 0.032473
0.050250 0.548617 0.032907
0.076708 0.552333 0.033249
0.107250 0.556060 0.033524
0.141229 0.559798 0.033744
0.178219 0.563548 0.033918
0.217916 0.567308 0.034051
0.260084 0.571080 0.034148
0.304539 0.574862 0.034214
0.351126 0.578653 0.034251
0.399719 0.582455 0.034263
0.450208 0.586266 0.034254
0.502497 0.590086 0.034227
0.556502 0.593914 0.034184
0.612149 0.597750 0.034131
0.669347 0.601583 0.034230
0.727726 0.605386 0.035666
0.786838 0.609242 0.038765
0.846249 0.613254 0.043625
0.905528 0.617527 0.050329
0.964252 0.622167 0.058939
1.000000 0.627195 0.069048
1.000000 0.631108 0.072415
1.000000 0.635025 0.075849
1.000000 0.638945 0.079350
1.000000 0.642868 0.082915
1.000000 0.646794 0.086546
1.000000 0.650723 0.090240
1.000000 0.654654 0.093996
1.000000 0.658588 0.097815
1.000000 0.662523 0.101695
1.000000 0.666460 0.105636
1.000000 0.670398 0.109635
0.032695 0.599817 0.029333
0.054344 0.603634 0.029763
0.081132 0.607464 0.030101
0.111950 0.611304 0.030372
0.146169 0.615155 0.030588
0.183374 0.619017 0.030760
0.223265 0.622888 0.030893
0.265611 0.626769 0.030993
0.310228 0.630660 0.031065
0.356965 0.634559 0.031112
0.405695 0.638467 0.031139
0.456309 0.642382 0.031149
0.508722 0.646294 0.031215
0.562905 0.650086 0.032341
0.618543 0.653786 0.034946
0.675239 0.657481 0.039134
0.732590 0.661263 0.044996
0.790191 0.665228 0.052607
0.847643 0.669473 0.062028
0.904561 0.674093 0.073297
0.960579 0.679181 0.086434
1.000000 0.684580 0.099981
1.000000 0.688514 0.104076
1.000000 0.692448 0.108232
1.000000 0.696383 0.112447
1.000000 0.700316 0.116720
1.000000 0.704250 0.121051
1.000000 0.708183 0.125438
1.000000 0.712114 0.129879
1.000000 0.716045 0.134375
1.000000 0.719975 0.138924
1.000000 0.723903 0.143524
1.000000 0.727829 0.148175
0.036538 0.656304 0.026010
0.058609 0.660229 0.026442
0.085715 0.664166 0.026784
0.116795 0.668113 0.027060
0.151242 0.672069 0.027284
0.188649 0.676036 0.027466
0.228721 0.680011 0.027612
0.271230 0.683995 0.027729
0.315995 0.687986 0.027821
0.362917 0.691958 0.028014
0.412158 0.695732 0.029214
0.463461 0.699324 0.031703
0.516474 0.702800 0.035591
0.570828 0.706233 0.040977
0.626148 0.709704 0.047945
0.682052 0.713300 0.056565
0.738163 0.717108 0.066891
0.794111 0.721217 0.078958
0.849545 0.725715 0.092778
0.904133 0.730685 0.108343
0.957579 0.736207 0.125617
0.999656 0.741870 0.141686
0.999132 0.745778 0.146423
0.998627 0.749684 0.151209
0.998141 0.753587 0.156044
0.997675 0.757487 0.160926
0.997229 0.761384 0.165854
0.996805 0.765278 0.170826
0.996402 0.769169 0.175841
0.996023 0.773057 0.180898
0.995666 0.776941 0.185995
0.995333 0.780822 0.191130
0.995024 0.784700 0.196303
0.040527 0.714306 0.022549
0.063001 0.718333 0.022992
0.090410 0.722370 0.023348
0.121739 0.726417 0.023641
0.156400 0.730473 0.023885
0.193995 0.734537 0.024090
0.234544 0.738469 0.024733
0.278045 0.742149 0.026346
0.324175 0.745607 0.029057
0.372606 0.748884 0.032980
0.422996 0.752034 0.038219
0.474995 0.755120 0.044867
0.528243 0.758212 0.053003
0.582378 0.761386 0.062689
0.637040 0.764722 0.073973
0.691872 0.768303 0.086883
0.746533 0.772210 0.101428
0.800701 0.776523 0.117592
0.854077 0.781320 0.135336
0.906400 0.786669 0.154592
0.957447 0.792633 0.175263
0.994240 0.798473 0.192749
0.994037 0.802324 0.197974
0.993860 0.806171 0.203234
0.993712 0.810013 0.208526
0.993590 0.813852 0.213850
0.993498 0.817687 0.219203
0.993433 0.821518 0.224585
0.993399 0.825345 0.229992
0.993393 0.829168 0.235423
0.993418 0.832987 0.240877
0.993473 0.836802 0.246352
0.993558 0.840613 0.251846
0.044610 0.773758 0.019007
0.067520 0.777859 0.019524
0.095687 0.781799 0.020423
0.128251 0.785522 0.021938
0.164630 0.789016 0.024223
0.204376 0.792285 0.027415
0.247097 0.795348 0.031633
0.292427 0.798238 0.036990
0.340006 0.800998 0.043582
0.389479 0.803682 0.051494
0.440489 0.806351 0.060797
0.492681 0.809074 0.071549
0.545699 0.811922 0.083787
0.599199 0.814972 0.097535
0.652844 0.818301 0.112792
0.706315 0.821985 0.129537
0.759316 0.826098 0.147725
0.811581 0.830710 0.167284
0.862879 0.835881 0.188111
0.913025 0.841667 0.210075
0.961886 0.848109 0.233007
0.994012 0.854063 0.250654
0.994224 0.857846 0.256139
0.994467 0.861625 0.261637
0.994742 0.865400 0.267148
0.995049 0.869172 0.272668
0.995389 0.872941 0.278196
0.995760 0.876706 0.283729
0.996165 0.880469 0.289267
0.996601 0.884228 0.294806
0.997071 0.887984 0.300344
0.997572 0.891738 0.305880
0.998107 0.895489 0.311411
0.054419 0.832332 0.021135
0.079816 0.835648 0.024105
0.110476 0.838733 0.027840
0.145398 0.841598 0.032454
0.183928 0.844262 0.038052
0.225557 0.846754 0.044732
0.269843 0.849113 0.052579
0.316384 0.851386 0.061668
0.364795 0.853629 0.072059
0.414705 0.855904 0.083798
0.465754 0.858278 0.096916
0.517590 0.860822 0.111425
0.569877 0.863609 0.127317
0.622293 0.866712 0.144563
0.674540 0.870202 0.163110
0.726345 0.874149 0.182878
0.777469 0.878614 0.203760
0.827712 0.883654 0.225619
0.876923 0.889315 0.248281
0.925005 0.895631 0.271541
0.971923 0.902623 0.295153
0.999947 0.908652 0.311611
1.000000 0.912382 0.317038
1.000000 0.916111 0.322451
1.000000 0.919839 0.327849
1.000000 0.923566 0.333230
1.000000 0.927292 0.338591
1.000000 0.931017 0.343929
1.000000 0.934742 0.349242
1.000000 0.938468 0.354528
1.000000 0.942194 0.359785
1.000000 0.945920 0.365008
1.000000 0.949648 0.370198
0.078428 0.886567 0.037546
0.105953 0.889178 0.043109
0.138594 0.891546 0.049726
0.175294 0.893716 0.057437
0.215344 0.895734 0.066292
0.258188 0.897648 0.076340
0.303354 0.899514 0.087622
0.350414 0.901392 0.100169
0.398970 0.903347 0.113997
0.448650 0.905446 0.129104
0.499097 0.907759 0.145471
0.549980 0.910358 0.163060
0.600988 0.913313 0.181805
0.651837 0.916692 0.201620
0.702275 0.920560 0.222388
0.752088 0.924973 0.243965
0.801105 0.929982 0.266171
0.849206 0.935627 0.288795
0.896328 0.941934 0.311587
0.942474 0.948917 0.334256
0.987721 0.956571 0.356470
1.000000 0.962668 0.370363
1.000000 0.966393 0.375313
1.000000 0.970121 0.380216
1.000000 0.973852 0.385071
1.000000 0.977587 0.389874
1.000000 0.981327 0.394622
1.000000 0.985071 0.399313
1.000000 0.988276 0.403459
1.000000 0.988328 0.404768
1.000000 0.988381 0.406089
1.000000 0.988433 0.407420
1.000000 0.988487 0.408762
0.116869 0.936281 0.068625
0.146005 0.938341 0.076693
0.180016 0.940178 0.086039
0.217813 0.941867 0.096622
0.258654 0.943473 0.108431
0.301958 0.945063 0.121462
0.347231 0.946703 0.135704
0.394036 0.948462 0.151134
0.441976 0.950410 0.167715
0.490685 0.952620 0.185392
0.539828 0.955162 0.204088
0.589100 0.958103 0.223702
0.638230 0.961511 0.244108
0.686984 0.965445 0.265149
0.733415 0.967233 0.283168
0.779051 0.968921 0.300710
0.824221 0.971150 0.318435
0.868863 0.973937 0.336185
0.912956 0.977292 0.353780
0.956530 0.981211 0.371017
0.999667 0.985681 0.387667
1.000000 0.987975 0.395832
1.000000 0.988024 0.397074
1.000000 0.988074 0.398329
1.000000 0.988124 0.399594
1.000000 0.988174 0.400871
1.000000 0.988225 0.402159
1.000000 0.988276 0.403459
1.000000 0.988328 0.404768
1.000000 0.988381 0.406089
1.000000 0.988433 0.407420
1.000000 0.988487 0.408762
1.000000 0.988541 0.410114
0.163183 0.977330 0.108652
0.189506 0.976072 0.115327
0.220436 0.974654 0.123172
0.254937 0.973153 0.132062
0.292308 0.971633 0.141931
0.332016 0.970153 0.152737
0.373621 0.968767 0.164447
0.416746 0.967530 0.177030
0.461053 0.966495 0.190451
0.506238 0.965714 0.204670
0.552027 0.965240 0.219638
0.598170 0.965122 0.235296
0.644443 0.965405 0.251571
0.690648 0.966134 0.268378
0.736619 0.967346 0.285613
0.782220 0.969075 0.303159
0.827350 0.971346 0.320875
0.871948 0.974177 0.338604
0.916000 0.977575 0.356165
0.959536 0.981538 0.373351
1.000000 0.986048 0.389934
1.000000 0.988024 0.397074
1.000000 0.988074 0.398329
1.000000 0.988124 0.399594
1.000000 0.988174 0.400871
1.000000 0.988225 0.402159
1.000000 0.988276 0.403459
1.000000 0.988328 0.404768
1.000000 0.988381 0.406089
1.000000 0.988433 0.407420
1.000000 0.988487 0.408762
1.000000 0.988541 0.410114
1.000000 0.988595 0.411476
0.164916 0.977227 0.110326
0.191600 0.975956 0.117102
0.222803 0.974531 0.125034
0.257518 0.973028 0.134003
0.295064 0.971510 0.143945
0.334913 0.970036 0.154820
0.376633 0.968661 0.166594
0.419846 0.967439 0.179237
0.464219 0.966423 0.192713
0.509450 0.965665 0.206982
0.555267 0.965217 0.221994
0.601420 0.965129 0.237689
0.647689 0.965446 0.253995
0.693878 0.966211 0.270823
0.739822 0.967462 0.288071
0.785387 0.969232 0.305618
0.830476 0.971546 0.323326
0.875031 0.974421 0.341032
0.919041 0.977863 0.358556
0.962540 0.981868 0.375691
1.000000 0.986419 0.392204
1.000000 0.988074 0.398329
1.000000 0.988124 0.399594
1.000000 0.988174 0.400871
1.000000 0.988225 0.402159
1.000000 0.988276 0.403459
1.000000 0.988328 0.404768
1.000000 0.988381 0.406089
1.000000 0.988433 0.407420
1.000000 0.988487 0.408762
1.000000 0.988541 0.410114
1.000000 0.988595 0.411476
1.000000 0.988650 0.412848
0.166680 0.977123 0.112029
0.193717 0.975839 0.118905
0.225187 0.974407 0.126922
0.260115 0.972902 0.135969
0.297833 0.971388 0.145983
0.337821 0.969921 0.156925
0.379652 0.968557 0.168763
0.422952 0.967349 0.181464
0.467390 0.966352 0.194994
0.512666 0.965618 0.209312
0.558508 0.965197 0.224367
0.604672 0.965138 0.240099
0.650935 0.965489 0.256433
0.697107 0.966291 0.273282
0.743022 0.967581 0.290541
0.788552 0.969393 0.308089
0.833599 0.971750 0.325786
0.878112 0.974668 0.343469
0.922079 0.978154 0.360955
0.965541 0.982202 0.378036
1.000000 0.986794 0.394478
1.000000 0.988124 0.399594
1.000000 0.988174 0.400871
1.000000 0.988225 0.402159
1.000000 0.988276 0.403459
1.000000 0.988328 0.404768
1.000000 0.988381 0.406089
1.000000 0.988433 0.407420
1.000000 0.988487 0.408762
1.000000 0.988541 0.410114
1.000000 0.988595 0.411476
1.000000 0.988650 0.412848
1.000000 0.988705 0.414229
0.168475 0.977017 0.113762
0.195857 0.975720 0.120735
0.227589 0.974282 0.128836
0.262726 0.972777 0.137959
0.300613 0.971265 0.148045
0.340739 0.969806 0.159053
0.382679 0.968453 0.170953
0.426065 0.967261 0.183712
0.470565 0.966283 0.197295
0.515885 0.965572 0.211660
0.561752 0.965178 0.226757
0.607924 0.965151 0.242524
0.654182 0.965535 0.258886
0.700334 0.966374 0.275754
0.746221 0.967704 0.293023
0.791714 0.969557 0.310571
0.836720 0.971957 0.328255
0.881189 0.974919 0.345913
0.925115 0.978448 0.363359
0.968541 0.982539 0.380385
1.000000 0.987172 0.396755
1.000000 0.988174 0.400871
1.000000 0.988225 0.402159
1.000000 0.988276 0.403459
1.000000 0.988328 0.404768
1.000000 0.988381 0.406089
1.000000 0.988433 0.407420
1.000000 0.988487 0.408762
1.000000 0.988541 0.410114
1.000000 0.988595 0.411476
1.000000 0.988650 0.412848
1.000000 0.988705 0.414229
1.000000 0.988761 0.415621
0.170298 0.976909 0.115523
0.198018 0.975601 0.122591
0.230008 0.974158 0.130775
0.265352 0.972651 0.139973
0.303406 0.971143 0.150129
0.343667 0.969691 0.161203
0.385715 0.968350 0.173164
0.429183 0.967174 0.185979
0.473746 0.966216 0.199614
0.519107 0.965529 0.214026
0.564998 0.965162 0.229164
0.611177 0.965165 0.244964
0.657427 0.965584 0.261353
0.703561 0.966460 0.278239
0.749418 0.967830 0.295517
0.794874 0.969725 0.313063
0.839839 0.972168 0.330733
0.884264 0.975174 0.348365
0.928148 0.978747 0.365770
0.971539 0.982880 0.382739
1.000000 0.987553 0.399035
1.000000 0.988225 0.402159
1.000000 0.988276 0.403459
1.000000 0.988328 0.404768
1.000000 0.988381 0.406089
1.000000 0.988433 0.407420
1.000000 0.988487 0.408762
1.000000 0.988541 0.410114
1.000000 0.988595 0.411476
