apps/web/public/luts/kodak-vision3-250d.cube
TITLE "Kodak Vision3 250D"
LUT_3D_SIZE 33
0.021176 0.020000 0.022352
0.039975 0.020353 0.022704
0.065007 0.020906 0.023254
0.093072 0.021523 0.023865
0.123309 0.022188 0.024520
0.155274 0.022890 0.025208
0.188688 0.023625 0.025924
0.223356 0.024387 0.026662
0.259138 0.025175 0.027421
0.295922 0.025985 0.028197
0.333621 0.026816 0.028988
0.372164 0.027666 0.029793
0.411489 0.028535 0.030610
0.451545 0.029420 0.031438
0.492290 0.030322 0.032276
0.533683 0.031239 0.033123
0.575692 0.032170 0.033978
0.618287 0.033115 0.034841
0.661440 0.034074 0.035712
0.705127 0.035045 0.036588
0.749327 0.036029 0.037471
0.794019 0.037024 0.038359
0.839186 0.038031 0.039253
0.884810 0.039049 0.040152
0.930876 0.040077 0.041055
0.977370 0.041116 0.041963
1.000000 0.042153 0.042923
1.000000 0.043186 0.043946
1.000000 0.044227 0.044976
1.000000 0.045276 0.046014
1.000000 0.046333 0.047061
1.000000 0.047398 0.048115
1.000000 0.048470 0.049176
0.021534 0.038800 0.022699
0.040987 0.039805 0.023247
0.066186 0.040820 0.023856
0.094363 0.041844 0.024507
0.124689 0.042878 0.025193
0.156727 0.043921 0.025905
0.190205 0.044974 0.026641
0.224931 0.046035 0.027396
0.260765 0.047106 0.028169
0.297597 0.048185 0.028957
0.335341 0.049272 0.029758
0.373925 0.050368 0.030572
0.413290 0.051472 0.031397
0.453384 0.052585 0.032231
0.494165 0.053705 0.033075
0.535593 0.054833 0.033927
0.577635 0.055968 0.034787
0.620261 0.057112 0.035654
0.663445 0.058262 0.036527
0.707162 0.059420 0.037407
0.751391 0.060585 0.038292
0.796111 0.061758 0.039183
0.841305 0.062937 0.040078
0.886955 0.064123 0.040979
0.933046 0.065315 0.041884
0.979565 0.066515 0.042793
1.000000 0.067707 0.043762
1.000000 0.068891 0.044791
1.000000 0.070081 0.045828
1.000000 0.071275 0.046872
1.000000 0.072475 0.047925
1.000000 0.073680 0.048985
1.000000 0.074890 0.050052
0.022106 0.063836 0.023228
0.042025 0.065004 0.023834
0.067388 0.066179 0.024483
0.095677 0.067360 0.025165
0.126091 0.068547 0.025873
0.158204 0.069741 0.026605
0.191747 0.070941 0.027357
0.226531 0.072147 0.028125
0.262417 0.073359 0.028909
0.299298 0.074577 0.029707
0.337088 0.075801 0.030516
0.375715 0.077031 0.031337
0.415120 0.078267 0.032168
0.455252 0.079508 0.033008
0.496069 0.080756 0.033856
0.537532 0.082009 0.034712
0.579607 0.083268 0.035575
0.622266 0.084533 0.036445
0.665480 0.085803 0.037321
0.709227 0.087079 0.038202
0.753485 0.088360 0.039090
0.798233 0.089647 0.039982
0.843454 0.090938 0.040879
0.889130 0.092235 0.041781
0.935247 0.093538 0.042687
0.981790 0.094845 0.043597
1.000000 0.096142 0.044575
1.000000 0.097430 0.045611
1.000000 0.098722 0.046654
1.000000 0.100017 0.047706
1.000000 0.101317 0.048764
1.000000 0.102620 0.049830
1.000000 0.103928 0.050904
0.022764 0.091908 0.023797
0.043094 0.093185 0.024443
0.068617 0.094468 0.025122
0.097019 0.095756 0.025827
0.127521 0.097048 0.026555
0.159708 0.098346 0.027302
0.193315 0.099649 0.028066
0.228157 0.100956 0.028846
0.264097 0.102269 0.029639
0.301027 0.103586 0.030445
0.338862 0.104909 0.031261
0.377531 0.106236 0.032087
0.416977 0.107568 0.032923
0.457147 0.108904 0.033767
0.498001 0.110246 0.034619
0.539498 0.111592 0.035478
0.581607 0.112943 0.036344
0.624298 0.114298 0.037216
0.667544 0.115659 0.038094
0.711320 0.117023 0.038978
0.755607 0.118392 0.039866
0.800383 0.119766 0.040760
0.845630 0.121144 0.041659
0.891333 0.122526 0.042562
0.937475 0.123913 0.043469
0.984042 0.125304 0.044381
1.000000 0.126681 0.045368
1.000000 0.128050 0.046410
1.000000 0.129422 0.047460
1.000000 0.130796 0.048518
1.000000 0.132174 0.049583
1.000000 0.133555 0.050655
1.000000 0.134939 0.051734
0.023492 0.122157 0.024384
0.044196 0.123519 0.025061
0.069877 0.124885 0.025763
0.098389 0.126256 0.026487
0.128979 0.127631 0.027231
0.161240 0.129010 0.027991
0.194912 0.130394 0.028766
0.229812 0.131782 0.029555
0.265804 0.133174 0.030356
0.302783 0.134570 0.031168
0.340663 0.135971 0.031990
0.379375 0.137376 0.032822
0.418861 0.138785 0.033661
0.459070 0.140198 0.034509
0.499960 0.141615 0.035364
0.541492 0.143036 0.036226
0.583635 0.144461 0.037094
0.626357 0.145891 0.037968
0.669634 0.147324 0.038848
0.713440 0.148761 0.039733
0.757755 0.150202 0.040624
0.802558 0.151647 0.041519
0.847832 0.153096 0.042419
0.893561 0.154548 0.043323
0.939728 0.156005 0.044232
0.986319 0.157465 0.045145
1.000000 0.158908 0.046142
1.000000 0.160344 0.047191
1.000000 0.161781 0.048247
1.000000 0.163222 0.049311
1.000000 0.164665 0.050382
1.000000 0.166111 0.051460
1.000000 0.167559 0.052544
0.024284 0.154139 0.024978
0.045332 0.155570 0.025680
0.071169 0.157005 0.026402
0.099790 0.158445 0.027141
0.130466 0.159888 0.027898
0.162801 0.161336 0.028669
0.196537 0.162787 0.029454
0.231495 0.164242 0.030251
0.267540 0.165701 0.031058
0.304567 0.167164 0.031876
0.342493 0.168630 0.032703
0.381248 0.170100 0.033539
0.420773 0.171574 0.034383
0.461020 0.173051 0.035234
0.501946 0.174532 0.036091
0.543513 0.176017 0.036956
0.585688 0.177506 0.037826
0.628443 0.178998 0.038702
0.671749 0.180493 0.039584
0.715585 0.181992 0.040471
0.759928 0.183495 0.041363
0.804759 0.185001 0.042259
0.850059 0.186510 0.043161
0.895812 0.188022 0.044066
0.942004 0.189538 0.044977
0.988619 0.191058 0.045891
1.000000 0.192558 0.046899
1.000000 0.194050 0.047954
1.000000 0.195545 0.049017
1.000000 0.197042 0.050087
1.000000 0.198541 0.051164
1.000000 0.200043 0.052247
1.000000 0.201547 0.053338
0.025134 0.187573 0.025572
0.046505 0.189064 0.026294
0.072494 0.190559 0.027032
0.101222 0.192058 0.027786
0.131985 0.193560 0.028553
0.164392 0.195066 0.029334
0.198192 0.196576 0.030127
0.233208 0.198089 0.030931
0.269305 0.199606 0.031745
0.306380 0.201126 0.032568
0.344351 0.202650 0.033399
0.383148 0.204177 0.034239
0.422713 0.205707 0.035086
0.462998 0.207241 0.035940
0.503959 0.208778 0.036800
0.545560 0.210318 0.037667
0.587768 0.211861 0.038540
0.630553 0.213408 0.039418
0.673890 0.214958 0.040302
0.717755 0.216511 0.041190
0.762125 0.218067 0.042084
0.806982 0.219627 0.042982
0.852308 0.221189 0.043886
0.898087 0.222755 0.044793
0.944302 0.224323 0.045706
0.990940 0.225894 0.046622
1.000000 0.227444 0.047641
1.000000 0.228987 0.048703
1.000000 0.230532 0.049771
1.000000 0.232079 0.050847
1.000000 0.233628 0.051930
1.000000 0.235179 0.053020
1.000000 0.236732 0.054116
0.026040 0.222267 0.026161
0.047714 0.223811 0.026900
0.073851 0.225358 0.027652
0.102686 0.226910 0.028417
0.133534 0.228464 0.029195
0.166014 0.230022 0.029985
0.199877 0.231584 0.030785
0.234949 0.233149 0.031595
0.271098 0.234716 0.032414
0.308221 0.236288 0.033242
0.346236 0.237862 0.034078
0.385075 0.239439 0.034921
0.424679 0.241020 0.035772
0.465001 0.242603 0.036629
0.505998 0.244190 0.037492
0.547633 0.245780 0.038361
0.589873 0.247372 0.039236
0.632689 0.248968 0.040117
0.676055 0.250567 0.041003
0.719947 0.252168 0.041894
0.764345 0.253772 0.042789
0.809228 0.255379 0.043690
0.854579 0.256989 0.044595
0.900382 0.258602 0.045506
0.946620 0.260217 0.046420
0.993280 0.261835 0.047339
1.000000 0.263429 0.048369
1.000000 0.265016 0.049438
1.000000 0.266606 0.050513
1.000000 0.268198 0.051595
1.000000 0.269792 0.052683
1.000000 0.271387 0.053778
1.000000 0.272984 0.054880
0.026998 0.258079 0.026741
0.048959 0.259670 0.027495
0.075242 0.261264 0.028260
0.104182 0.262863 0.029036
0.135114 0.264464 0.029822
0.167665 0.266069 0.030620
0.201591 0.267677 0.031427
0.236719 0.269288 0.032243
0.272920 0.270902 0.033067
0.310090 0.272519 0.033900
0.348149 0.274139 0.034740
0.387028 0.275762 0.035587
0.426672 0.277388 0.036441
0.467030 0.279017 0.037301
0.508061 0.280648 0.038167
0.549729 0.282283 0.039039
0.592000 0.283920 0.039917
0.634847 0.285559 0.040800
0.678241 0.287202 0.041688
0.722161 0.288847 0.042582
0.766586 0.290495 0.043480
0.811494 0.292145 0.044384
0.856870 0.293798 0.045292
0.902695 0.295453 0.046205
0.948956 0.297110 0.047123
0.995638 0.298770 0.048045
1.000000 0.300404 0.049087
1.000000 0.302033 0.050161
1.000000 0.303664 0.051243
1.000000 0.305296 0.052330
1.000000 0.306930 0.053425
1.000000 0.308566 0.054526
1.000000 0.310203 0.055633
0.028006 0.294898 0.027311
0.050239 0.296531 0.028078
0.076665 0.298169 0.028854
0.105709 0.299810 0.029639
0.136724 0.301454 0.030435
0.169346 0.303102 0.031239
0.203334 0.304752 0.032052
0.238518 0.306405 0.032874
0.274768 0.308062 0.033704
0.311985 0.309721 0.034541
0.350087 0.311382 0.035385
0.389007 0.313047 0.036236
0.428689 0.314714 0.037093
0.469083 0.316384 0.037957
0.510148 0.318056 0.038827
0.551848 0.319731 0.039702
0.594150 0.321409 0.040583
0.637026 0.323089 0.041469
0.680449 0.324771 0.042360
0.724396 0.326456 0.043257
0.768845 0.328144 0.044159
0.813779 0.329833 0.045065
0.859177 0.331525 0.045977
0.905026 0.333219 0.046894
0.951308 0.334916 0.047815
0.998010 0.336614 0.048742
1.000000 0.338284 0.049796
1.000000 0.339951 0.050876
1.000000 0.341619 0.051964
1.000000 0.343289 0.053057
1.000000 0.344960 0.054158
1.000000 0.346633 0.055264
1.000000 0.348308 0.056377
0.029061 0.332635 0.027869
0.051554 0.334308 0.028648
0.078121 0.335985 0.029434
0.107266 0.337666 0.030229
0.138363 0.339349 0.031032
0.171055 0.341036 0.031843
0.205104 0.342725 0.032663
0.240342 0.344417 0.033490
0.276643 0.346112 0.034325
0.313906 0.347810 0.035167
0.352050 0.349510 0.036015
0.391010 0.351212 0.036870
0.430729 0.352918 0.037732
0.471158 0.354625 0.038599
0.512257 0.356335 0.039472
0.553988 0.358048 0.040351
0.596320 0.359763 0.041236
0.639224 0.361480 0.042125
0.682675 0.363199 0.043021
0.726647 0.364921 0.043921
0.771122 0.366645 0.044827
0.816079 0.368371 0.045737
0.861501 0.370099 0.046653
0.907370 0.371829 0.047574
0.953673 0.373561 0.048500
1.000000 0.375295 0.049432
1.000000 0.376998 0.050498
1.000000 0.378700 0.051585
1.000000 0.380403 0.052678
1.000000 0.382107 0.053778
1.000000 0.383813 0.054884
1.000000 0.385520 0.055996
1.000000 0.387229 0.057115
0.030161 0.371219 0.028415
0.052902 0.372929 0.029206
0.079606 0.374642 0.030001
0.108852 0.376359 0.030804
0.140030 0.378079 0.031615
0.172790 0.379802 0.032433
0.206900 0.381527 0.033259
0.242192 0.383255 0.034092
0.278542 0.384986 0.034932
0.315850 0.386719 0.035778
0.354036 0.388455 0.036632
0.393035 0.390193 0.037491
0.432790 0.391933 0.038357
0.473254 0.393676 0.039229
0.514385 0.395421 0.040106
0.556147 0.397168 0.040989
0.598508 0.398917 0.041878
0.641440 0.400669 0.042772
0.684917 0.402423 0.043671
0.728915 0.404178 0.044576
0.773413 0.405936 0.045487
0.818393 0.407695 0.046402
0.863837 0.409457 0.047323
0.909727 0.411220 0.048249
0.956050 0.412985 0.049181
1.000000 0.414752 0.050118
1.000000 0.416487 0.051197
1.000000 0.418220 0.052290
1.000000 0.419956 0.053389
1.000000 0.421692 0.054495
1.000000 0.423430 0.055607
1.000000 0.425170 0.056725
1.000000 0.426910 0.057849
0.031302 0.410589 0.028950
0.054282 0.412333 0.029750
0.081120 0.414080 0.030555
0.110465 0.415831 0.031366
0.141723 0.417584 0.032184
0.174551 0.419341 0.033009
0.208720 0.421100 0.033841
0.244065 0.422862 0.034680
0.280463 0.424626 0.035526
0.317815 0.426392 0.036378
0.356043 0.428161 0.037236
0.395080 0.429932 0.038101
0.434870 0.431705 0.038971
0.475368 0.433480 0.039848
0.516531 0.435258 0.040730
0.558323 0.437037 0.041618
0.600712 0.438819 0.042511
0.643671 0.440602 0.043411
0.687173 0.442388 0.044315
0.731195 0.444175 0.045226
0.775717 0.445964 0.046141
0.820719 0.447755 0.047063
0.866183 0.449547 0.047990
0.912093 0.451341 0.048922
0.958435 0.453137 0.049860
1.000000 0.454935 0.050804
1.000000 0.456698 0.051895
1.000000 0.458462 0.052995
1.000000 0.460228 0.054100
1.000000 0.461995 0.055212
1.000000 0.463763 0.056330
1.000000 0.465532 0.057453
1.000000 0.467303 0.058583
0.032483 0.450693 0.029473
0.055691 0.452468 0.030284
0.082662 0.454248 0.031098
0.112103 0.456030 0.031917
0.143440 0.457815 0.032742
0.176335 0.459603 0.033574
0.210562 0.461394 0.034413
0.245960 0.463187 0.035258
0.282405 0.464982 0.036109
0.319801 0.466779 0.036967
0.358068 0.468579 0.037831
0.397142 0.470381 0.038701
0.436968 0.472185 0.039577
0.477498 0.473990 0.040459
0.518691 0.475798 0.041347
0.560512 0.477608 0.042240
0.602929 0.479419 0.043140
0.645914 0.481233 0.044045
0.689440 0.483048 0.044955
0.733486 0.484865 0.045872
0.778030 0.486683 0.046794
0.823052 0.488503 0.047722
0.868536 0.490325 0.048656
0.914465 0.492148 0.049595
0.960824 0.493972 0.050541
1.000000 0.495832 0.051740
1.000000 0.497633 0.052902
1.000000 0.499435 0.054077
1.000000 0.501240 0.055265
1.000000 0.503047 0.056466
1.000000 0.504856 0.057680
1.000000 0.506667 0.058907
1.000000 0.508480 0.060146
0.033700 0.491487 0.029987
0.057129 0.493292 0.030808
0.084228 0.495101 0.031630
0.113765 0.496913 0.032457
0.145180 0.498728 0.033290
0.178140 0.500546 0.034130
0.212425 0.502366 0.034975
0.247874 0.504188 0.035827
0.284365 0.506012 0.036685
0.321803 0.507839 0.037549
0.360110 0.509668 0.038419
0.399220 0.511498 0.039295
0.439079 0.513331 0.040177
0.479641 0.515165 0.041065
0.520864 0.517001 0.041959
0.562714 0.518839 0.042859
0.605157 0.520679 0.043765
0.648166 0.522520 0.044677
0.691716 0.524363 0.045594
0.735784 0.526208 0.046518
0.780349 0.528053 0.047448
0.825391 0.529901 0.048383
0.870821 0.531758 0.049450
0.916386 0.533662 0.050989
0.961974 0.535637 0.053034
1.000000 0.537686 0.055481
1.000000 0.539528 0.056806
1.000000 0.541371 0.058144
1.000000 0.543216 0.059494
1.000000 0.545062 0.060858
1.000000 0.546910 0.062234
1.000000 0.548759 0.063622
1.000000 0.550610 0.065023
0.034949 0.532931 0.030494
0.058591 0.534764 0.031323
0.085817 0.536601 0.032155
0.115448 0.538441 0.032990
0.146938 0.540284 0.033831
0.179963 0.542130 0.034678
0.214304 0.543978 0.035530
0.249804 0.545828 0.036389
0.286340 0.547680 0.037254
0.323820 0.549534 0.038125
0.362165 0.551389 0.039002
0.401310 0.553247 0.039885
0.441203 0.555107 0.040774
0.481795 0.556968 0.041669
0.523047 0.558831 0.042570
0.564923 0.560695 0.043478
0.607392 0.562561 0.044391
0.650425 0.564429 0.045310
0.693997 0.566298 0.046236
0.738066 0.568168 0.047230
0.782465 0.570047 0.048642
0.827078 0.571957 0.050535
0.871803 0.573922 0.052925
0.916545 0.575964 0.055821
0.961211 0.578106 0.059233
1.000000 0.580315 0.062843
1.000000 0.582185 0.064331
0.999961 0.584057 0.065831
0.999759 0.585929 0.067343
0.999555 0.587802 0.068868
0.999349 0.589677 0.070404
0.999142 0.591552 0.071952
0.998933 0.593429 0.073512
0.036229 0.574990 0.030994
0.060076 0.576850 0.031833
0.087426 0.578714 0.032673
0.117149 0.580581 0.033518
0.148714 0.582450 0.034367
0.181802 0.584322 0.035221
0.216199 0.586196 0.036082
0.251747 0.588072 0.036948
0.288328 0.589950 0.037821
0.325848 0.591830 0.038699
0.364230 0.593711 0.039584
0.403410 0.595595 0.040474
0.443334 0.597480 0.041371
0.483956 0.599366 0.042274
0.525236 0.601254 0.043184
0.567138 0.603144 0.044099
0.609628 0.605031 0.045062
0.652624 0.606900 0.046399
0.696022 0.608765 0.048195
0.739717 0.610648 0.050464
0.783610 0.612573 0.053219
0.827606 0.614560 0.056468
0.871611 0.616631 0.060220
0.915541 0.618806 0.064480
0.959311 0.621106 0.069249
0.995710 0.623448 0.073896
0.995484 0.625335 0.075541
0.995257 0.627224 0.077197
0.995030 0.629113 0.078865
0.994802 0.631002 0.080544
0.994574 0.632893 0.082235
0.994346 0.634783 0.083936
0.994118 0.636675 0.085648
0.037535 0.617635 0.031492
0.061580 0.619520 0.032340
0.089051 0.621409 0.033189
0.118865 0.623301 0.034043
0.150504 0.625196 0.034900
0.183654 0.627092 0.035763
0.218105 0.628991 0.036632
0.253701 0.630892 0.037507
0.290326 0.632794 0.038388
0.327885 0.634698 0.039275
0.366303 0.636604 0.040168
0.405516 0.638512 0.041067
0.445471 0.640420 0.041972
0.486129 0.642324 0.042930
0.527472 0.644184 0.044249
0.569405 0.646012 0.046000
0.611820 0.647828 0.048199
0.654616 0.649653 0.050860
0.697693 0.651508 0.053995
0.740955 0.653414 0.057611
0.784310 0.655391 0.061716
0.827672 0.657459 0.066313
0.870958 0.659637 0.071404
0.914091 0.661943 0.076986
0.957001 0.664395 0.083055
0.990781 0.666845 0.088578
0.990559 0.668740 0.090369
0.990337 0.670636 0.092170
0.990116 0.672533 0.093982
0.989897 0.674429 0.095803
0.989678 0.676326 0.097636
0.989460 0.678223 0.099478
0.989244 0.680120 0.101330
0.038865 0.660837 0.031989
0.063101 0.662746 0.032847
0.090691 0.664659 0.033706
0.120594 0.666575 0.034568
0.152304 0.668493 0.035435
0.185516 0.670413 0.036307
0.220019 0.672335 0.037185
0.255663 0.674259 0.038069
0.292329 0.676185 0.038959
0.329927 0.678112 0.039855
0.368413 0.680022 0.040844
0.407799 0.681865 0.042199
0.447976 0.683655 0.043957
0.488832 0.685408 0.046137
0.530257 0.687143 0.048753
0.572148 0.688881 0.051818
0.614404 0.690641 0.055342
0.656927 0.692442 0.059334
0.699625 0.694303 0.063799
0.742410 0.696245 0.068739
0.785200 0.698285 0.074155
0.827916 0.700441 0.080044
0.870487 0.702730 0.086400
0.912848 0.705168 0.093215
0.954940 0.707768 0.100476
0.986232 0.710306 0.106681
0.986041 0.712202 0.108600
0.985853 0.714098 0.110529
0.985667 0.715993 0.112466
0.985483 0.717889 0.114413
0.985301 0.719785 0.116369
0.985121 0.721680 0.118333
0.984944 0.723576 0.120306
0.040213 0.704572 0.032488
0.064635 0.706504 0.033356
0.092341 0.708439 0.034225
0.122331 0.710377 0.035097
0.154112 0.712318 0.035974
0.187383 0.714260 0.036856
0.221940 0.716204 0.037746
0.257752 0.718093 0.038843
0.294743 0.719901 0.040289
0.332771 0.721641 0.042106
0.371705 0.723328 0.044313
0.411424 0.724977 0.046929
0.451810 0.726605 0.049968
0.492755 0.728231 0.053441
0.534154 0.729873 0.057359
0.575906 0.731549 0.061728
0.617917 0.733278 0.066554
0.660097 0.735078 0.071837
0.702360 0.736967 0.077576
0.744628 0.738963 0.083769
0.786828 0.741081 0.090407
0.828892 0.743337 0.097481
0.870759 0.745745 0.104978
0.912377 0.748317 0.112881
0.953698 0.751066 0.121170
0.982633 0.753674 0.127837
0.982499 0.755565 0.129861
0.982367 0.757455 0.131893
0.982239 0.759345 0.133932
0.982113 0.761235 0.135979
0.981991 0.763124 0.138033
0.981872 0.765013 0.140095
0.981756 0.766902 0.142163
0.041577 0.748815 0.032994
0.066179 0.750769 0.033873
0.093999 0.752726 0.034752
0.124175 0.754644 0.035753
0.156327 0.756476 0.037029
0.190138 0.758227 0.038613
0.225370 0.759903 0.040532
0.261832 0.761515 0.042810
0.299361 0.763075 0.045464
0.337811 0.764598 0.048514
0.377051 0.766098 0.051971
0.416960 0.767593 0.055849
0.457424 0.769100 0.060155
0.498337 0.770637 0.064896
0.539599 0.772220 0.070074
0.581115 0.773867 0.075692
0.622797 0.775596 0.081745
0.664564 0.777424 0.088230
0.706339 0.779366 0.095138
0.748052 0.781437 0.102458
0.789641 0.783652 0.110175
0.831050 0.786024 0.118273
0.872229 0.788563 0.126730
0.913138 0.791279 0.135521
0.953746 0.794182 0.144618
0.980450 0.796845 0.151505
0.980390 0.798726 0.153603
0.980334 0.800608 0.155707
0.980281 0.802489 0.157817
0.980232 0.804369 0.159932
0.980187 0.806250 0.162053
0.980146 0.808130 0.164179
0.980109 0.810010 0.166310
0.043610 0.793285 0.034168
0.068914 0.795044 0.035639
0.097559 0.796724 0.037380
0.128596 0.798327 0.039422
0.161526 0.799859 0.041790
0.196021 0.801330 0.044505
0.231836 0.802751 0.047587
0.268776 0.804135 0.051052
0.306674 0.805496 0.054911
0.345384 0.806850 0.059176
0.384777 0.808212 0.063853
0.424731 0.809600 0.068948
0.465138 0.811030 0.074463
0.505896 0.812519 0.080396
0.546909 0.814084 0.086744
0.588092 0.815742 0.093502
0.629363 0.817507 0.100659
0.670648 0.819395 0.108203
0.711883 0.821420 0.116119
0.753006 0.823595 0.124387
0.793967 0.825931 0.132985
0.834721 0.828438 0.141887
0.875233 0.831124 0.151064
0.915476 0.833997 0.160482
0.955431 0.837061 0.170105
0.980027 0.839769 0.176958
0.980053 0.841641 0.179092
0.980084 0.843512 0.181229
0.980119 0.845384 0.183369
0.980159 0.847255 0.185514
0.980202 0.849127 0.187661
0.980250 0.850997 0.189812
0.980302 0.852868 0.191965
0.049537 0.836677 0.039242
0.075685 0.838164 0.041622
0.105092 0.839569 0.044356
0.136812 0.840909 0.047448
0.170336 0.842194 0.050906
0.205331 0.843441 0.054741
0.241547 0.844662 0.058963
0.278786 0.845873 0.063579
0.316881 0.847090 0.068595
0.355685 0.848329 0.074012
0.395072 0.849606 0.079831
0.434924 0.850938 0.086050
0.475137 0.852342 0.092664
0.515614 0.853833 0.099664
0.556268 0.855426 0.107039
0.597019 0.857138 0.114776
0.637795 0.858981 0.122857
0.678533 0.860968 0.131262
0.719176 0.863112 0.139967
0.759678 0.865422 0.148945
0.799997 0.867907 0.158164
0.840103 0.870575 0.167591
0.879973 0.873431 0.177186
0.919596 0.876478 0.186908
0.958967 0.879717 0.196709
0.981566 0.882460 0.203268
0.981686 0.884324 0.205390
0.981809 0.886189 0.207514
0.981937 0.888054 0.209638
0.982069 0.889918 0.211764
0.982206 0.891783 0.213890
0.982347 0.893647 0.216017
0.982492 0.895512 0.218145
0.059868 0.878767 0.048736
0.086696 0.880029 0.052019
0.116687 0.881214 0.055729
0.148901 0.882346 0.059841
0.182830 0.883445 0.064348
0.218134 0.884527 0.069250
0.254563 0.885610 0.074545
0.291916 0.886710 0.080231
0.330029 0.887844 0.086306
0.368758 0.889029 0.092765
0.407977 0.890281 0.099598
0.447576 0.891616 0.106797
0.487455 0.893049 0.114347
0.527525 0.894596 0.122234
0.567706 0.896271 0.130438
0.607927 0.898086 0.138937
0.648127 0.900054 0.147705
0.688251 0.902185 0.156713
0.728256 0.904488 0.165929
0.768104 0.906971 0.175316
0.807771 0.909641 0.184835
0.847238 0.912500 0.194442
0.886498 0.915551 0.204089
0.925552 0.918795 0.213724
0.964414 0.922227 0.223290
0.985119 0.925001 0.229294
0.985330 0.926864 0.231350
0.985544 0.928727 0.233404
0.985762 0.930590 0.235457
0.985985 0.932453 0.237507
0.986211 0.934317 0.239556
0.986441 0.936181 0.241603
0.986676 0.938046 0.243647
0.074546 0.919559 0.062602
0.101879 0.920651 0.066748
0.132265 0.921675 0.071377
0.164779 0.922664 0.076440
0.198913 0.923642 0.081914
0.234329 0.924627 0.087783
0.270775 0.925640 0.094037
0.308054 0.926697 0.100664
0.346002 0.927817 0.107653
0.384479 0.929015 0.114988
0.423367 0.930307 0.122655
0.462559 0.931709 0.130634
0.501963 0.933236 0.138905
0.541497 0.934900 0.147441
0.581091 0.936714 0.156216
0.620684 0.938689 0.165199
0.660224 0.940834 0.174355
0.699670 0.943159 0.183647
0.738989 0.945669 0.193031
0.778158 0.948370 0.202464
0.817164 0.951263 0.211896
0.856006 0.954350 0.221272
0.894689 0.957629 0.230535
0.933233 0.961097 0.239623
0.971667 0.964746 0.248470
0.990566 0.967549 0.253670
0.990858 0.969418 0.255595
0.991153 0.971289 0.257515
0.991451 0.973160 0.259431
0.991752 0.975031 0.261341
0.992057 0.976904 0.263247
0.992365 0.978777 0.265147
0.992676 0.980651 0.267042
0.093334 0.959131 0.080612
0.120986 0.960113 0.085543
0.151569 0.961044 0.090996
0.184178 0.961961 0.096897
0.218312 0.962890 0.103207
0.253634 0.963854 0.109897
0.289897 0.964871 0.116947
0.326905 0.965961 0.124334
0.364500 0.967140 0.132037
0.402548 0.968425 0.140033
0.440935 0.969831 0.148297
0.479563 0.971372 0.156800
0.518347 0.973061 0.165514
0.556728 0.973588 0.173536
0.595040 0.973853 0.181420
0.633395 0.974275 0.189410
0.671753 0.974860 0.197475
0.710083 0.975613 0.205585
0.748360 0.976537 0.213705
0.786569 0.977633 0.221799
0.824704 0.978902 0.229827
0.862765 0.980342 0.237749
0.900761 0.981950 0.245519
0.938710 0.983720 0.253090
0.976640 0.985646 0.260412
0.993538 0.986561 0.264109
0.993555 0.986579 0.265071
0.993573 0.986596 0.266036
0.993591 0.986614 0.267005
0.993609 0.986632 0.267978
0.993628 0.986650 0.268955
0.993646 0.986668 0.269936
0.993664 0.986686 0.270920
0.105394 0.979723 0.092272
0.132280 0.978999 0.096662
0.162018 0.978237 0.101533
0.193738 0.977471 0.106796
0.226957 0.976726 0.112408
0.261353 0.976022 0.118339
0.296691 0.975375 0.124566
0.332787 0.974801 0.131069
0.369493 0.974313 0.137830
0.406686 0.973925 0.144831
0.444260 0.973649 0.152053
0.482124 0.973496 0.159475
0.520202 0.973475 0.167076
0.558426 0.973598 0.174832
0.596739 0.973871 0.182720
0.635094 0.974301 0.190711
0.673449 0.974895 0.198776
0.711775 0.975657 0.206883
0.750048 0.976589 0.214999
0.788252 0.977695 0.223088
0.826382 0.978972 0.231109
0.864438 0.980421 0.239021
0.902431 0.982038 0.246780
0.940378 0.983816 0.254337
0.978307 0.985750 0.261643
0.993555 0.986579 0.265071
0.993573 0.986596 0.266036
0.993591 0.986614 0.267005
0.993609 0.986632 0.267978
