apps/web/public/luts/kodak-2383-print.cube
TITLE "Kodak 2383 Print"
LUT_3D_SIZE 9
0.006332 0.015000 0.048884
0.095860 0.016536 0.050321
0.246214 0.019310 0.052505
0.433584 0.022891 0.054659
0.650181 0.027189 0.056450
0.891648 0.032154 0.057679
1.000000 0.037810 0.060907
1.000000 0.043981 0.066666
1.000000 0.050536 0.072777
0.007659 0.103779 0.048780
0.104554 0.112255 0.050850
0.258605 0.120913 0.052753
0.449094 0.129862 0.054279
0.668513 0.139150 0.055265
0.912566 0.148797 0.055632
1.000000 0.158752 0.058866
1.000000 0.168910 0.064645
1.000000 0.179268 0.070753
0.012677 0.253315 0.045749
0.116149 0.264878 0.047542
0.274128 0.276627 0.048735
0.467906 0.288620 0.049380
0.690202 0.300876 0.049474
0.936757 0.313390 0.049066
1.000000 0.325995 0.052518
1.000000 0.338691 0.058364
1.000000 0.351534 0.064523
0.022444 0.440153 0.038046
0.131902 0.454052 0.039435
0.293572 0.468142 0.040026
0.490306 0.482428 0.040079
0.715020 0.496897 0.039744
0.963401 0.511525 0.039296
1.000000 0.526533 0.046507
1.000000 0.541495 0.055200
1.000000 0.556628 0.064979
0.036538 0.656304 0.026010
0.151242 0.672069 0.027284
0.315995 0.687986 0.027821
0.516474 0.702800 0.035591
0.738163 0.717108 0.066891
0.957579 0.736207 0.125617
0.998141 0.753587 0.156044
0.996402 0.769169 0.175841
0.995024 0.784700 0.196303
0.078428 0.886567 0.037546
0.215344 0.895734 0.066292
0.398970 0.903347 0.113997
0.600988 0.913313 0.181805
0.801105 0.929982 0.266171
0.987721 0.956571 0.356470
1.000000 0.973852 0.385071
1.000000 0.988276 0.403459
1.000000 0.988487 0.408762
0.166680 0.977123 0.112029
0.297833 0.971388 0.145983
0.467390 0.966352 0.194994
0.650935 0.965489 0.256433
0.833599 0.971750 0.325786
1.000000 0.986794 0.394478
1.000000 0.988276 0.403459
1.000000 0.988487 0.408762
1.000000 0.988705 0.414229
0.174031 0.976691 0.119128
0.309026 0.970900 0.154364
0.480120 0.966087 0.204307
0.663918 0.965691 0.266328
0.846067 0.972600 0.335716
1.000000 0.988276 0.403459
1.000000 0.988487 0.408762
1.000000 0.988705 0.414229
1.000000 0.988930 0.419853
0.181819 0.976239 0.126649
0.320402 0.970418 0.163086
0.492919 0.965849 0.213900
0.676892 0.965940 0.276434
0.858491 0.973509 0.345775
1.000000 0.988487 0.408762
1.000000 0.988705 0.414229
1.000000 0.988930 0.419853
1.000000 0.989163 0.425626
0.008101 0.016761 0.138571
0.104561 0.019678 0.146759
0.257936 0.023268 0.154469
0.447623 0.027508 0.161534
0.666186 0.032377 0.167803
0.909393 0.037855 0.173186
1.000000 0.043962 0.180766
1.000000 0.050518 0.190428
1.000000 0.057428 0.200259
0.011035 0.112417 0.144922
0.113788 0.121143 0.152503
0.270847 0.130068 0.159308
0.463660 0.139286 0.165306
0.685043 0.148841 0.170447
0.930818 0.158745 0.174727
1.000000 0.168920 0.182181
1.000000 0.179281 0.191683
1.000000 0.189838 0.201354
0.017327 0.264944 0.146987
0.126120 0.276694 0.153687
0.287036 0.288641 0.159380
0.483082 0.300831 0.164215
0.707275 0.313278 0.168264
0.955466 0.325973 0.171637
1.000000 0.338723 0.179216
1.000000 0.351569 0.188635
1.000000 0.364560 0.198228
0.028216 0.454033 0.143808
0.142579 0.468084 0.149716
0.307072 0.482327 0.154549
0.505966 0.496760 0.158624
0.732453 0.511363 0.162147
0.980466 0.526453 0.167505
1.000000 0.542000 0.180193
1.000000 0.557261 0.192857
1.000000 0.572677 0.206269
0.043162 0.672011 0.136095
0.162393 0.687893 0.141648
0.330243 0.703719 0.146967
0.534361 0.717602 0.163983
0.754962 0.732593 0.200990
0.969385 0.753897 0.260644
0.995327 0.771113 0.288176
0.994236 0.786803 0.309175
0.993582 0.802440 0.330485
0.099965 0.898695 0.159538
0.243508 0.907147 0.192958
0.429248 0.915117 0.242704
0.629431 0.926759 0.308822
0.825083 0.946185 0.386976
1.000000 0.975826 0.466081
1.000000 0.991758 0.487968
1.000000 0.992060 0.495002
1.000000 0.992368 0.502132
0.184009 0.974741 0.224185
0.318695 0.969438 0.258918
0.488772 0.965519 0.306168
0.670892 0.966382 0.363563
0.851094 0.974751 0.426871
1.000000 0.991758 0.487968
1.000000 0.992060 0.495002
1.000000 0.992368 0.502132
1.000000 0.992681 0.509356
0.192106 0.974264 0.234624
0.330301 0.968980 0.270140
0.501702 0.965361 0.317843
0.683904 0.966764 0.375356
0.863508 0.975827 0.438291
1.000000 0.992060 0.495002
1.000000 0.992368 0.502132
1.000000 0.992681 0.509356
1.000000 0.993001 0.516669
0.200587 0.973778 0.245268
0.342059 0.968537 0.281511
0.514674 0.965240 0.329623
0.696888 0.967201 0.387208
0.875871 0.976965 0.449713
1.000000 0.992368 0.502132
1.000000 0.992681 0.509356
1.000000 0.993001 0.516669
1.000000 0.993327 0.524070
0.011234 0.019843 0.288826
0.113519 0.023562 0.299723
0.269896 0.027813 0.310003
0.461919 0.032633 0.319524
0.682473 0.038024 0.328165
0.927441 0.043979 0.335859
1.000000 0.050499 0.346196
1.000000 0.057412 0.358311
1.000000 0.064658 0.370545
0.015313 0.121258 0.297511
0.123391 0.130242 0.307665
0.283425 0.139439 0.316934
0.478561 0.148931 0.325312
0.701912 0.158754 0.332774
0.949408 0.168916 0.339344
1.000000 0.179302 0.349589
1.000000 0.189861 0.361498
1.000000 0.200612 0.373529
0.022814 0.276735 0.301657
0.136542 0.288678 0.310848
0.300345 0.300826 0.318965
0.498635 0.313216 0.326173
0.724705 0.325854 0.332569
0.974507 0.338725 0.338287
1.000000 0.351614 0.348694
1.000000 0.364606 0.360488
1.000000 0.377742 0.372411
0.034785 0.468061 0.300541
0.153735 0.482266 0.308915
0.320981 0.496659 0.316193
0.521987 0.511234 0.322698
0.750203 0.525963 0.328660
0.994874 0.542294 0.339320
1.000000 0.558331 0.354126
1.000000 0.573932 0.368681
1.000000 0.589675 0.383671
0.050500 0.687844 0.295112
0.173979 0.703838 0.303166
0.347036 0.718737 0.313397
0.554086 0.732277 0.334213
0.772560 0.748764 0.370311
0.981252 0.773039 0.423917
0.993603 0.789834 0.446718
0.993393 0.805660 0.466853
0.993680 0.821431 0.487070
0.128107 0.909609 0.323869
0.277355 0.917895 0.356803
0.463886 0.927019 0.402706
0.660771 0.941203 0.461164
0.850877 0.964077 0.527806
1.000000 0.996383 0.591552
1.000000 0.996762 0.599691
1.000000 0.997147 0.607897
1.000000 0.997537 0.616168
0.206219 0.971901 0.373591
0.343602 0.967424 0.405554
0.513275 0.965115 0.447247
0.692998 0.968222 0.496877
0.869969 0.979115 0.550917
1.000000 0.996762 0.599691
1.000000 0.997147 0.607897
1.000000 0.997537 0.616168
1.000000 0.997932 0.624503
0.214901 0.971442 0.385664
0.355474 0.967063 0.418028
0.526261 0.965129 0.459832
0.705917 0.968835 0.509293
0.882256 0.980439 0.562771
1.000000 0.997147 0.607897
1.000000 0.997537 0.616168
1.000000 0.997932 0.624503
1.000000 0.998332 0.632901
0.223928 0.970982 0.397848
0.367476 0.966725 0.430564
0.539272 0.965189 0.472444
0.718797 0.969507 0.521699
0.894492 0.981824 0.574582
1.000000 0.997537 0.616168
1.000000 0.997932 0.624503
1.000000 0.998332 0.632901
1.000000 0.998737 0.641361
0.015209 0.023691 0.475478
0.122788 0.028054 0.488294
0.282135 0.032881 0.500394
0.476494 0.038225 0.511669
0.699044 0.044099 0.522019
0.945778 0.050501 0.531400
1.000000 0.057401 0.543945
1.000000 0.064650 0.557967
1.000000 0.072211 0.572081
0.020357 0.130328 0.485653
0.133381 0.139572 0.497645
0.296345 0.149041 0.508683
0.493789 0.158805 0.518787
0.719097 0.168892 0.527960
0.968299 0.179306 0.536246
1.000000 0.189893 0.548760
1.000000 0.200647 0.562556
1.000000 0.211587 0.576450
0.029029 0.288703 0.491105
0.147388 0.300840 0.502107
0.314022 0.313189 0.512007
0.514524 0.325775 0.520987
0.742441 0.338599 0.529168
0.993820 0.351638 0.536709
1.000000 0.364660 0.549439
1.000000 0.377796 0.563115
1.000000 0.391073 0.576898
0.042031 0.482239 0.491367
0.165306 0.496594 0.501580
0.335233 0.511134 0.510714
0.538300 0.525843 0.519101
0.767777 0.540801 0.527104
1.000000 0.559510 0.538548
1.000000 0.575834 0.553214
1.000000 0.591816 0.567941
1.000000 0.607921 0.582803
0.058423 0.703795 0.487637
0.187201 0.719486 0.497854
0.367136 0.733173 0.510019
0.576020 0.747234 0.528458
0.791332 0.766071 0.557409
0.993398 0.793869 0.599375
0.993732 0.809903 0.617425
0.994589 0.825880 0.635469
0.995982 0.841797 0.653475
0.162840 0.919820 0.510781
0.316452 0.928639 0.538938
0.502154 0.939750 0.576575
0.694199 0.957218 0.623646
0.877581 0.983402 0.676297
1.000000 1.000000 0.717113
1.000000 1.000000 0.726120
1.000000 1.000000 0.735179
1.000000 1.000000 0.744291
0.232368 0.969121 0.544353
0.371626 0.965849 0.571101
0.540029 0.965575 0.604790
0.716531 0.971302 0.644605
0.889751 0.984921 0.688201
1.000000 1.000000 0.726120
1.000000 1.000000 0.735179
1.000000 1.000000 0.744291
1.000000 1.000000 0.753454
0.241541 0.968730 0.557213
0.383671 0.965638 0.584009
0.552977 0.965811 0.617540
0.729280 0.972181 0.657020
0.901873 0.986499 0.700054
1.000000 1.000000 0.735179
1.000000 1.000000 0.744291
1.000000 1.000000 0.753454
1.000000 1.000000 0.762669
0.251024 0.968347 0.570113
0.395826 0.965460 0.596918
0.565932 0.966100 0.630266
0.741979 0.973123 0.669393
0.913949 0.988134 0.711856
1.000000 1.000000 0.744291
1.000000 1.000000 0.753454
1.000000 1.000000 0.762669
1.000000 1.000000 0.771934
0.019904 0.028156 0.690498
0.132405 0.033076 0.704822
0.294682 0.038422 0.718350
0.491366 0.044250 0.731002
0.715909 0.050576 0.742706
0.964403 0.057399 0.753440
1.000000 0.064649 0.767903
1.000000 0.072215 0.783522
1.000000 0.080076 0.799218
0.026097 0.139636 0.701712
0.143773 0.149138 0.715156
0.309616 0.158876 0.727598
0.509344 0.168909 0.739083
0.736589 0.179255 0.749639
0.987474 0.189913 0.759336
1.000000 0.200690 0.773837
1.000000 0.211633 0.789224
1.000000 0.222758 0.804695
0.035910 0.300852 0.708067
0.158649 0.313184 0.720524
0.328051 0.325730 0.731871
0.530726 0.338507 0.742307
0.760453 0.351509 0.751978
1.000000 0.364706 0.761066
1.000000 0.377856 0.775836
1.000000 0.391133 0.791111
1.000000 0.404548 0.806481
0.049884 0.496565 0.709368
0.177257 0.511067 0.721096
0.349790 0.525747 0.731780
0.554861 0.540581 0.741764
0.784028 0.556466 0.748970
1.000000 0.578576 0.753216
1.000000 0.594847 0.766632
1.000000 0.611240 0.779927
1.000000 0.627735 0.793096
0.067328 0.719729 0.706945
0.205313 0.734113 0.716748
0.391108 0.747449 0.724660
0.600528 0.762988 0.734451
0.811669 0.784960 0.750811
0.994829 0.815262 0.776395
0.996333 0.831448 0.791740
0.998381 0.847566 0.807069
1.000000 0.863616 0.822383
0.203998 0.929940 0.708030
0.360254 0.940066 0.727781
0.543232 0.953958 0.754139
0.728439 0.974754 0.788152
0.898134 0.990434 0.822211
1.000000 1.000000 0.854329
1.000000 1.000000 0.864077
1.000000 1.000000 0.873875
1.000000 1.000000 0.883723
0.261986 0.966820 0.727396
0.402236 0.965126 0.747002
0.568480 0.967255 0.771097
0.741002 0.975857 0.800302
0.910110 0.992200 0.833999
1.000000 1.000000 0.864077
1.000000 1.000000 0.873875
1.000000 1.000000 0.883723
1.000000 1.000000 0.893621
0.271563 0.966545 0.740441
0.414366 0.965116 0.759787
0.581301 0.967756 0.783547
0.753511 0.977023 0.812405
0.922047 0.994018 0.845761
1.000000 1.000000 0.873875
1.000000 1.000000 0.883723
1.000000 1.000000 0.893621
1.000000 1.000000 0.903570
0.281416 0.966288 0.753468
0.426585 0.965146 0.772528
0.594113 0.968314 0.795944
0.765965 0.978252 0.824463
0.933948 0.995884 0.857501
1.000000 1.000000 0.883723
1.000000 1.000000 0.893621
1.000000 1.000000 0.903570
1.000000 1.000000 0.913570
0.025260 0.033157 0.929373
0.142397 0.038578 0.944942
0.307560 0.044402 0.959647
0.506553 0.050682 0.973439
0.733076 0.057434 0.986271
0.983313 0.064653 0.998148
1.000000 0.072228 1.000000
1.000000 0.080093 1.000000
1.000000 0.088239 1.000000
0.032493 0.149184 0.941333
0.154576 0.158943 0.955987
0.323246 0.168947 0.969602
0.525225 0.179241 0.982252
0.754378 0.189839 0.993989
1.000000 0.200731 1.000000
1.000000 0.211689 1.000000
1.000000 0.222811 1.000000
1.000000 0.234111 1.000000
0.043412 0.313185 0.948347
0.170315 0.325709 0.962038
0.342421 0.338447 0.974624
0.547222 0.351409 0.986323
0.778713 0.364578 0.997307
1.000000 0.377920 1.000000
1.000000 0.391209 1.000000
1.000000 0.404804 1.000000
1.000000 0.418726 1.000000
0.058288 0.511037 0.950501
0.189557 0.525680 0.963546
0.364618 0.540491 0.975595
0.571727 0.555536 0.985761
0.799328 0.573544 0.982880
1.000000 0.598622 0.958334
1.000000 0.614956 0.954169
1.000000 0.631344 0.950157
1.000000 0.647768 0.946340
0.081878 0.734595 0.945515
0.229128 0.748155 0.949102
0.419372 0.762134 0.946503
0.627855 0.780080 0.941591
0.833467 0.805427 0.928641
0.998615 0.837112 0.927992
1.000000 0.852854 0.929349
1.000000 0.868498 0.931211
1.000000 0.884048 0.933571
0.251016 0.940665 0.906233
0.407839 0.952875 0.915137
0.585429 0.969710 0.928738
0.752678 0.980238 0.937183
0.917608 0.997840 0.953336
1.000000 1.000000 0.970844
1.000000 1.000000 0.970844
1.000000 1.000000 0.970844
1.000000 1.000000 0.970844
0.294656 0.965394 0.916141
0.434879 0.965628 0.926803
0.596783 0.970208 0.929083
0.764035 0.981217 0.938038
0.928758 0.999273 0.954704
1.000000 1.000000 0.970844
1.000000 1.000000 0.970844
1.000000 1.000000 0.970844
1.000000 1.000000 0.970844
0.304480 0.965284 0.928435
0.445444 0.965774 0.926793
0.608159 0.970737 0.929459
0.775376 0.982230 0.938930
0.939907 1.000000 0.956101
1.000000 1.000000 0.970844
1.000000 1.000000 0.970844
1.000000 1.000000 0.970844
1.000000 1.000000 0.970844
0.312840 0.965232 0.928254
0.456103 0.965941 0.926803
0.619552 0.971297 0.929868
0.786701 0.983276 0.939859
0.951059 1.000000 0.957527
1.000000 1.000000 0.970844
1.000000 1.000000 0.970844
1.000000 1.000000 0.970844
1.000000 1.000000 0.970844
0.031135 0.038753 1.000000
0.152565 0.044625 1.000000
0.320421 0.050873 1.000000
0.521521 0.057549 1.000000
0.749809 0.064667 1.000000
1.000000 0.072226 1.000000
1.000000 0.080093 1.000000
1.000000 0.088239 1.000000
1.000000 0.096652 1.000000
0.039145 0.159034 1.000000
0.165297 0.169029 1.000000
0.336577 0.179268 1.000000
0.540596 0.189787 1.000000
0.771449 0.200598 1.000000
1.000000 0.211689 1.000000
1.000000 0.222811 1.000000
1.000000 0.234111 1.000000
1.000000 0.245585 1.000000
0.050825 0.325696 1.000000
0.181566 0.338390 1.000000
0.356168 0.351294 1.000000
0.562910 0.364413 1.000000
0.796008 0.377729 1.000000
1.000000 0.391209 1.000000
1.000000 0.404804 1.000000
1.000000 0.418726 1.000000
1.000000 0.432956 0.999992
0.066285 0.525597 1.000000
0.201168 0.540366 1.000000
0.378596 0.555295 1.000000
0.587712 0.570624 0.998902
0.814684 0.589565 0.977137
1.000000 0.614956 0.954169
1.000000 0.631344 0.950157
1.000000 0.647768 0.946340
0.999271 0.664211 0.942759
0.095921 0.749545 0.991542
0.248415 0.762843 0.975734
0.440351 0.777055 0.955761
0.647586 0.795611 0.937371
0.850573 0.821947 0.927297
1.000000 0.852854 0.929349
1.000000 0.868498 0.931211
1.000000 0.884048 0.933571
1.000000 0.899509 0.936416
0.279490 0.953148 0.930264
0.434879 0.965628 0.926803
0.596783 0.970208 0.929083
0.764035 0.981217 0.938038
0.928758 0.999273 0.954704
1.000000 1.000000 0.970844
1.000000 1.000000 0.970844
1.000000 1.000000 0.970844
1.000000 1.000000 0.970844
0.304480 0.965284 0.928435
0.445444 0.965774 0.926793
0.608159 0.970737 0.929459
0.775376 0.982230 0.938930
0.939907 1.000000 0.956101
1.000000 1.000000 0.970844
1.000000 1.000000 0.970844
1.000000 1.000000 0.970844
1.000000 1.000000 0.970844
0.312840 0.965232 0.928254
0.456103 0.965941 0.926803
0.619552 0.971297 0.929868
0.786701 0.983276 0.939859
0.951059 1.000000 0.957527
1.000000 1.000000 0.970844
1.000000 1.000000 0.970844
1.000000 1.000000 0.970844
1.000000 1.000000 0.970844
0.321435 0.965188 0.928077
0.466852 0.966130 0.926835
0.630959 0.971889 0.930309
0.798007 0.984356 0.940825
0.962217 1.000000 0.958982
1.000000 1.000000 0.970844
1.000000 1.000000 0.970844
1.000000 1.000000 0.970844
1.000000 1.000000 0.970844
0.037379 0.044873 1.000000
0.162841 0.051130 1.000000
0.333296 0.057746 1.000000
0.536458 0.064770 1.000000
0.766503 0.072221 1.000000
1.000000 0.080093 1.000000
1.000000 0.088239 1.000000
1.000000 0.096652 1.000000
1.000000 0.105323 1.000000
0.045989 0.169138 1.000000
0.176018 0.179346 1.000000
0.349861 0.189797 1.000000
0.555919 0.200526 1.000000
0.788501 0.211540 1.000000
1.000000 0.222811 1.000000
1.000000 0.234111 1.000000
1.000000 0.245585 1.000000
1.000000 0.257228 1.000000
0.058300 0.338362 1.000000
0.192758 0.351217 1.000000
0.369854 0.364281 1.000000
0.578575 0.377554 1.000000
0.813335 0.391016 1.000000
1.000000 0.404804 1.000000
1.000000 0.418726 1.000000
1.000000 0.432956 0.999992
1.000000 0.447474 0.997122
0.074309 0.540264 1.000000
0.212734 0.555160 1.000000
0.392558 0.570209 1.000000
0.603774 0.585866 0.994578
0.829836 0.605801 0.971233
1.000000 0.631344 0.950157
1.000000 0.647768 0.946340
0.999271 0.664211 0.942759
0.997493 0.680657 0.939455
0.109987 0.764510 0.986641
0.267380 0.777526 0.969940
0.461164 0.791910 0.950321
0.667472 0.811152 0.933768
0.867670 0.838492 0.926796
1.000000 0.868498 0.931211
1.000000 0.884048 0.933571
1.000000 0.899509 0.936416
1.000000 0.914887 0.939725
0.304480 0.965284 0.928435
0.445444 0.965774 0.926793
0.608159 0.970737 0.929459
0.775376 0.982230 0.938930
0.939907 1.000000 0.956101
1.000000 1.000000 0.970844
1.000000 1.000000 0.970844
1.000000 1.000000 0.970844
1.000000 1.000000 0.970844
0.312840 0.965232 0.928254
0.456103 0.965941 0.926803
0.619552 0.971297 0.929868
0.786701 0.983276 0.939859
0.951059 1.000000 0.957527
1.000000 1.000000 0.970844
1.000000 1.000000 0.970844
1.000000 1.000000 0.970844
1.000000 1.000000 0.970844
0.321435 0.965188 0.928077
0.466852 0.966130 0.926835
0.630959 0.971889 0.930309
0.798007 0.984356 0.940825
0.962217 1.000000 0.958982
1.000000 1.000000 0.970844
1.000000 1.000000 0.970844
1.000000 1.000000 0.970844
1.000000 1.000000 0.970844
0.330251 0.965153 0.927907
0.477682 0.966342 0.926889
0.642376 0.972512 0.930784
0.809296 0.985469 0.941827
0.973386 1.000000 0.960462
1.000000 1.000000 0.970844
1.000000 1.000000 0.970844
1.000000 1.000000 0.970844
1.000000 1.000000 0.970844
0.044019 0.051374 1.000000
0.173334 0.057990 1.000000
0.346339 0.064951 1.000000
0.551539 0.072306 1.000000
0.783324 0.080072 1.000000
1.000000 0.088239 1.000000
1.000000 0.096652 1.000000
1.000000 0.105323 1.000000
1.000000 0.114241 1.000000
0.053209 0.179445 1.000000
0.186958 0.189860 1.000000
0.363314 0.200519 1.000000
0.571383 0.211453 1.000000
0.805675 0.222665 1.000000
1.000000 0.234111 1.000000
1.000000 0.245585 1.000000
1.000000 0.257228 1.000000
1.000000 0.269038 1.000000
0.066130 0.351178 1.000000
0.204160 0.364192 1.000000
0.383702 0.377413 1.000000
0.594372 0.390837 1.000000
0.830772 0.404441 1.000000
1.000000 0.418726 1.000000
1.000000 0.432956 0.999992
1.000000 0.447474 0.997122
1.000000 0.462260 0.993901
0.082658 0.555054 1.000000
0.224492 0.570074 1.000000
0.406767 0.585234 1.000000
0.619993 0.601267 0.989662
0.844790 0.622237 0.965293
1.000000 0.647768 0.946340
0.999271 0.664211 0.942759
0.997493 0.680657 0.939455
0.995997 0.697089 0.936465
0.125418 0.779291 0.981386
0.287270 0.792084 0.964132
0.482451 0.806717 0.945245
0.687473 0.826708 0.930854
0.884754 0.855059 0.927163
1.000000 0.884048 0.933571
1.000000 0.899509 0.936416
1.000000 0.914887 0.939725
1.000000 0.930193 0.943473
0.312840 0.965232 0.928254
0.456103 0.965941 0.926803
0.619552 0.971297 0.929868
0.786701 0.983276 0.939859
0.951059 1.000000 0.957527
1.000000 1.000000 0.970844
1.000000 1.000000 0.970844
1.000000 1.000000 0.970844
1.000000 1.000000 0.970844
0.321435 0.965188 0.928077
0.466852 0.966130 0.926835
0.630959 0.971889 0.930309
0.798007 0.984356 0.940825
0.962217 1.000000 0.958982
1.000000 1.000000 0.970844
1.000000 1.000000 0.970844
1.000000 1.000000 0.970844
1.000000 1.000000 0.970844
0.330251 0.965153 0.927907
0.477682 0.966342 0.926889
0.642376 0.972512 0.930784
0.809296 0.985469 0.941827
0.973386 1.000000 0.960462
1.000000 1.000000 0.970844
1.000000 1.000000 0.970844
1.000000 1.000000 0.970844
1.000000 1.000000 0.970844
0.339274 0.965129 0.927745
0.488588 0.966578 0.926967
0.653800 0.973167 0.931293
0.820567 0.986614 0.942866
0.984570 1.000000 0.961968
1.000000 1.000000 0.970844
1.000000 1.000000 0.970844
1.000000 1.000000 0.970844
1.000000 1.000000 0.970844
