apps/web/public/luts/kodak-2383-print.cube
TITLE "Kodak 2383 Print"
LUT_3D_SIZE 5
0.006332 0.015000 0.048884
0.246214 0.019310 0.052505
0.650181 0.027189 0.056450
1.000000 0.037810 0.060907
1.000000 0.050536 0.072777
0.012677 0.253315 0.045749
0.274128 0.276627 0.048735
0.690202 0.300876 0.049474
1.000000 0.325995 0.052518
1.000000 0.351534 0.064523
0.036538 0.656304 0.026010
0.315995 0.687986 0.027821
0.738163 0.717108 0.066891
0.998141 0.753587 0.156044
0.995024 0.784700 0.196303
0.166680 0.977123 0.112029
0.467390 0.966352 0.194994
0.833599 0.971750 0.325786
1.000000 0.988276 0.403459
1.000000 0.988705 0.414229
0.181819 0.976239 0.126649
0.492919 0.965849 0.213900
0.858491 0.973509 0.345775
1.000000 0.988705 0.414229
1.000000 0.989163 0.425626
0.011234 0.019843 0.288826
0.269896 0.027813 0.310003
0.682473 0.038024 0.328165
1.000000 0.050499 0.346196
1.000000 0.064658 0.370545
0.022814 0.276735 0.301657
0.300345 0.300826 0.318965
0.724705 0.325854 0.332569
1.000000 0.351614 0.348694
1.000000 0.377742 0.372411
0.050500 0.687844 0.295112
0.347036 0.718737 0.313397
0.772560 0.748764 0.370311
0.993603 0.789834 0.446718
0.993680 0.821431 0.487070
0.206219 0.971901 0.373591
0.513275 0.965115 0.447247
0.869969 0.979115 0.550917
1.000000 0.997147 0.607897
1.000000 0.997932 0.624503
0.223928 0.970982 0.397848
0.539272 0.965189 0.472444
0.894492 0.981824 0.574582
1.000000 0.997932 0.624503
1.000000 0.998737 0.641361
0.019904 0.028156 0.690498
0.294682 0.038422 0.718350
0.715909 0.050576 0.742706
1.000000 0.064649 0.767903
1.000000 0.080076 0.799218
0.035910 0.300852 0.708067
0.328051 0.325730 0.731871
0.760453 0.351509 0.751978
1.000000 0.377856 0.775836
1.000000 0.404548 0.806481
0.067328 0.719729 0.706945
0.391108 0.747449 0.724660
0.811669 0.784960 0.750811
0.996333 0.831448 0.791740
1.000000 0.863616 0.822383
0.261986 0.966820 0.727396
0.568480 0.967255 0.771097
0.910110 0.992200 0.833999
1.000000 1.000000 0.873875
1.000000 1.000000 0.893621
0.281416 0.966288 0.753468
0.594113 0.968314 0.795944
0.933948 0.995884 0.857501
1.000000 1.000000 0.893621
1.000000 1.000000 0.913570
0.031135 0.038753 1.000000
0.320421 0.050873 1.000000
0.749809 0.064667 1.000000
1.000000 0.080093 1.000000
1.000000 0.096652 1.000000
0.050825 0.325696 1.000000
0.356168 0.351294 1.000000
0.796008 0.377729 1.000000
1.000000 0.404804 1.000000
1.000000 0.432956 0.999992
0.095921 0.749545 0.991542
0.440351 0.777055 0.955761
0.850573 0.821947 0.927297
1.000000 0.868498 0.931211
1.000000 0.899509 0.936416
0.304480 0.965284 0.928435
0.608159 0.970737 0.929459
0.939907 1.000000 0.956101
1.000000 1.000000 0.970844
1.000000 1.000000 0.970844
0.321435 0.965188 0.928077
0.630959 0.971889 0.930309
0.962217 1.000000 0.958982
1.000000 1.000000 0.970844
1.000000 1.000000 0.970844
0.044019 0.051374 1.000000
0.346339 0.064951 1.000000
0.783324 0.080072 1.000000
1.000000 0.096652 1.000000
1.000000 0.114241 1.000000
0.066130 0.351178 1.000000
0.383702 0.377413 1.000000
0.830772 0.404441 1.000000
1.000000 0.432956 0.999992
1.000000 0.462260 0.993901
0.125418 0.779291 0.981386
0.482451 0.806717 0.945245
0.884754 0.855059 0.927163
1.000000 0.899509 0.936416
1.000000 0.930193 0.943473
0.321435 0.965188 0.928077
0.630959 0.971889 0.930309
0.962217 1.000000 0.958982
1.000000 1.000000 0.970844
1.000000 1.000000 0.970844
0.339274 0.965129 0.927745
0.653800 0.973167 0.931293
0.984570 1.000000 0.961968
1.000000 1.000000 0.970844
1.000000 1.000000 0.970844
